;FLAVOR:Marlin
;TIME:3047
;Filament used: 2.25081m
;Layer height: 0.2
;MINX:93.533
;MINY:93.451
;MINZ:0.2
;MAXX:141.467
;MAXY:141.549
;MAXZ:12
;Generated with Cura_SteamEngine 5.2.1
M140 S65
M105
M190 S65
M104 S240
M105
M109 S240
M82 ;absolute extrusion mode
; Ender 3 Custom Start G-code
G92 E0 ; Reset Extruder
G28 ; Home all axes
G1 Z2.0 F3000 ; Move Z Axis up little to prevent scratching of Heat Bed
G1 X0.1 Y20 Z0.3 F5000.0 ; Move to start position
G1 X0.1 Y200.0 Z0.3 F1500.0 E15 ; Draw the first line
G1 X0.4 Y200.0 Z0.3 F5000.0 ; Move to side a little
G1 X0.4 Y20 Z0.3 F1500.0 E30 ; Draw the second line
G92 E0 ; Reset Extruder
G1 Z2.0 F3000 ; Move Z Axis up little to prevent scratching of Heat Bed
G1 X5 Y20 Z0.3 F5000.0 ; Move over to prevent blob squish
G92 E0
G92 E0
G1 F2700 E-5
;LAYER_COUNT:60
;LAYER:0
M107
;MESH:lens_cap.stl
G0 F6000 X117.5 Y140.345 Z0.2
;TYPE:WALL-INNER
G1 F2700 E0
G1 F900 X121.257 Y140.033 E0.12539
G1 X124.904 Y139.11 E0.25051
G1 X128.376 Y137.59 E0.37657
G1 X131.533 Y135.527 E0.50201
G1 X134.305 Y132.973 E0.62737
G1 X136.625 Y129.992 E0.75301
G1 X138.421 Y126.675 E0.87847
G1 X139.645 Y123.109 E1.00386
G1 X140.267 Y119.384 E1.12947
G1 X140.267 Y117.499 E1.19217
G1 X140.267 Y115.612 E1.25493
G1 X139.645 Y111.891 E1.38041
G1 X138.421 Y108.325 E1.50581
G1 X136.625 Y105.008 E1.63126
G1 X134.305 Y102.027 E1.7569
G1 X131.533 Y99.473 E1.88227
G1 X128.372 Y97.408 E2.00785
G1 X124.904 Y95.89 E2.13376
G1 X121.257 Y94.967 E2.25888
G1 X117.5 Y94.655 E2.38427
G1 X113.743 Y94.967 E2.50966
G1 X110.096 Y95.89 E2.63478
G1 X106.624 Y97.41 E2.76084
G1 X103.467 Y99.473 E2.88628
G1 X100.695 Y102.027 E3.01164
G1 X98.375 Y105.008 E3.13728
G1 X96.579 Y108.325 E3.26274
G1 X95.355 Y111.891 E3.38813
G1 X94.733 Y115.616 E3.51374
G1 X94.733 Y119.388 E3.6392
G1 X95.355 Y123.109 E3.76468
G1 X96.579 Y126.675 E3.89008
G1 X98.375 Y129.992 E4.01554
G1 X100.695 Y132.973 E4.14117
G1 X103.467 Y135.527 E4.26654
G1 X106.624 Y137.59 E4.39197
G1 X110.096 Y139.11 E4.51803
G1 X113.743 Y140.033 E4.64315
G1 X117.5 Y140.345 E4.76854
G0 F6000 X117.5 Y140.746
G1 F900 X121.323 Y140.429 E4.89613
G1 X125.034 Y139.489 E5.02346
G1 X128.567 Y137.943 E5.15173
G1 X131.78 Y135.844 E5.27937
G1 X134.6 Y133.245 E5.40693
G1 X136.961 Y130.212 E5.53477
G1 X138.789 Y126.836 E5.66246
G1 X140.034 Y123.207 E5.79006
G1 X140.667 Y119.418 E5.91783
G1 X140.667 Y117.499 E5.98166
G1 X140.667 Y115.578 E6.04555
G1 X140.034 Y111.793 E6.17319
G1 X138.789 Y108.164 E6.30079
G1 X136.961 Y104.788 E6.42848
G1 X134.6 Y101.755 E6.55632
G1 X131.78 Y99.156 E6.68388
G1 X128.563 Y97.055 E6.81167
G1 X125.034 Y95.511 E6.93979
G1 X121.323 Y94.571 E7.06712
G1 X117.5 Y94.254 E7.19471
G1 X113.677 Y94.571 E7.3223
G1 X109.966 Y95.511 E7.44962
G1 X106.433 Y97.057 E7.57789
G1 X103.22 Y99.156 E7.70554
G1 X100.4 Y101.755 E7.83309
G1 X98.039 Y104.788 E7.96093
G1 X96.211 Y108.164 E8.08862
G1 X94.966 Y111.793 E8.21622
G1 X94.333 Y115.582 E8.34399
G1 X94.333 Y119.422 E8.47171
G1 X94.966 Y123.207 E8.59935
G1 X96.211 Y126.836 E8.72696
G1 X98.039 Y130.212 E8.85465
G1 X100.4 Y133.245 E8.98249
G1 X103.22 Y135.844 E9.11004
G1 X106.433 Y137.943 E9.23769
G1 X109.966 Y139.489 E9.36595
G1 X113.677 Y140.429 E9.49328
G1 X117.5 Y140.746 E9.62087
G0 F6000 X117.5 Y141.147
G1 F900 X121.389 Y140.825 E9.75066
G1 X125.164 Y139.869 E9.88018
G1 X128.758 Y138.296 E10.01067
G1 X132.027 Y136.16 E10.14055
G1 X134.895 Y133.517 E10.27026
G1 X137.297 Y130.431 E10.40033
G1 X139.156 Y126.998 E10.53018
G1 X140.423 Y123.306 E10.66001
G1 X141.067 Y119.451 E10.79
G1 X141.067 Y117.499 E10.85492
G1 X141.067 Y115.545 E10.91992
G1 X140.423 Y111.694 E11.04978
G1 X139.156 Y108.002 E11.1796
G1 X137.297 Y104.569 E11.30945
G1 X134.895 Y101.483 E11.43952
G1 X132.027 Y98.84 E11.56924
G1 X128.754 Y96.702 E11.69927
G1 X125.164 Y95.131 E11.8296
G1 X121.389 Y94.175 E11.95912
G1 X117.5 Y93.853 E12.08892
G1 X113.611 Y94.175 E12.21871
G1 X109.836 Y95.131 E12.34823
G1 X106.242 Y96.704 E12.47871
G1 X102.973 Y98.84 E12.60859
G1 X100.105 Y101.483 E12.73831
G1 X97.703 Y104.569 E12.86838
G1 X95.844 Y108.002 E12.99823
G1 X94.577 Y111.694 E13.12805
G1 X93.933 Y115.549 E13.25805
G1 X93.933 Y119.455 E13.38796
G1 X94.577 Y123.306 E13.51782
G1 X95.844 Y126.998 E13.64765
G1 X97.703 Y130.431 E13.7775
G1 X100.105 Y133.517 E13.90757
G1 X102.973 Y136.16 E14.03728
G1 X106.242 Y138.296 E14.16716
G1 X109.836 Y139.869 E14.29765
G1 X113.611 Y140.825 E14.42717
G1 X117.5 Y141.147 E14.55696
G0 F6000 X117.5 Y141.549
;TYPE:WALL-OUTER
G1 F900 X121.455 Y141.221 E14.68896
G1 X125.294 Y140.249 E14.82067
G1 X128.949 Y138.649 E14.95338
G1 X132.273 Y136.477 E15.08544
G1 X135.191 Y133.789 E15.2174
G1 X137.633 Y130.651 E15.34965
G1 X139.524 Y127.159 E15.48173
G1 X140.812 Y123.404 E15.61376
G1 X141.467 Y119.484 E15.74595
G1 X141.467 Y117.499 E15.81197
G1 X141.467 Y115.512 E15.87806
G1 X140.812 Y111.596 E16.01011
G1 X139.524 Y107.841 E16.14215
G1 X137.633 Y104.349 E16.27423
G1 X135.191 Y101.211 E16.40648
G1 X132.273 Y98.523 E16.53844
G1 X128.945 Y96.349 E16.67065
G1 X125.294 Y94.751 E16.8032
G1 X121.455 Y93.779 E16.93492
G1 X117.5 Y93.451 E17.06691
G1 X113.545 Y93.779 E17.19891
G1 X109.706 Y94.751 E17.33063
G1 X106.051 Y96.351 E17.46333
G1 X102.727 Y98.523 E17.5954
G1 X99.809 Y101.211 E17.72735
G1 X97.367 Y104.349 E17.8596
G1 X95.476 Y107.841 E17.99168
G1 X94.188 Y111.596 E18.12372
G1 X93.533 Y115.516 E18.2559
G1 X93.533 Y119.488 E18.38801
G1 X94.188 Y123.404 E18.52007
G1 X95.476 Y127.159 E18.6521
G1 X97.367 Y130.651 E18.78418
G1 X99.809 Y133.789 E18.91643
G1 X102.727 Y136.477 E19.04839
G1 X106.051 Y138.649 E19.18046
G1 X109.706 Y140.249 E19.31316
G1 X113.545 Y141.221 E19.44487
G1 X117.5 Y141.549 E19.57687
G0 F6000 X117.5 Y140.848
G0 X117.478 Y140.241
G0 X117.5 Y139.983
;TYPE:SKIN
G1 F900 X121.195 Y139.677 E19.70019
G1 X124.772 Y138.771 E19.82291
G1 X128.206 Y137.27 E19.94756
G1 X131.313 Y135.241 E20.07099
G1 X134.039 Y132.729 E20.19428
G1 X136.322 Y129.792 E20.31801
G1 X138.09 Y126.528 E20.44147
G1 X139.293 Y123.02 E20.56482
G1 X139.907 Y119.352 E20.68851
G1 X139.907 Y117.498 E20.75018
G1 X139.907 Y115.64 E20.81197
G1 X139.293 Y111.98 E20.93541
G1 X138.09 Y108.472 E21.05875
G1 X136.322 Y105.208 E21.18222
G1 X134.037 Y102.27 E21.30601
G1 X131.313 Y99.759 E21.42923
G1 X128.2 Y97.727 E21.55288
G1 X124.772 Y96.229 E21.6773
G1 X121.195 Y95.323 E21.80003
G1 X117.5 Y95.017 E21.92335
G1 X113.805 Y95.323 E22.04666
G1 X110.228 Y96.229 E22.16939
G1 X106.794 Y97.73 E22.29404
G1 X103.687 Y99.759 E22.41747
G1 X100.959 Y102.272 E22.54083
G1 X98.678 Y105.208 E22.66449
G1 X96.91 Y108.472 E22.78795
G1 X95.707 Y111.98 E22.9113
G1 X95.093 Y115.648 E23.035
G1 X95.093 Y119.36 E23.15846
G1 X95.707 Y123.02 E23.28189
G1 X96.91 Y126.528 E23.40524
G1 X98.678 Y129.792 E23.5287
G1 X100.962 Y132.729 E23.65245
G1 X103.687 Y135.241 E23.77572
G1 X106.794 Y137.27 E23.89914
G1 X110.228 Y138.771 E24.02379
G1 X113.805 Y139.677 E24.14652
G1 X117.5 Y139.983 E24.26983
G0 F6000 X117.478 Y140.241
G0 X113.77 Y139.874
G0 X110.149 Y138.957
G0 X106.7 Y137.448
G0 X103.566 Y135.4
G0 X100.814 Y132.865
G0 X99.452 Y131.212
G0 X99.816 Y130.929
G1 F900 X104.269 Y135.381 E24.47926
G0 F6000 X104.017 Y135.766
G0 X105.647 Y136.831
G0 X105.899 Y136.446
G1 F900 X98.504 Y129.051 E24.8271
G0 F6000 X98.099 Y129.27
G0 X97.43 Y128.037
G0 X97.836 Y127.818
G1 F900 X107.282 Y137.264 E25.27141
G0 F6000 X107.096 Y137.686
G0 X108.101 Y138.126
G0 X108.287 Y137.703
G1 F900 X97.169 Y126.584 E25.79439
G0 F6000 X96.831 Y125.681
G1 F900 X109.292 Y138.142 E26.38052
G0 F6000 X109.105 Y138.566
G0 X110.183 Y139.027
G0 X110.296 Y138.58
G1 F900 X96.536 Y124.82 E27.02775
G0 F6000 X96.241 Y123.96
G1 F900 X111.053 Y138.772 E27.72446
G0 F6000 X111.811 Y138.964
G1 F900 X95.945 Y123.098 E28.47075
G0 F6000 X95.804 Y122.391
G1 F900 X112.569 Y139.156 E29.25932
G0 F6000 X113.326 Y139.348
G1 F900 X95.69 Y121.712 E30.08887
G0 F6000 X95.576 Y121.032
G1 F900 X114.038 Y139.494 E30.95726
G0 F6000 X114.655 Y139.545
G1 F900 X95.462 Y120.352 E31.86004
G0 F6000 X95.348 Y119.672
G1 F900 X115.271 Y139.596 E32.79718
G0 F6000 X115.888 Y139.647
G1 F900 X95.292 Y119.051 E33.76595
G0 F6000 X95.292 Y118.485
G1 F900 X116.505 Y139.698 E34.76375
G0 F6000 X117.121 Y139.749
G1 F900 X95.292 Y117.919 E35.79054
G0 F6000 X95.292 Y117.354
G1 F900 X117.702 Y139.763 E36.84462
G0 F6000 X118.224 Y139.72
G1 F900 X95.292 Y116.788 E37.92327
G0 F6000 X95.292 Y116.222
G1 F900 X118.747 Y139.677 E39.02652
G0 F6000 X119.269 Y139.634
G1 F900 X95.293 Y115.657 E40.1543
G0 F6000 X95.374 Y115.173
G1 F900 X119.792 Y139.591 E41.30285
G0 F6000 X120.314 Y139.548
G1 F900 X95.455 Y114.689 E42.47214
G0 F6000 X95.537 Y114.204
G1 F900 X120.837 Y139.505 E43.6622
G0 F6000 X121.333 Y139.435
G1 F900 X95.617 Y113.719 E44.8718
G0 F6000 X95.699 Y113.235
G1 F900 X121.784 Y139.32 E46.09876
G0 F6000 X122.235 Y139.205
G1 F900 X95.78 Y112.751 E47.3431
G0 F6000 X95.861 Y112.266
G1 F900 X122.687 Y139.092 E48.60491
G0 F6000 X123.138 Y138.977
G1 F900 X95.974 Y111.814 E49.8826
G0 F6000 X96.119 Y111.392
G1 F900 X123.589 Y138.863 E51.17472
G0 F6000 X124.04 Y138.748
G1 F900 X96.264 Y110.971 E52.48125
G0 F6000 X96.408 Y110.55
G1 F900 X124.491 Y138.633 E53.80218
G0 F6000 X124.913 Y138.489
G1 F900 X96.552 Y110.129 E55.13617
G0 F6000 X96.697 Y109.708
G1 F900 X125.306 Y138.317 E56.48185
G0 F6000 X125.7 Y138.145
G1 F900 X96.841 Y109.286 E57.83929
G0 F6000 X96.986 Y108.865
G1 F900 X126.094 Y137.973 E59.20844
G0 F6000 X126.487 Y137.801
G1 F900 X97.144 Y108.458 E60.58865
G0 F6000 X97.343 Y108.091
G1 F900 X126.881 Y137.629 E61.97803
G0 F6000 X127.274 Y137.457
G1 F900 X97.541 Y107.724 E63.37658
G0 F6000 X97.74 Y107.357
G1 F900 X127.668 Y137.285 E64.7843
G0 F6000 X128.061 Y137.112
G1 F900 X97.939 Y106.99 E66.20114
G0 F6000 X98.137 Y106.623
G1 F900 X128.41 Y136.895 E67.62507
G0 F6000 X128.752 Y136.672
G1 F900 X98.336 Y106.256 E69.05574
G0 F6000 X98.535 Y105.889
G1 F900 X129.095 Y136.448 E70.49317
G0 F6000 X129.437 Y136.225
G1 F900 X98.734 Y105.522 E71.93734
G0 F6000 X98.953 Y105.176
G1 F900 X129.779 Y136.002 E73.3873
G0 F6000 X130.121 Y135.778
G1 F900 X99.201 Y104.858 E74.84169
G0 F6000 X99.448 Y104.54
G1 F900 X130.464 Y135.555 E76.30056
G0 F6000 X130.806 Y135.331
G1 F900 X99.696 Y104.221 E77.76388
G0 F6000 X99.943 Y103.903
G1 F900 X131.148 Y135.108 E79.23167
G0 F6000 X131.449 Y134.843
G1 F900 X100.19 Y103.584 E80.70199
G0 F6000 X100.438 Y103.266
G1 F900 X131.743 Y134.571 E82.17449
G0 F6000 X132.037 Y134.3
G1 F900 X100.685 Y102.948 E83.64919
G0 F6000 X100.933 Y102.63
G1 F900 X132.332 Y134.029 E85.1261
G0 F6000 X132.626 Y133.757
G1 F900 X101.194 Y102.326 E86.60454
G0 F6000 X101.489 Y102.055
G1 F900 X132.92 Y133.486 E88.08296
G0 F6000 X133.214 Y133.214
G1 F900 X101.783 Y101.783 E89.56138
G0 F6000 X102.077 Y101.512
G1 F900 X133.509 Y132.943 E91.03982
G0 F6000 X133.803 Y132.672
G1 F900 X102.372 Y101.241 E92.51824
G0 F6000 X102.666 Y100.969
G1 F900 X134.065 Y132.368 E93.99515
G0 F6000 X134.312 Y132.05
G1 F900 X102.961 Y100.698 E95.46983
G0 F6000 X103.255 Y100.427
G1 F900 X134.56 Y131.731 E96.9423
G0 F6000 X134.807 Y131.413
G1 F900 X103.55 Y100.156 E98.41253
G0 F6000 X103.85 Y99.89
G1 F900 X135.055 Y131.095 E99.88032
G0 F6000 X135.302 Y130.777
G1 F900 X104.192 Y99.667 E101.34364
G0 F6000 X104.535 Y99.443
G1 F900 X135.55 Y130.459 E102.80251
G0 F6000 X135.797 Y130.14
G1 F900 X104.877 Y99.22 E104.25689
G0 F6000 X105.219 Y98.997
G1 F900 X136.045 Y129.822 E105.70683
G0 F6000 X136.265 Y129.476
G1 F900 X105.561 Y98.773 E107.15103
G0 F6000 X105.904 Y98.55
G1 F900 X136.463 Y129.109 E108.58843
G0 F6000 X136.662 Y128.742
G1 F900 X106.246 Y98.326 E110.0191
G0 F6000 X106.588 Y98.103
G1 F900 X136.861 Y128.375 E111.44303
G0 F6000 X137.059 Y128.008
G1 F900 X106.937 Y97.886 E112.85988
G0 F6000 X107.33 Y97.713
G1 F900 X137.258 Y127.641 E114.2676
G0 F6000 X137.457 Y127.274
G1 F900 X107.724 Y97.541 E115.66615
G0 F6000 X108.118 Y97.37
G1 F900 X137.656 Y126.907 E117.0555
G0 F6000 X137.854 Y126.541
G1 F900 X108.511 Y97.197 E118.43573
G0 F6000 X108.905 Y97.025
G1 F900 X138.013 Y126.133 E119.80488
G0 F6000 X138.157 Y125.712
G1 F900 X109.298 Y96.853 E121.16232
G0 F6000 X109.692 Y96.682
G1 F900 X138.301 Y125.29 E122.50797
G0 F6000 X138.446 Y124.87
G1 F900 X110.085 Y96.509 E123.84199
G0 F6000 X110.507 Y96.365
G1 F900 X138.59 Y124.448 E125.16293
G0 F6000 X138.735 Y124.027
G1 F900 X110.958 Y96.25 E126.46947
G0 F6000 X111.409 Y96.136
G1 F900 X138.88 Y123.606 E127.7616
G0 F6000 X139.024 Y123.185
G1 F900 X111.861 Y96.022 E129.03926
G0 F6000 X112.312 Y95.907
G1 F900 X139.137 Y122.732 E130.30103
G0 F6000 X139.218 Y122.248
G1 F900 X112.763 Y95.793 E131.54539
G0 F6000 X113.215 Y95.679
G1 F900 X139.3 Y121.763 E132.77233
G0 F6000 X139.381 Y121.279
G1 F900 X113.666 Y95.564 E133.98188
G0 F6000 X114.162 Y95.494
G1 F900 X139.461 Y120.794 E135.17189
G0 F6000 X139.543 Y120.309
G1 F900 X114.684 Y95.451 E136.34116
G0 F6000 X115.206 Y95.407
G1 F900 X139.624 Y119.825 E137.48971
G0 F6000 X139.705 Y119.341
G1 F900 X115.729 Y95.364 E138.61749
G0 F6000 X116.251 Y95.321
G1 F900 X139.706 Y118.776 E139.72074
G0 F6000 X139.706 Y118.21
G1 F900 X116.774 Y95.278 E140.79939
G0 F6000 X117.296 Y95.235
G1 F900 X139.706 Y117.644 E141.85347
G0 F6000 X139.706 Y117.079
G1 F900 X117.877 Y95.25 E142.88024
G0 F6000 X118.494 Y95.301
G1 F900 X139.706 Y116.513 E143.87798
G0 F6000 X139.706 Y115.947
G1 F900 X119.11 Y95.351 E144.84676
G0 F6000 X119.728 Y95.403
G1 F900 X139.65 Y115.326 E145.78385
G0 F6000 X139.536 Y114.646
G1 F900 X120.344 Y95.454 E146.68658
G0 F6000 X120.961 Y95.505
G1 F900 X139.422 Y113.966 E147.55493
G0 F6000 X139.308 Y113.286
G1 F900 X121.673 Y95.651 E148.38443
G0 F6000 X122.43 Y95.843
G1 F900 X139.194 Y112.607 E149.17295
G0 F6000 X139.053 Y111.9
G1 F900 X123.187 Y96.035 E149.91922
G0 F6000 X123.945 Y96.226
G1 F900 X138.757 Y111.039 E150.61595
G0 F6000 X138.462 Y110.178
G1 F900 X124.702 Y96.418 E151.26318
G0 F6000 X124.815 Y95.972
G0 X125.891 Y96.432
G0 X125.705 Y96.855
G1 F900 X138.167 Y109.317 E151.84936
G0 F6000 X137.829 Y108.414
G1 F900 X126.71 Y97.295 E152.37236
G0 F6000 X126.896 Y96.872
G0 X127.901 Y97.312
G0 X127.715 Y97.734
G1 F900 X137.162 Y107.181 E152.81672
G0 F6000 X137.569 Y106.962
G0 X136.9 Y105.728
G0 X136.494 Y105.947
G1 F900 X129.102 Y98.555 E153.16441
G0 F6000 X129.354 Y98.171
G0 X130.981 Y99.233
G0 X130.729 Y99.617
G1 F900 X135.181 Y104.069 E153.37382
G0 F6000 X135.783 Y103.602
G1 F2700 E148.37382
;MESH:NONMESH
G0 F300 X135.783 Y103.602 Z0.4
G0 F6000 X138.273 Y108.39
G0 X139.488 Y111.932
G0 X140.106 Y115.625
G0 X140.106 Y119.371
G0 X139.488 Y123.068
G0 X138.273 Y126.61
G0 X136.49 Y129.903
G0 X134.186 Y132.865
G0 X131.434 Y135.4
G0 X128.3 Y137.448
G0 X124.851 Y138.957
G0 X121.23 Y139.874
G0 X117.5 Y140.345
;TIME_ELAPSED:321.383232
;LAYER:1
M106 S42.5
;TYPE:WALL-INNER
;MESH:lens_cap.stl
G1 F2700 E153.37382
G1 F1200 X121.257 Y140.033 E153.49921
G1 X124.904 Y139.11 E153.62434
G1 X128.376 Y137.59 E153.7504
G1 X131.533 Y135.527 E153.87583
G1 X134.305 Y132.973 E154.00119
G1 X136.625 Y129.992 E154.12683
G1 X138.421 Y126.675 E154.25229
G1 X139.645 Y123.109 E154.37769
G1 X140.267 Y119.384 E154.5033
G1 X140.267 Y117.499 E154.56599
G1 X140.267 Y115.612 E154.62875
G1 X139.645 Y111.891 E154.75423
G1 X138.421 Y108.325 E154.87963
G1 X136.625 Y105.008 E155.00509
G1 X134.305 Y102.027 E155.13072
G1 X131.533 Y99.473 E155.25609
G1 X128.372 Y97.408 E155.38167
G1 X124.904 Y95.89 E155.50758
G1 X121.257 Y94.967 E155.63271
G1 X117.5 Y94.655 E155.75809
G1 X113.743 Y94.967 E155.88348
G1 X110.096 Y95.89 E156.00861
G1 X106.624 Y97.41 E156.13467
G1 X103.467 Y99.473 E156.2601
