;FLAVOR:Marlin
;TIME:1936
;Filament used: 1.32151m
;Layer height: 0.2
;MINX:92.359
;MINY:97.184
;MINZ:0.2
;MAXX:141.799
;MAXY:137.82
;MAXZ:5.8
;Generated with Cura_SteamEngine 5.2.1
M140 S65
M105
M190 S65
M104 S240
M105
M109 S240
M82 ;absolute extrusion mode
; Ender 3 Custom Start G-code
G92 E0 ; Reset Extruder
G28 ; Home all axes
G1 Z2.0 F3000 ; Move Z Axis up little to prevent scratching of Heat Bed
G1 X0.1 Y20 Z0.3 F5000.0 ; Move to start position
G1 X0.1 Y200.0 Z0.3 F1500.0 E15 ; Draw the first line
G1 X0.4 Y200.0 Z0.3 F5000.0 ; Move to side a little
G1 X0.4 Y20 Z0.3 F1500.0 E30 ; Draw the second line
G92 E0 ; Reset Extruder
G1 Z2.0 F3000 ; Move Z Axis up little to prevent scratching of Heat Bed
G1 X5 Y20 Z0.3 F5000.0 ; Move over to prevent blob squish
G92 E0
G92 E0
G1 F2700 E-5
;LAYER_COUNT:29
;LAYER:0
M107
;MESH:52mm_part1.stl
G0 F6000 X103.098 Y135.557 Z0.2
;TYPE:WALL-INNER
G1 F2700 E0
G1 F900 X103.101 Y133.745 E0.06027
G1 X103.212 Y133.225 E0.07795
G1 X103.441 Y132.784 E0.09448
G1 X103.696 Y132.505 E0.10705
G1 X103.97 Y132.308 E0.11828
G1 X104.364 Y132.161 E0.13226
G1 X104.703 Y132.102 E0.14371
G1 X130.438 Y132.101 E0.99966
G1 X130.881 Y132.24 E1.0151
G1 X131.34 Y132.549 E1.0335
G1 X131.566 Y132.785 E1.04437
G1 X131.785 Y133.152 E1.05859
G1 X131.901 Y133.74 E1.07852
G1 X131.901 Y135.558 E1.13899
G1 X132.58 Y134.998 E1.16826
G1 X133.324 Y134.328 E1.20156
G1 X134.038 Y133.626 E1.23486
G1 X134.698 Y132.921 E1.26698
G1 X135.345 Y132.166 E1.30005
G1 X135.959 Y131.387 E1.33304
G1 X136.539 Y130.58 E1.3661
G1 X137.084 Y129.748 E1.39918
G1 X137.591 Y128.897 E1.43213
G1 X138.063 Y128.021 E1.46522
G1 X138.494 Y127.133 E1.49805
G1 X138.892 Y126.218 E1.53124
G1 X139.247 Y125.29 E1.56429
G1 X139.566 Y124.336 E1.59774
G1 X139.833 Y123.396 E1.63024
G1 X140.067 Y122.427 E1.6634
G1 X140.259 Y121.452 E1.69645
G1 X140.407 Y120.472 E1.72942
G1 X140.517 Y119.439 E1.76397
G1 X140.579 Y118.447 E1.79703
G1 X140.592 Y117.814 E1.81808
G1 X140.599 Y117.503 E1.82843
G1 X140.577 Y116.509 E1.8615
G1 X140.513 Y115.517 E1.89456
G1 X140.407 Y114.529 E1.92761
G1 X140.259 Y113.546 E1.96068
G1 X140.07 Y112.585 E1.99325
G1 X139.835 Y111.606 E2.02674
G1 X139.562 Y110.651 E2.05977
G1 X139.247 Y109.706 E2.0929
G1 X138.891 Y108.785 E2.12575
G1 X138.497 Y107.872 E2.15882
G1 X138.062 Y106.978 E2.19189
G1 X137.593 Y106.104 E2.22488
G1 X137.083 Y105.251 E2.25793
G1 X136.539 Y104.419 E2.29099
G1 X135.961 Y103.614 E2.32396
G1 X135.345 Y102.834 E2.35701
G1 X134.697 Y102.078 E2.39013
G1 X134.02 Y101.354 E2.4231
G1 X133.324 Y100.672 E2.45551
G1 X132.566 Y99.99 E2.48942
G1 X131.902 Y99.442 E2.51806
G1 X131.899 Y101.255 E2.57836
G1 X131.788 Y101.775 E2.59604
G1 X131.559 Y102.216 E2.61257
G1 X131.304 Y102.495 E2.62514
G1 X131.029 Y102.692 E2.63639
G1 X130.567 Y102.864 E2.65279
G1 X130.297 Y102.898 E2.66184
G1 X104.562 Y102.899 E3.51779
G1 X104.119 Y102.76 E3.53323
G1 X103.66 Y102.451 E3.55164
G1 X103.434 Y102.215 E3.5625
G1 X103.216 Y101.852 E3.57659
G1 X103.1 Y101.266 E3.59646
G1 X103.099 Y99.441 E3.65716
G1 X102.42 Y100.001 E3.68643
G1 X101.676 Y100.672 E3.71975
G1 X100.962 Y101.374 E3.75306
G1 X100.301 Y102.079 E3.7852
G1 X99.654 Y102.834 E3.81827
G1 X99.041 Y103.613 E3.85124
G1 X98.461 Y104.42 E3.88429
G1 X97.916 Y105.252 E3.91737
G1 X97.409 Y106.103 E3.95032
G1 X96.937 Y106.979 E3.98342
G1 X96.506 Y107.867 E4.01625
G1 X96.108 Y108.782 E4.04943
G1 X95.753 Y109.71 E4.08248
G1 X95.433 Y110.664 E4.11595
G1 X95.167 Y111.604 E4.14844
G1 X94.932 Y112.573 E4.1816
G1 X94.741 Y113.548 E4.21465
G1 X94.595 Y114.514 E4.24714
G1 X94.483 Y115.561 E4.28217
G1 X94.421 Y116.553 E4.31522
G1 X94.401 Y117.497 E4.34663
G1 X94.422 Y118.491 E4.3797
G1 X94.487 Y119.481 E4.41269
G1 X94.593 Y120.471 E4.44581
G1 X94.741 Y121.454 E4.47887
G1 X94.93 Y122.415 E4.51145
G1 X95.165 Y123.394 E4.54494
G1 X95.438 Y124.349 E4.57797
G1 X95.753 Y125.294 E4.6111
G1 X96.109 Y126.215 E4.64394
G1 X96.503 Y127.128 E4.67702
G1 X96.938 Y128.022 E4.71009
G1 X97.407 Y128.896 E4.74308
G1 X97.917 Y129.749 E4.77613
G1 X98.459 Y130.579 E4.8091
G1 X99.039 Y131.385 E4.84213
G1 X99.654 Y132.166 E4.87519
G1 X100.3 Y132.92 E4.90821
G1 X100.98 Y133.646 E4.9413
G1 X101.689 Y134.34 E4.9743
G1 X102.433 Y135.008 E5.00755
G1 X103.098 Y135.557 E5.03624
G0 F6000 X103.497 Y136.366
G1 F900 X103.501 Y133.753 E5.12314
G1 X103.58 Y133.382 E5.13576
G1 X103.778 Y133.005 E5.14992
G1 X103.958 Y132.807 E5.15882
G1 X104.159 Y132.661 E5.16709
G1 X104.627 Y132.502 E5.18353
G1 X130.329 Y132.499 E6.03838
G1 X130.537 Y132.542 E6.04544
G1 X130.783 Y132.655 E6.05445
G1 X131.085 Y132.857 E6.06653
G1 X131.246 Y133.026 E6.07429
G1 X131.426 Y133.363 E6.087
G1 X131.501 Y133.741 E6.09982
G1 X131.503 Y136.367 E6.18716
G1 X132.058 Y135.947 E6.21031
G1 X132.847 Y135.296 E6.24433
G1 X133.566 Y134.65 E6.27648
G1 X134.305 Y133.926 E6.31089
G1 X134.996 Y133.188 E6.34451
G1 X135.654 Y132.42 E6.37815
G1 X136.279 Y131.627 E6.41173
G1 X136.869 Y130.806 E6.44536
G1 X137.423 Y129.96 E6.479
G1 X137.939 Y129.094 E6.51252
G1 X138.419 Y128.204 E6.54616
G1 X138.858 Y127.301 E6.57955
G1 X139.262 Y126.369 E6.61334
G1 X139.624 Y125.425 E6.64696
G1 X139.949 Y124.454 E6.68102
G1 X140.22 Y123.497 E6.7141
G1 X140.458 Y122.513 E6.74777
G1 X140.653 Y121.521 E6.7814
G1 X140.803 Y120.524 E6.81493
G1 X140.916 Y119.473 E6.85009
G1 X140.979 Y118.464 E6.88371
G1 X140.992 Y117.823 E6.90504
G1 X140.999 Y117.503 E6.91568
G1 X140.977 Y116.492 E6.94932
G1 X140.912 Y115.482 E6.98298
G1 X140.804 Y114.478 E7.01657
G1 X140.653 Y113.478 E7.0502
G1 X140.461 Y112.499 E7.08339
G1 X140.222 Y111.504 E7.11742
G1 X139.944 Y110.533 E7.15101
G1 X139.623 Y109.571 E7.18474
G1 X139.262 Y108.634 E7.21814
G1 X138.86 Y107.705 E7.25181
G1 X138.418 Y106.796 E7.28543
G1 X137.941 Y105.907 E7.31898
G1 X137.423 Y105.039 E7.3526
G1 X136.869 Y104.192 E7.38627
G1 X136.28 Y103.374 E7.41979
G1 X135.655 Y102.58 E7.4534
G1 X134.995 Y101.811 E7.48711
G1 X134.306 Y101.075 E7.52064
G1 X133.585 Y100.368 E7.55422
G1 X132.82 Y99.681 E7.58842
G1 X132.048 Y99.046 E7.62167
G1 X131.503 Y98.633 E7.64441
G1 X131.499 Y101.247 E7.73135
G1 X131.42 Y101.618 E7.74397
G1 X131.224 Y101.993 E7.75804
G1 X131.042 Y102.193 E7.76704
G1 X130.849 Y102.331 E7.77493
G1 X130.408 Y102.498 E7.79061
G1 X104.615 Y102.499 E8.64849
G1 X104.301 Y102.401 E8.65943
G1 X103.915 Y102.143 E8.67488
G1 X103.754 Y101.974 E8.68264
G1 X103.574 Y101.637 E8.69535
G1 X103.5 Y101.264 E8.70799
G1 X103.498 Y98.632 E8.79553
G1 X102.942 Y99.053 E8.81873
G1 X102.153 Y99.704 E8.85275
G1 X101.434 Y100.35 E8.8849
G1 X100.695 Y101.074 E8.91931
G1 X100.003 Y101.812 E8.95296
G1 X99.345 Y102.58 E8.9866
G1 X98.721 Y103.373 E9.02016
G1 X98.131 Y104.194 E9.05378
G1 X97.577 Y105.04 E9.08742
G1 X97.061 Y105.906 E9.12095
G1 X96.581 Y106.796 E9.15458
G1 X96.142 Y107.699 E9.18797
G1 X95.737 Y108.631 E9.22177
G1 X95.376 Y109.575 E9.25539
G1 X95.051 Y110.546 E9.28944
G1 X94.78 Y111.503 E9.32253
G1 X94.542 Y112.487 E9.3562
G1 X94.347 Y113.48 E9.38986
G1 X94.198 Y114.463 E9.42292
G1 X94.084 Y115.527 E9.45852
G1 X94.021 Y116.536 E9.49214
G1 X94.001 Y117.497 E9.52411
G1 X94.023 Y118.508 E9.55774
G1 X94.088 Y119.516 E9.59134
G1 X94.196 Y120.522 E9.62499
G1 X94.347 Y121.522 E9.65863
G1 X94.539 Y122.501 E9.69181
G1 X94.778 Y123.496 E9.72585
G1 X95.056 Y124.467 E9.75944
G1 X95.377 Y125.429 E9.79317
G1 X95.738 Y126.366 E9.82657
G1 X96.14 Y127.295 E9.86024
G1 X96.582 Y128.204 E9.89385
G1 X97.059 Y129.093 E9.92741
G1 X97.578 Y129.961 E9.96105
G1 X98.129 Y130.806 E9.9946
G1 X98.72 Y131.626 E10.02822
G1 X99.345 Y132.42 E10.06183
G1 X100.002 Y133.187 E10.09542
G1 X100.694 Y133.925 E10.12906
G1 X101.415 Y134.632 E10.16265
G1 X102.179 Y135.317 E10.19678
G1 X102.952 Y135.954 E10.23009
G1 X103.497 Y136.366 E10.25282
G0 F6000 X103.896 Y137.144
G1 F900 X103.901 Y133.761 E10.36534
G1 X103.948 Y133.538 E10.37292
G1 X104.127 Y133.212 E10.38529
G1 X104.339 Y133.023 E10.39473
G1 X104.685 Y132.901 E10.40694
G1 X130.316 Y132.903 E11.25943
G1 X130.568 Y132.993 E11.26833
G1 X130.896 Y133.208 E11.28137
G1 X131.056 Y133.514 E11.29285
G1 X131.101 Y133.741 E11.30055
G1 X131.104 Y137.143 E11.4137
G1 X131.477 Y136.887 E11.42875
G1 X132.312 Y136.256 E11.46356
G1 X133.095 Y135.611 E11.4973
G1 X133.859 Y134.924 E11.53147
G1 X134.591 Y134.206 E11.56558
G1 X135.294 Y133.455 E11.59979
G1 X135.964 Y132.674 E11.63402
G1 X136.599 Y131.868 E11.66814
G1 X137.199 Y131.033 E11.70234
G1 X137.763 Y130.172 E11.73658
G1 X138.287 Y129.291 E11.77067
G1 X138.775 Y128.386 E11.80487
G1 X139.221 Y127.468 E11.83881
G1 X139.633 Y126.521 E11.87316
G1 X140 Y125.56 E11.90738
G1 X140.331 Y124.572 E11.94203
G1 X140.607 Y123.599 E11.97567
G1 X140.849 Y122.598 E12.00992
G1 X141.047 Y121.589 E12.04412
G1 X141.2 Y120.575 E12.07823
G1 X141.314 Y119.507 E12.11396
G1 X141.379 Y118.48 E12.14818
G1 X141.392 Y117.831 E12.16977
G1 X141.399 Y117.503 E12.18068
G1 X141.377 Y116.474 E12.21492
G1 X141.311 Y115.448 E12.24911
G1 X141.2 Y114.426 E12.2833
G1 X141.047 Y113.41 E12.31748
G1 X140.852 Y112.414 E12.35123
G1 X140.609 Y111.402 E12.38585
G1 X140.326 Y110.414 E12.42003
G1 X140 Y109.436 E12.45432
G1 X139.632 Y108.483 E12.4883
G1 X139.224 Y107.538 E12.52253
G1 X138.774 Y106.614 E12.55672
G1 X138.289 Y105.709 E12.59087
G1 X137.762 Y104.827 E12.62504
G1 X137.199 Y103.966 E12.65926
G1 X136.6 Y103.133 E12.69338
G1 X135.964 Y102.326 E12.72755
G1 X135.293 Y101.544 E12.76183
G1 X134.592 Y100.795 E12.79595
G1 X133.859 Y100.076 E12.8301
G1 X133.075 Y99.372 E12.86514
G1 X132.29 Y98.727 E12.89894
G1 X131.478 Y98.114 E12.93278
G1 X131.104 Y97.858 E12.94785
G1 X131.099 Y101.239 E13.0603
G1 X131.052 Y101.462 E13.06788
G1 X130.874 Y101.788 E13.08024
G1 X130.657 Y101.979 E13.08985
G1 X130.315 Y102.099 E13.10191
G1 X104.725 Y102.1 E13.95303
G1 X104.483 Y102.04 E13.96133
G1 X104.104 Y101.792 E13.97639
G1 X103.944 Y101.486 E13.98787
G1 X103.9 Y101.262 E13.99547
G1 X103.897 Y97.854 E14.10882
G1 X103.514 Y98.119 E14.12431
G1 X102.688 Y98.744 E14.15876
G1 X101.905 Y99.389 E14.1925
G1 X101.141 Y100.076 E14.22667
G1 X100.409 Y100.794 E14.26078
G1 X99.705 Y101.545 E14.29501
G1 X99.036 Y102.326 E14.32922
G1 X98.401 Y103.132 E14.36335
G1 X97.801 Y103.967 E14.39754
G1 X97.237 Y104.828 E14.43178
G1 X96.713 Y105.709 E14.46587
G1 X96.225 Y106.614 E14.50007
G1 X95.779 Y107.532 E14.53401
G1 X95.367 Y108.479 E14.56836
G1 X94.999 Y109.44 E14.60259
G1 X94.669 Y110.428 E14.63724
G1 X94.393 Y111.401 E14.67087
G1 X94.151 Y112.402 E14.70513
G1 X93.953 Y113.411 E14.73933
G1 X93.802 Y114.411 E14.77296
G1 X93.685 Y115.493 E14.80916
G1 X93.621 Y116.52 E14.84339
G1 X93.601 Y117.497 E14.87589
G1 X93.623 Y118.526 E14.91012
G1 X93.689 Y119.55 E14.94425
G1 X93.8 Y120.574 E14.97851
G1 X93.953 Y121.59 E15.01268
G1 X94.148 Y122.586 E15.04644
G1 X94.391 Y123.598 E15.08105
G1 X94.674 Y124.586 E15.11523
G1 X95 Y125.564 E15.14952
G1 X95.368 Y126.517 E15.1835
G1 X95.776 Y127.462 E15.21774
G1 X96.226 Y128.386 E15.25192
G1 X96.711 Y129.291 E15.28607
G1 X97.238 Y130.173 E15.32024
G1 X97.799 Y131.032 E15.35437
G1 X98.4 Y131.866 E15.38856
G1 X99.036 Y132.674 E15.42276
G1 X99.704 Y133.454 E15.45691
G1 X100.408 Y134.205 E15.49115
G1 X101.141 Y134.924 E15.5253
G1 X101.904 Y135.61 E15.55943
G1 X102.71 Y136.273 E15.59414
G1 X103.524 Y136.886 E15.62803
G1 X103.896 Y137.144 E15.64309
G0 F6000 X104.213 Y137.81
;TYPE:WALL-OUTER
G1 F900 X104.296 Y137.751 E15.64648
G1 X104.301 Y133.721 E15.78052
G1 X104.474 Y133.404 E15.79253
G1 X104.733 Y133.304 E15.80176
G1 X130.306 Y133.303 E16.65232
G1 X130.597 Y133.487 E16.66377
G1 X130.701 Y133.741 E16.6729
G1 X130.704 Y137.717 E16.80514
G1 X130.74 Y137.782 E16.80762
G1 X130.846 Y137.806 E16.81123
G1 X131.726 Y137.201 E16.84675
G1 X132.566 Y136.565 E16.88179
G1 X133.356 Y135.914 E16.91584
G1 X134.133 Y135.216 E16.95058
G1 X134.877 Y134.486 E16.98525
G1 X135.592 Y133.722 E17.02005
G1 X136.273 Y132.928 E17.05484
G1 X136.919 Y132.108 E17.08956
G1 X137.529 Y131.259 E17.12433
G1 X138.102 Y130.384 E17.15912
G1 X138.635 Y129.489 E17.19377
G1 X139.131 Y128.568 E17.22856
G1 X139.585 Y127.635 E17.26307
G1 X140.003 Y126.672 E17.29799
G1 X140.377 Y125.695 E17.33278
G1 X140.713 Y124.69 E17.36803
G1 X140.994 Y123.701 E17.40222
G1 X141.24 Y122.684 E17.43702
G1 X141.441 Y121.657 E17.47183
G1 X141.597 Y120.626 E17.50651
G1 X141.713 Y119.541 E17.5428
G1 X141.779 Y118.497 E17.5776
G1 X141.792 Y117.839 E17.59949
G1 X141.799 Y117.503 E17.61066
G1 X141.777 Y116.457 E17.64546
G1 X141.709 Y115.414 E17.68023
G1 X141.597 Y114.375 E17.71498
G1 X141.441 Y113.342 E17.74973
G1 X141.243 Y112.329 E17.78406
G1 X140.996 Y111.3 E17.81926
G1 X140.708 Y110.296 E17.854
G1 X140.376 Y109.3 E17.88892
G1 X140.002 Y108.331 E17.92346
G1 X139.588 Y107.371 E17.95824
G1 X139.13 Y106.432 E17.99298
G1 X138.637 Y105.512 E18.0277
G1 X138.101 Y104.615 E18.06245
G1 X137.529 Y103.74 E18.09722
G1 X136.92 Y102.893 E18.13192
G1 X136.273 Y102.072 E18.16669
G1 X135.591 Y101.277 E18.20153
G1 X134.878 Y100.515 E18.23623
G1 X134.133 Y99.784 E18.27095
G1 X133.355 Y99.085 E18.30574
G1 X132.55 Y98.422 E18.34042
G1 X131.704 Y97.784 E18.37566
G1 X130.857 Y97.206 E18.40977
G1 X130.784 Y97.196 E18.41222
G1 X130.705 Y97.276 E18.41596
G1 X130.699 Y101.279 E18.5491
G1 X130.526 Y101.596 E18.56111
G1 X130.267 Y101.696 E18.57035
G1 X104.694 Y101.697 E19.42091
G1 X104.403 Y101.513 E19.43236
G1 X104.3 Y101.306 E19.44005
G1 X104.296 Y97.283 E19.57385
G1 X104.256 Y97.209 E19.57665
G1 X104.145 Y97.199 E19.58036
G1 X103.274 Y97.799 E19.61554
G1 X102.434 Y98.435 E19.65058
G1 X101.644 Y99.086 E19.68463
G1 X100.867 Y99.784 E19.71937
G1 X100.123 Y100.514 E19.75404
G1 X99.407 Y101.278 E19.78886
G1 X98.727 Y102.072 E19.82363
G1 X98.081 Y102.892 E19.85835
G1 X97.471 Y103.741 E19.89312
G1 X96.898 Y104.616 E19.92791
G1 X96.365 Y105.511 E19.96256
G1 X95.869 Y106.432 E19.99735
G1 X95.415 Y107.365 E20.03186
G1 X94.997 Y108.328 E20.06678
G1 X94.623 Y109.305 E20.10157
G1 X94.287 Y110.31 E20.13682
G1 X94.006 Y111.299 E20.17101
G1 X93.76 Y112.316 E20.20581
G1 X93.559 Y113.343 E20.24062
G1 X93.405 Y114.36 E20.27483
G1 X93.287 Y115.459 E20.31159
G1 X93.221 Y116.503 E20.34639
G1 X93.201 Y117.497 E20.37945
G1 X93.223 Y118.543 E20.41425
G1 X93.291 Y119.584 E20.44895
G1 X93.403 Y120.625 E20.48377
G1 X93.559 Y121.658 E20.51852
G1 X93.757 Y122.671 E20.55285
G1 X94.004 Y123.7 E20.58805
G1 X94.292 Y124.704 E20.62279
G1 X94.624 Y125.7 E20.65771
G1 X94.998 Y126.669 E20.69225
G1 X95.412 Y127.629 E20.72702
G1 X95.87 Y128.568 E20.76177
G1 X96.363 Y129.488 E20.79649
G1 X96.899 Y130.385 E20.83124
G1 X97.469 Y131.258 E20.86592
G1 X98.08 Y132.107 E20.90071
G1 X98.727 Y132.928 E20.93548
G1 X99.406 Y133.721 E20.9702
G1 X100.122 Y134.485 E21.00503
G1 X100.867 Y135.216 E21.03974
G1 X101.643 Y135.913 E21.07443
G1 X102.45 Y136.578 E21.10921
G1 X103.296 Y137.216 E21.14446
G1 X104.119 Y137.783 E21.1777
G1 X104.213 Y137.81 E21.18095
G0 F6000 X104.05 Y137.437
G0 X102.573 Y134.993
G0 X102.738 Y134.795
;TYPE:SKIN
G1 F900 X102.741 Y133.741 E21.216
G1 X102.877 Y133.09 E21.23812
G1 X103.137 Y132.584 E21.25705
G1 X103.446 Y132.247 E21.27225
G1 X103.781 Y132 E21.2861
G1 X104.258 Y131.816 E21.3031
G1 X104.672 Y131.743 E21.31708
G1 X130.32 Y131.74 E22.17014
G1 X130.831 Y131.831 E22.1874
G1 X131.19 Y132.012 E22.20077
G1 X131.585 Y132.286 E22.21676
G1 X131.867 Y132.586 E22.23046
G1 X132.123 Y133.021 E22.24725
G1 X132.258 Y133.703 E22.27037
G1 X132.263 Y134.791 E22.30656
G1 X133.048 Y134.093 E22.34149
G1 X133.773 Y133.381 E22.37529
G1 X134.431 Y132.681 E22.40725
G1 X135.068 Y131.937 E22.43982
G1 X135.672 Y131.171 E22.47227
G1 X136.242 Y130.376 E22.5048
G1 X136.78 Y129.555 E22.53745
