;FLAVOR:Marlin
;TIME:5049
;Filament used: 3.04604m
;Layer height: 0.2
;MINX:97.747
;MINY:87.342
;MINZ:0.2
;MAXX:137.265
;MAXY:147.652
;MAXZ:10
;Generated with Cura_SteamEngine 5.2.1
M140 S65
M105
M190 S65
M104 S240
M105
M109 S240
M82 ;absolute extrusion mode
; Ender 3 Custom Start G-code
G92 E0 ; Reset Extruder
G28 ; Home all axes
G1 Z2.0 F3000 ; Move Z Axis up little to prevent scratching of Heat Bed
G1 X0.1 Y20 Z0.3 F5000.0 ; Move to start position
G1 X0.1 Y200.0 Z0.3 F1500.0 E15 ; Draw the first line
G1 X0.4 Y200.0 Z0.3 F5000.0 ; Move to side a little
G1 X0.4 Y20 Z0.3 F1500.0 E30 ; Draw the second line
G92 E0 ; Reset Extruder
G1 Z2.0 F3000 ; Move Z Axis up little to prevent scratching of Heat Bed
G1 X5 Y20 Z0.3 F5000.0 ; Move over to prevent blob squish
G92 E0
G92 E0
G1 F2700 E-5
;LAYER_COUNT:50
;LAYER:0
M107
G0 F6000 X125.741 Y101.599 Z0.2
;TYPE:SKIRT
G1 F2700 E0
G1 F900 X129.121 Y101.599 E0.11242
G1 X128.94 Y101.954 E0.12567
G1 X128.764 Y102.476 E0.14399
G1 X128.665 Y103.018 E0.16232
G1 X128.646 Y103.569 E0.18066
G1 X128.765 Y104.381 E0.20795
G1 X129.211 Y106.101 E0.26705
G1 X128.863 Y106.698 E0.29004
G1 X128.621 Y107.193 E0.30836
G1 X128.453 Y107.718 E0.3267
G1 X128.362 Y108.261 E0.34501
G1 X128.347 Y108.698 E0.35955
G1 X128.356 Y109.096 E0.37279
G1 X128.408 Y109.644 E0.3911
G1 X128.539 Y110.18 E0.40945
G1 X128.747 Y110.69 E0.42777
G1 X129.009 Y111.145 E0.44523
G1 X128.774 Y111.469 E0.45855
G1 X128.519 Y111.957 E0.47686
G1 X128.337 Y112.478 E0.49522
G1 X128.233 Y113.019 E0.51354
G1 X128.209 Y113.304 E0.52305
G1 X128.192 Y113.701 E0.53627
G1 X128.209 Y114.252 E0.5546
G1 X128.305 Y114.795 E0.57294
G1 X128.478 Y115.318 E0.59127
G1 X128.725 Y115.81 E0.60958
G1 X128.888 Y116.06 E0.6195
G1 X129.195 Y116.494 E0.63718
G1 X129.195 Y118.508 E0.70417
G1 X128.869 Y118.977 E0.72317
G1 X128.588 Y119.451 E0.74149
G1 X128.379 Y119.961 E0.75983
G1 X128.245 Y120.495 E0.77814
G1 X128.19 Y121.043 E0.79646
G1 X128.193 Y121.327 E0.8059
G1 X128.212 Y121.725 E0.81915
G1 X128.278 Y122.272 E0.83748
G1 X128.423 Y122.804 E0.85582
G1 X128.643 Y123.309 E0.87414
G1 X128.957 Y123.807 E0.89372
G1 X128.826 Y124.005 E0.90162
G1 X128.592 Y124.504 E0.91995
G1 X128.433 Y125.031 E0.93826
G1 X128.353 Y125.565 E0.95622
G1 X128.322 Y125.961 E0.96943
G1 X128.319 Y126.512 E0.98775
G1 X128.395 Y127.058 E1.00609
G1 X128.55 Y127.587 E1.02442
G1 X128.78 Y128.089 E1.04279
G1 X129.216 Y128.881 E1.07286
G1 X128.765 Y130.619 E1.13258
G1 X128.665 Y131.161 E1.15091
G1 X128.646 Y131.711 E1.16922
G1 X128.706 Y132.259 E1.18755
G1 X128.844 Y132.792 E1.20586
G1 X129.126 Y133.4 E1.22815
G1 X125.762 Y133.4 E1.34004
G1 X125.984 Y132.802 E1.36126
G1 X126.09 Y132.324 E1.37754
G1 X126.217 Y131.508 E1.40501
G1 X126.621 Y130.77 E1.43299
G1 X126.85 Y130.269 E1.45131
G1 X127.005 Y129.74 E1.46965
G1 X127.089 Y128.944 E1.49627
G1 X127.089 Y128.545 E1.50954
G1 X127.049 Y127.995 E1.52788
G1 X126.93 Y127.457 E1.54621
G1 X126.618 Y126.712 E1.57307
G1 X126.382 Y126.284 E1.58933
G1 X126.604 Y125.927 E1.60331
G1 X126.86 Y125.439 E1.62164
G1 X127.043 Y124.919 E1.63998
G1 X127.149 Y124.378 E1.65831
G1 X127.176 Y123.884 E1.67477
G1 X127.172 Y123.487 E1.68797
G1 X127.126 Y122.938 E1.70629
G1 X127.002 Y122.401 E1.72463
G1 X126.801 Y121.888 E1.74295
G1 X126.558 Y121.454 E1.75949
G1 X126.04 Y120.658 E1.79108
G1 X125.403 Y119.103 E1.84697
G1 X125.158 Y118.61 E1.86528
G1 X124.844 Y118.157 E1.88362
G1 X124.463 Y117.751 E1.90213
G1 X124.464 Y117.272 E1.91807
G1 X124.764 Y116.937 E1.93302
G1 X125.098 Y116.5 E1.95132
G1 X125.446 Y115.834 E1.97631
G1 X126.046 Y114.341 E2.02983
G1 X126.52 Y113.622 E2.05847
G1 X126.789 Y113.142 E2.07677
G1 X126.986 Y112.627 E2.09511
G1 X127.107 Y112.089 E2.11345
G1 X127.146 Y111.644 E2.12831
G1 X127.158 Y111.245 E2.14159
G1 X127.135 Y110.695 E2.15989
G1 X127.032 Y110.153 E2.17824
G1 X126.852 Y109.633 E2.19655
G1 X126.651 Y109.231 E2.21149
G1 X126.373 Y108.75 E2.22997
G1 X126.591 Y108.373 E2.24446
G1 X126.831 Y107.877 E2.26278
G1 X126.997 Y107.352 E2.2811
G1 X127.085 Y106.808 E2.29943
G1 X127.1 Y106.512 E2.30928
G1 X127.104 Y106.114 E2.32252
G1 X127.069 Y105.564 E2.34085
G1 X126.956 Y105.025 E2.35917
G1 X126.765 Y104.508 E2.3775
G1 X126.635 Y104.247 E2.3872
G1 X126.214 Y103.479 E2.41633
G1 X126.072 Y102.632 E2.44489
G1 X125.942 Y102.097 E2.46321
G1 X125.741 Y101.599 E2.48107
G0 F6000 X125.352 Y101.711
G1 F900 X125.038 Y101.199 E2.50104
G1 X129.818 Y101.199 E2.66003
G1 X129.533 Y101.67 E2.67834
G1 X129.298 Y102.135 E2.69567
G1 X129.138 Y102.631 E2.713
G1 X129.055 Y103.146 E2.73035
G1 X129.051 Y103.667 E2.74768
G1 X129.152 Y104.281 E2.76838
G1 X129.6 Y106.009 E2.82775
G1 X129.6 Y106.229 E2.83507
G1 X129.209 Y106.9 E2.8609
G1 X128.981 Y107.369 E2.87824
G1 X128.829 Y107.867 E2.89556
G1 X128.754 Y108.383 E2.9129
G1 X128.747 Y108.689 E2.92308
G1 X128.756 Y109.087 E2.93632
G1 X128.808 Y109.605 E2.95364
G1 X128.938 Y110.11 E2.97098
G1 X129.144 Y110.589 E2.98832
G1 X129.293 Y110.846 E2.9982
G1 X129.492 Y111.156 E3.01046
G1 X129.099 Y111.703 E3.03286
G1 X128.864 Y112.168 E3.05019
G1 X128.702 Y112.664 E3.06754
G1 X128.609 Y113.322 E3.08965
G1 X128.592 Y113.719 E3.10286
G1 X128.61 Y114.239 E3.12017
G1 X128.707 Y114.751 E3.1375
G1 X128.881 Y115.243 E3.15486
G1 X129.214 Y115.829 E3.17727
G1 X129.595 Y116.367 E3.1992
G1 X129.595 Y118.632 E3.27454
G1 X129.197 Y119.205 E3.29774
G1 X128.934 Y119.655 E3.31508
G1 X128.741 Y120.139 E3.33241
G1 X128.626 Y120.647 E3.34973
G1 X128.593 Y121.308 E3.37174
G1 X128.612 Y121.706 E3.38499
G1 X128.677 Y122.223 E3.40233
G1 X128.819 Y122.724 E3.41964
G1 X129.037 Y123.198 E3.437
G1 X129.446 Y123.789 E3.4609
G1 X129.161 Y124.225 E3.47823
G1 X128.946 Y124.7 E3.49557
G1 X128.806 Y125.202 E3.5129
G1 X128.751 Y125.597 E3.52617
G1 X128.72 Y125.993 E3.53938
G1 X128.72 Y126.514 E3.55671
G1 X128.799 Y127.029 E3.57404
G1 X128.955 Y127.526 E3.59136
G1 X129.131 Y127.896 E3.60499
G1 X129.6 Y128.749 E3.63737
G1 X129.6 Y128.991 E3.64541
G1 X129.152 Y130.719 E3.70479
G1 X129.06 Y131.232 E3.72212
G1 X129.048 Y131.753 E3.73946
G1 X129.115 Y132.27 E3.7568
G1 X129.261 Y132.77 E3.77412
G1 X129.533 Y133.33 E3.79483
G1 X129.818 Y133.801 E3.81314
G1 X125.028 Y133.8 E3.97245
G1 X125.222 Y133.537 E3.98332
G1 X125.462 Y133.075 E4.00064
G1 X125.629 Y132.582 E4.01795
G1 X125.695 Y132.263 E4.02879
G1 X125.832 Y131.378 E4.05857
G1 X126.271 Y130.578 E4.08892
G1 X126.485 Y130.103 E4.10625
G1 X126.625 Y129.601 E4.12358
G1 X126.689 Y128.944 E4.14554
G1 X126.689 Y128.545 E4.15881
G1 X126.649 Y128.025 E4.17616
G1 X126.53 Y127.518 E4.19348
G1 X126.268 Y126.905 E4.21565
G1 X125.919 Y126.271 E4.23972
G1 X126.264 Y125.716 E4.26146
G1 X126.505 Y125.253 E4.27882
G1 X126.671 Y124.76 E4.29612
G1 X126.761 Y124.246 E4.31347
G1 X126.776 Y123.888 E4.32539
G1 X126.772 Y123.491 E4.3386
G1 X126.727 Y122.972 E4.35592
G1 X126.603 Y122.465 E4.37328
G1 X126.403 Y121.984 E4.39061
G1 X126.222 Y121.672 E4.40261
G1 X125.685 Y120.847 E4.43535
G1 X125.033 Y119.255 E4.49257
G1 X124.799 Y118.789 E4.50991
G1 X124.497 Y118.364 E4.52725
G1 X124.056 Y117.9 E4.54854
G1 X124.068 Y117.62 E4.55786
G1 X124.068 Y117.119 E4.57453
G1 X124.464 Y116.672 E4.59439
G1 X124.779 Y116.257 E4.61172
G1 X125.075 Y115.684 E4.63317
G1 X125.689 Y114.155 E4.68797
G1 X126.186 Y113.402 E4.71798
G1 X126.439 Y112.946 E4.73532
G1 X126.619 Y112.457 E4.75265
G1 X126.722 Y111.947 E4.76996
G1 X126.746 Y111.632 E4.78047
G1 X126.758 Y111.233 E4.79374
G1 X126.734 Y110.713 E4.81106
G1 X126.631 Y110.202 E4.82839
G1 X126.45 Y109.713 E4.84574
G1 X126.305 Y109.431 E4.85628
G1 X125.912 Y108.75 E4.88243
G1 X126.245 Y108.173 E4.90459
G1 X126.47 Y107.703 E4.92192
G1 X126.621 Y107.204 E4.93926
G1 X126.7 Y106.508 E4.96256
G1 X126.704 Y106.11 E4.9758
G1 X126.669 Y105.59 E4.99313
G1 X126.555 Y105.082 E5.01045
G1 X126.284 Y104.439 E5.03366
G1 X125.831 Y103.614 E5.06496
G1 X125.678 Y102.698 E5.09585
G1 X125.553 Y102.192 E5.11319
G1 X125.352 Y101.711 E5.13053
G0 F6000 X124.968 Y101.84
G1 F900 X124.702 Y101.429 E5.14681
G1 X124.261 Y100.968 E5.16803
G1 X124.061 Y100.799 E5.17674
G1 X129.876 Y100.799 E5.37014
G1 X130.364 Y100.759 E5.38643
G1 X131.002 Y100.585 E5.40842
G1 X130.66 Y100.842 E5.42265
G1 X130.321 Y101.195 E5.43893
G1 X130.081 Y101.536 E5.4528
G1 X129.875 Y101.877 E5.46605
G1 X129.657 Y102.315 E5.48232
G1 X129.513 Y102.783 E5.49861
G1 X129.447 Y103.268 E5.51489
G1 X129.461 Y103.757 E5.53116
G1 X129.539 Y104.181 E5.5455
G1 X130 Y105.96 E5.60662
G1 X130 Y106.336 E5.61913
G1 X129.554 Y107.101 E5.64858
G1 X129.343 Y107.543 E5.66487
G1 X129.206 Y108.013 E5.68115
G1 X129.147 Y108.68 E5.70343
G1 X129.156 Y109.078 E5.71667
G1 X129.207 Y109.565 E5.73295
G1 X129.336 Y110.037 E5.74923
G1 X129.63 Y110.63 E5.77124
G1 X129.994 Y111.198 E5.79368
G1 X129.709 Y111.537 E5.80841
G1 X129.426 Y111.936 E5.82468
G1 X129.211 Y112.376 E5.84097
G1 X129.071 Y112.845 E5.85725
G1 X129.009 Y113.339 E5.87381
G1 X128.992 Y113.736 E5.88702
G1 X129.011 Y114.225 E5.9033
G1 X129.109 Y114.704 E5.91956
G1 X129.284 Y115.161 E5.93584
G1 X129.541 Y115.598 E5.9527
G1 X129.995 Y116.239 E5.97882
G1 X129.995 Y118.759 E6.06264
G1 X129.526 Y119.434 E6.08998
G1 X129.28 Y119.857 E6.10625
G1 X129.106 Y120.315 E6.12255
G1 X129.01 Y120.794 E6.1388
G1 X128.992 Y121.289 E6.15527
G1 X129.011 Y121.687 E6.16852
G1 X129.075 Y122.172 E6.1848
G1 X129.216 Y122.641 E6.20108
G1 X129.431 Y123.081 E6.21737
G1 X129.718 Y123.482 E6.23377
G1 X129.964 Y123.772 E6.24642
G1 X129.763 Y124.033 E6.25738
G1 X129.497 Y124.444 E6.27366
G1 X129.302 Y124.893 E6.28994
G1 X129.182 Y125.367 E6.30621
G1 X129.15 Y125.628 E6.31495
G1 X129.119 Y126.024 E6.32816
G1 X129.121 Y126.513 E6.34443
G1 X129.202 Y126.996 E6.36072
G1 X129.361 Y127.459 E6.377
G1 X129.481 Y127.704 E6.38607
G1 X130 Y128.648 E6.4219
G1 X130 Y129.04 E6.43494
G1 X129.539 Y130.819 E6.49606
G1 X129.455 Y131.302 E6.51237
G1 X129.451 Y131.791 E6.52863
G1 X129.526 Y132.275 E6.54492
G1 X129.68 Y132.74 E6.56122
G1 X129.875 Y133.123 E6.57551
G1 X130.081 Y133.464 E6.58876
G1 X130.368 Y133.861 E6.60506
G1 X130.715 Y134.206 E6.62133
G1 X131.006 Y134.413 E6.63321
G1 X130.607 Y134.305 E6.64696
G1 X130.126 Y134.216 E6.66323
G1 X129.82 Y134.2 E6.67342
G1 X124.074 Y134.2 E6.86453
G1 X124.284 Y134.021 E6.87371
G1 X124.629 Y133.674 E6.88998
G1 X124.913 Y133.275 E6.90627
G1 X125.128 Y132.836 E6.92253
G1 X125.299 Y132.202 E6.94437
G1 X125.447 Y131.249 E6.97645
G1 X125.92 Y130.386 E7.00918
G1 X126.119 Y129.939 E7.02545
G1 X126.243 Y129.465 E7.04175
G1 X126.289 Y128.944 E7.05915
G1 X126.289 Y128.545 E7.07242
G1 X126.249 Y128.057 E7.0887
G1 X126.13 Y127.582 E7.10499
G1 X125.917 Y127.098 E7.12258
G1 X125.502 Y126.344 E7.1512
G1 X125.502 Y126.186 E7.15646
G1 X125.925 Y125.505 E7.18312
G1 X126.148 Y125.069 E7.19941
G1 X126.298 Y124.603 E7.21569
G1 X126.376 Y123.892 E7.23948
G1 X126.372 Y123.495 E7.25269
G1 X126.327 Y123.007 E7.26899
G1 X126.203 Y122.534 E7.28525
G1 X125.887 Y121.89 E7.30911
G1 X125.33 Y121.033 E7.3431
G1 X124.663 Y119.406 E7.40159
G1 X124.441 Y118.97 E7.41786
G1 X124.151 Y118.576 E7.43413
G1 X123.857 Y118.272 E7.4482
G1 X123.64 Y118.1 E7.45741
G1 X123.668 Y117.62 E7.4734
G1 X123.668 Y117.342 E7.48265
G1 X123.644 Y116.959 E7.49541
G1 X123.9 Y116.706 E7.50738
G1 X124.165 Y116.407 E7.52067
G1 X124.459 Y116.015 E7.53697
G1 X124.704 Y115.535 E7.55489
G1 X125.333 Y113.968 E7.61105
G1 X125.852 Y113.182 E7.64238
G1 X126.088 Y112.753 E7.65867
G1 X126.25 Y112.291 E7.67495
G1 X126.347 Y111.62 E7.6975
G1 X126.359 Y111.221 E7.71078
G1 X126.333 Y110.732 E7.72706
G1 X126.229 Y110.254 E7.74333
G1 X125.958 Y109.631 E7.76593
G1 X125.502 Y108.841 E7.79627
G1 X125.502 Y108.659 E7.80232
G1 X125.898 Y107.973 E7.82867
G1 X126.108 Y107.531 E7.84494
G1 X126.242 Y107.06 E7.86123
G1 X126.3 Y106.504 E7.87982
G1 X126.304 Y106.106 E7.89306
G1 X126.269 Y105.618 E7.90933
G1 X126.155 Y105.142 E7.92561
G1 X125.934 Y104.632 E7.9441
G1 X125.447 Y103.745 E7.97776
G1 X125.283 Y102.764 E8.01084
G1 X125.163 Y102.289 E8.02713
G1 X124.968 Y101.84 E8.04341
G0 F6000 X124.585 Y101.974
G1 F900 X124.326 Y101.599 E8.05857
G1 X124.003 Y101.273 E8.07384
G1 X123.698 Y101.015 E8.08712
G1 X123.326 Y100.752 E8.10228
G1 X122.913 Y100.559 E8.11744
G1 X122.473 Y100.44 E8.1326
G1 X122.019 Y100.4 E8.14776
G1 X112.968 Y100.4 E8.44879
G1 X112.514 Y100.44 E8.46395
G1 X112.074 Y100.558 E8.4791
G1 X111.662 Y100.752 E8.49425
G1 X111.279 Y101.024 E8.50987
G1 X110.976 Y101.283 E8.52313
G1 X110.657 Y101.608 E8.53828
G1 X110.399 Y101.984 E8.55345
G1 X110.211 Y102.399 E8.5686
G1 X110.096 Y102.859 E8.58437
G1 X109.937 Y103.88 E8.61874
G1 X109.431 Y104.802 E8.65372
G1 X109.247 Y105.219 E8.66888
G1 X109.14 Y105.662 E8.68404
G1 X109.11 Y106.053 E8.69708
G1 X109.11 Y106.452 E8.71035
G1 X109.15 Y106.906 E8.72551
G1 X109.268 Y107.346 E8.74066
G1 X109.433 Y107.706 E8.75383
G1 X109.898 Y108.55 E8.78588
G1 X109.898 Y108.947 E8.79908
G1 X109.398 Y109.802 E8.83203
G1 X109.203 Y110.214 E8.84719
G1 X109.083 Y110.654 E8.86236
G1 X109.043 Y111.174 E8.8797
G1 X109.052 Y111.572 E8.89294
G1 X109.102 Y112.025 E8.9081
G1 X109.23 Y112.462 E8.92325
G1 X109.469 Y112.926 E8.94061
G1 X110.023 Y113.782 E8.97452
G1 X110.701 Y115.437 E9.03401
G1 X110.91 Y115.842 E9.04917
G1 X111.335 Y116.355 E9.07132
G1 X111.766 Y116.756 E9.0909
G1 X111.732 Y117.388 E9.11195
G1 X111.734 Y117.693 E9.1221
G1 X111.757 Y118.242 E9.14037
G1 X111.403 Y118.552 E9.15602
G1 X111.137 Y118.851 E9.16933
G1 X110.866 Y119.216 E9.18445
G1 X110.667 Y119.61 E9.19914
G1 X110.022 Y121.217 E9.25673
G1 X109.482 Y122.031 E9.28922
G1 X109.264 Y122.431 E9.30437
G1 X109.12 Y122.863 E9.31952
G1 X109.05 Y123.389 E9.33717
G1 X109.038 Y123.788 E9.35044
G1 X109.064 Y124.243 E9.3656
G1 X109.17 Y124.686 E9.38075
G1 X109.386 Y125.166 E9.39826
G1 X109.898 Y126.052 E9.43229
G1 X109.898 Y126.448 E9.44546
G1 X109.446 Y127.235 E9.47565
G1 X109.255 Y127.648 E9.49078
G1 X109.139 Y128.089 E9.50595
G1 X109.101 Y128.503 E9.51978
G1 X109.097 Y128.901 E9.53302
G1 X109.132 Y129.355 E9.54816
G1 X109.247 Y129.796 E9.56332
G1 X109.421 Y130.183 E9.57743
G1 X109.938 Y131.119 E9.613
G1 X110.112 Y132.168 E9.64836
G1 X110.226 Y132.609 E9.66351
G1 X110.415 Y133.024 E9.67868
G1 X110.673 Y133.399 E9.69382
G1 X110.995 Y133.724 E9.70904
G1 X111.299 Y133.982 E9.7223
G1 X111.671 Y134.246 E9.73747
G1 X112.083 Y134.44 E9.75262
G1 X112.522 Y134.559 E9.76774
G1 X112.981 Y134.6 E9.78307
G1 X122.032 Y134.6 E10.08411
G1 X122.486 Y134.56 E10.09927
G1 X122.926 Y134.442 E10.11442
G1 X123.338 Y134.248 E10.12956
G1 X123.721 Y133.976 E10.14519
G1 X124.024 Y133.717 E10.15845
G1 X124.343 Y133.392 E10.17359
G1 X124.601 Y133.016 E10.18876
G1 X124.789 Y132.601 E10.20391
G1 X124.904 Y132.14 E10.21972
G1 X125.063 Y131.116 E10.25418
G1 X125.569 Y130.193 E10.28919
G1 X125.752 Y129.776 E10.30434
G1 X125.86 Y129.333 E10.3195
G1 X125.889 Y128.944 E10.33248
G1 X125.889 Y128.545 E10.34575
G1 X125.849 Y128.091 E10.36091
G1 X125.731 Y127.651 E10.37606
G1 X125.567 Y127.291 E10.38922
G1 X125.102 Y126.446 E10.4213
G1 X125.102 Y126.072 E10.43374
G1 X125.585 Y125.294 E10.46419
G1 X125.79 Y124.887 E10.47935
G1 X125.922 Y124.451 E10.4945
G1 X125.976 Y123.896 E10.51305
G1 X125.972 Y123.499 E10.52625
G1 X125.927 Y123.045 E10.54143
G1 X125.804 Y122.607 E10.55656
G1 X125.552 Y122.108 E10.57515
G1 X124.973 Y121.218 E10.61047
G1 X124.293 Y119.558 E10.67013
G1 X124.084 Y119.153 E10.68529
G1 X123.612 Y118.586 E10.70983
G1 X123.228 Y118.285 E10.72605
G1 X123.268 Y117.62 E10.74821
G1 X123.268 Y117.342 E10.75746
G1 X123.255 Y117.078 E10.76625
G1 X123.224 Y116.773 E10.77645
G1 X123.601 Y116.441 E10.79316
G1 X123.866 Y116.142 E10.80644
G1 X124.137 Y115.775 E10.82162
