;FLAVOR:Marlin
;TIME:3178
;Filament used: 1.95246m
;Layer height: 0.2
;MINX:90.7
;MINY:96.911
;MINZ:0.2
;MAXX:144.299
;MAXY:138.099
;MAXZ:7
;Generated with Cura_SteamEngine 5.2.1
M140 S65
M105
M190 S65
M104 S240
M105
M109 S240
M82 ;absolute extrusion mode
; Ender 3 Custom Start G-code
G92 E0 ; Reset Extruder
G28 ; Home all axes
G1 Z2.0 F3000 ; Move Z Axis up little to prevent scratching of Heat Bed
G1 X0.1 Y20 Z0.3 F5000.0 ; Move to start position
G1 X0.1 Y200.0 Z0.3 F1500.0 E15 ; Draw the first line
G1 X0.4 Y200.0 Z0.3 F5000.0 ; Move to side a little
G1 X0.4 Y20 Z0.3 F1500.0 E30 ; Draw the second line
G92 E0 ; Reset Extruder
G1 Z2.0 F3000 ; Move Z Axis up little to prevent scratching of Heat Bed
G1 X5 Y20 Z0.3 F5000.0 ; Move over to prevent blob squish
G92 E0
G92 E0
G1 F2700 E-5
;LAYER_COUNT:35
;LAYER:0
M107
;MESH:52mm_part2.stl
G0 F6000 X100.632 Y134.875 Z0.2
;TYPE:WALL-INNER
G1 F2700 E0
G1 F900 X101.547 Y132.916 E0.07191
G1 X101.781 Y132.531 E0.0869
G1 X101.96 Y132.302 E0.09657
G1 X102.258 Y131.992 E0.11087
G1 X102.622 Y131.7 E0.12639
G1 X103.097 Y131.429 E0.14458
G1 X103.68 Y131.197 E0.16545
G1 X104.387 Y131.104 E0.18916
G1 X130.601 Y131.104 E1.06105
G1 X131.171 Y131.172 E1.08014
G1 X131.743 Y131.355 E1.10011
G1 X132.179 Y131.577 E1.11639
G1 X132.647 Y131.893 E1.13517
G1 X133.043 Y132.305 E1.15417
G1 X133.214 Y132.522 E1.16336
G1 X133.452 Y132.914 E1.17862
G1 X134.368 Y134.873 E1.25054
G1 X134.999 Y134.241 E1.28025
G1 X135.69 Y133.489 E1.31422
G1 X136.38 Y132.666 E1.34994
G1 X136.99 Y131.876 E1.38313
G1 X137.586 Y131.032 E1.4175
G1 X138.145 Y130.162 E1.45189
G1 X138.668 Y129.267 E1.48637
G1 X139.151 Y128.354 E1.52072
G1 X139.595 Y127.419 E1.55515
G1 X140.011 Y126.439 E1.59056
G1 X140.359 Y125.501 E1.62384
G1 X140.681 Y124.514 E1.65837
G1 X140.96 Y123.516 E1.69283
G1 X141.196 Y122.51 E1.7272
G1 X141.388 Y121.493 E1.76162
G1 X141.538 Y120.467 E1.79611
G1 X141.643 Y119.441 E1.83042
G1 X141.704 Y118.404 E1.86497
G1 X141.723 Y117.503 E1.89494
G1 X141.704 Y116.602 E1.92491
G1 X141.644 Y115.565 E1.95946
G1 X141.538 Y114.535 E1.9939
G1 X141.389 Y113.514 E2.02822
G1 X141.196 Y112.495 E2.06271
G1 X140.964 Y111.499 E2.09673
G1 X140.684 Y110.489 E2.13159
G1 X140.363 Y109.505 E2.16601
G1 X140 Y108.535 E2.20046
G1 X139.597 Y107.585 E2.23478
G1 X139.151 Y106.649 E2.26927
G1 X138.667 Y105.731 E2.30378
G1 X138.147 Y104.839 E2.33813
G1 X137.587 Y103.969 E2.37254
G1 X136.989 Y103.123 E2.407
G1 X136.359 Y102.303 E2.44139
G1 X135.692 Y101.511 E2.47583
G1 X135.001 Y100.757 E2.50985
G1 X134.368 Y100.123 E2.53964
G1 X133.452 Y102.086 E2.61169
G1 X133.212 Y102.478 E2.62698
G1 X133.04 Y102.698 E2.63627
G1 X132.745 Y103.004 E2.6504
G1 X132.379 Y103.299 E2.66604
G1 X131.895 Y103.575 E2.68457
G1 X131.317 Y103.804 E2.70525
G1 X130.626 Y103.898 E2.72844
G1 X104.399 Y103.896 E3.60076
G1 X103.829 Y103.827 E3.61985
G1 X103.259 Y103.646 E3.63974
G1 X102.821 Y103.424 E3.65608
G1 X102.352 Y103.106 E3.67492
G1 X101.957 Y102.695 E3.69388
G1 X101.786 Y102.478 E3.70307
G1 X101.547 Y102.083 E3.71843
G1 X100.631 Y100.123 E3.79039
G1 X99.999 Y100.758 E3.82018
G1 X99.289 Y101.532 E3.85512
G1 X98.641 Y102.303 E3.88862
G1 X98.009 Y103.123 E3.92305
G1 X97.413 Y103.968 E3.95744
G1 X96.851 Y104.84 E3.99195
G1 X96.329 Y105.734 E4.02638
G1 X95.846 Y106.647 E4.06073
G1 X95.402 Y107.582 E4.09516
G1 X94.986 Y108.563 E4.1306
G1 X94.638 Y109.502 E4.16391
G1 X94.316 Y110.489 E4.19844
G1 X94.038 Y111.487 E4.23289
G1 X93.8 Y112.495 E4.26734
G1 X93.609 Y113.511 E4.30173
G1 X93.459 Y114.538 E4.33625
G1 X93.354 Y115.564 E4.37055
G1 X93.293 Y116.598 E4.405
G1 X93.277 Y117.5 E4.43501
G1 X93.301 Y118.522 E4.46901
G1 X93.367 Y119.551 E4.5033
G1 X93.475 Y120.572 E4.53745
G1 X93.628 Y121.589 E4.57166
G1 X93.824 Y122.601 E4.60594
G1 X94.06 Y123.59 E4.63976
G1 X94.341 Y124.594 E4.67444
G1 X94.408 Y124.798 E4.68158
G1 X94.663 Y125.569 E4.70859
G1 X95.028 Y126.531 E4.74281
G1 X95.431 Y127.477 E4.77701
G1 X95.877 Y128.407 E4.81131
G1 X96.358 Y129.316 E4.84552
G1 X96.877 Y130.203 E4.8797
G1 X97.437 Y131.066 E4.91392
G1 X98.031 Y131.906 E4.94814
G1 X98.66 Y132.72 E4.98235
G1 X99.325 Y133.508 E5.01665
G1 X100.028 Y134.272 E5.05118
G1 X100.632 Y134.875 E5.07956
G0 F6000 X100.761 Y135.545
G1 F900 X101.876 Y133.156 E5.16725
G1 X102.166 Y132.665 E5.18622
G1 X102.528 Y132.289 E5.20358
G1 X102.849 Y132.031 E5.21727
G1 X103.273 Y131.789 E5.23351
G1 X103.807 Y131.582 E5.25256
G1 X104.41 Y131.503 E5.27279
G1 X130.579 Y131.503 E6.14317
G1 X131.078 Y131.568 E6.15991
G1 X131.588 Y131.724 E6.17765
G1 X131.968 Y131.917 E6.19182
G1 X132.381 Y132.195 E6.20838
G1 X132.833 Y132.663 E6.23002
G1 X133.121 Y133.15 E6.24884
G1 X134.24 Y135.543 E6.3367
G1 X134.532 Y135.275 E6.34989
G1 X135.294 Y134.512 E6.38575
G1 X135.99 Y133.753 E6.42
G1 X136.668 Y132.948 E6.45501
G1 X137.312 Y132.114 E6.49005
G1 X137.918 Y131.255 E6.52502
G1 X138.487 Y130.371 E6.55999
G1 X139.017 Y129.461 E6.59501
G1 X139.509 Y128.534 E6.62992
G1 X139.96 Y127.583 E6.66492
G1 X140.383 Y126.587 E6.70091
G1 X140.737 Y125.632 E6.73479
G1 X141.064 Y124.63 E6.76985
G1 X141.348 Y123.615 E6.8049
G1 X141.588 Y122.592 E6.83985
G1 X141.783 Y121.559 E6.87482
G1 X141.935 Y120.516 E6.90987
G1 X142.041 Y119.473 E6.94474
G1 X142.104 Y118.42 E6.97983
G1 X142.123 Y117.503 E7.01033
G1 X142.104 Y116.586 E7.04084
G1 X142.043 Y115.533 E7.07592
G1 X141.935 Y114.486 E7.11093
G1 X141.784 Y113.448 E7.14582
G1 X141.588 Y112.412 E7.18089
G1 X141.351 Y111.4 E7.21545
G1 X141.067 Y110.373 E7.2509
G1 X140.74 Y109.373 E7.28589
G1 X140.371 Y108.387 E7.3209
G1 X139.962 Y107.421 E7.35579
G1 X139.509 Y106.469 E7.39086
G1 X139.017 Y105.537 E7.42591
G1 X138.488 Y104.63 E7.46084
G1 X137.919 Y103.745 E7.49583
G1 X137.311 Y102.885 E7.53086
G1 X136.67 Y102.052 E7.56582
G1 X135.969 Y101.221 E7.60198
G1 X135.266 Y100.456 E7.63653
G1 X134.535 Y99.725 E7.67092
G1 X134.24 Y99.454 E7.68424
G1 X133.072 Y101.94 E7.7756
G1 X132.824 Y102.346 E7.79142
G1 X132.471 Y102.712 E7.80833
G1 X132.155 Y102.966 E7.82182
G1 X131.722 Y103.214 E7.83842
G1 X131.19 Y103.419 E7.85738
G1 X130.585 Y103.497 E7.87767
G1 X104.421 Y103.497 E8.74789
G1 X103.922 Y103.432 E8.76462
G1 X103.419 Y103.278 E8.78212
G1 X103.032 Y103.084 E8.79652
G1 X102.614 Y102.801 E8.81331
G1 X102.166 Y102.335 E8.83481
G1 X101.878 Y101.848 E8.85362
G1 X100.76 Y99.452 E8.94156
G1 X100.457 Y99.731 E8.95526
G1 X99.718 Y100.473 E8.99009
G1 X98.983 Y101.274 E9.02625
G1 X98.329 Y102.052 E9.06006
G1 X97.687 Y102.885 E9.09504
G1 X97.081 Y103.745 E9.13003
G1 X96.51 Y104.631 E9.16509
G1 X95.98 Y105.54 E9.20008
G1 X95.489 Y106.467 E9.23497
G1 X95.037 Y107.418 E9.26999
G1 X94.614 Y108.416 E9.30605
G1 X94.26 Y109.371 E9.33992
G1 X93.933 Y110.373 E9.37498
G1 X93.65 Y111.387 E9.40999
G1 X93.409 Y112.412 E9.44501
G1 X93.214 Y113.445 E9.47998
G1 X93.062 Y114.488 E9.51504
G1 X92.955 Y115.532 E9.54994
G1 X92.893 Y116.583 E9.58496
G1 X92.877 Y117.501 E9.6155
G1 X92.901 Y118.54 E9.65006
G1 X92.968 Y119.585 E9.68489
G1 X93.079 Y120.623 E9.71961
G1 X93.233 Y121.657 E9.75438
G1 X93.433 Y122.685 E9.78921
G1 X93.673 Y123.691 E9.82361
G1 X93.958 Y124.711 E9.85884
G1 X94.028 Y124.924 E9.86629
G1 X94.286 Y125.702 E9.89356
G1 X94.656 Y126.68 E9.92834
G1 X95.067 Y127.642 E9.96313
G1 X95.52 Y128.587 E9.99798
G1 X96.008 Y129.511 E10.03274
G1 X96.537 Y130.413 E10.06752
G1 X97.106 Y131.29 E10.10229
G1 X97.71 Y132.144 E10.13708
G1 X98.349 Y132.972 E10.17187
G1 X99.047 Y133.797 E10.20781
G1 X99.745 Y134.555 E10.24208
G1 X100.476 Y135.283 E10.2764
G1 X100.761 Y135.545 E10.28927
G0 F6000 X100.893 Y136.208
G1 F900 X102.239 Y133.326 E10.39507
G1 X102.49 Y132.905 E10.41137
G1 X102.773 Y132.611 E10.42494
G1 X103.07 Y132.365 E10.43777
G1 X103.448 Y132.148 E10.45226
G1 X103.898 Y131.972 E10.46834
G1 X104.392 Y131.906 E10.48491
G1 X130.557 Y131.902 E11.35516
G1 X130.997 Y131.957 E11.36991
G1 X131.406 Y132.086 E11.38418
G1 X131.775 Y132.268 E11.39786
G1 X132.122 Y132.503 E11.4118
G1 X132.51 Y132.905 E11.43038
G1 X132.758 Y133.319 E11.44643
G1 X134.108 Y136.207 E11.55246
G1 X134.823 Y135.55 E11.58476
G1 X135.569 Y134.803 E11.61987
G1 X136.291 Y134.017 E11.65537
G1 X136.979 Y133.199 E11.69092
G1 X137.634 Y132.352 E11.72653
G1 X138.25 Y131.479 E11.76207
G1 X138.828 Y130.58 E11.79762
G1 X139.367 Y129.656 E11.8332
G1 X139.866 Y128.713 E11.86868
G1 X140.325 Y127.747 E11.90425
G1 X140.755 Y126.735 E11.94083
G1 X141.115 Y125.764 E11.97527
G1 X141.447 Y124.746 E12.01088
G1 X141.735 Y123.715 E12.04649
G1 X141.979 Y122.675 E12.08202
G1 X142.178 Y121.625 E12.11756
G1 X142.332 Y120.566 E12.15316
G1 X142.44 Y119.505 E12.18863
G1 X142.504 Y118.436 E12.22425
G1 X142.523 Y117.503 E12.25528
G1 X142.504 Y116.57 E12.28632
G1 X142.441 Y115.501 E12.32194
G1 X142.332 Y114.436 E12.35755
G1 X142.179 Y113.382 E12.39297
G1 X141.979 Y112.33 E12.42859
G1 X141.739 Y111.301 E12.46373
G1 X141.45 Y110.258 E12.49973
G1 X141.118 Y109.241 E12.53531
G1 X140.743 Y108.239 E12.57089
G1 X140.327 Y107.257 E12.60636
G1 X139.866 Y106.29 E12.64199
G1 X139.367 Y105.343 E12.6776
G1 X138.83 Y104.421 E12.71309
G1 X138.251 Y103.521 E12.74868
G1 X137.633 Y102.648 E12.78425
G1 X136.982 Y101.801 E12.81978
G1 X136.293 Y100.983 E12.85536
G1 X135.57 Y100.194 E12.89095
G1 X134.805 Y99.43 E12.92691
G1 X134.108 Y98.792 E12.95834
G1 X132.761 Y101.674 E13.06415
G1 X132.511 Y102.094 E13.0804
G1 X132.227 Y102.389 E13.09402
G1 X131.936 Y102.63 E13.10659
G1 X131.547 Y102.856 E13.12155
G1 X131.083 Y103.033 E13.13807
G1 X130.563 Y103.098 E13.1555
G1 X104.443 Y103.098 E14.02426
G1 X104.003 Y103.043 E14.039
G1 X103.594 Y102.914 E14.05327
G1 X103.243 Y102.744 E14.06624
G1 X102.876 Y102.496 E14.08097
G1 X102.485 Y102.089 E14.09974
G1 X102.241 Y101.679 E14.11561
G1 X100.891 Y98.789 E14.2217
G1 X100.185 Y99.438 E14.2536
G1 X99.429 Y100.196 E14.28921
G1 X98.706 Y100.983 E14.32475
G1 X98.018 Y101.801 E14.3603
G1 X97.365 Y102.648 E14.39587
G1 X96.749 Y103.521 E14.43141
G1 X96.169 Y104.421 E14.46702
G1 X95.63 Y105.345 E14.5026
G1 X95.131 Y106.288 E14.53809
G1 X94.672 Y107.254 E14.57366
G1 X94.242 Y108.268 E14.61029
G1 X93.882 Y109.239 E14.64473
G1 X93.55 Y110.257 E14.68035
G1 X93.263 Y111.288 E14.71594
G1 X93.018 Y112.329 E14.75151
G1 X92.819 Y113.379 E14.78706
G1 X92.665 Y114.439 E14.82268
G1 X92.557 Y115.5 E14.85815
G1 X92.493 Y116.568 E14.89374
G1 X92.477 Y117.502 E14.92481
G1 X92.501 Y118.557 E14.95991
G1 X92.569 Y119.619 E14.9953
G1 X92.682 Y120.673 E15.03056
G1 X92.839 Y121.725 E15.06594
G1 X93.042 Y122.77 E15.10134
G1 X93.285 Y123.791 E15.13625
G1 X93.576 Y124.827 E15.17204
G1 X93.648 Y125.049 E15.1798
G1 X93.909 Y125.836 E15.20738
G1 X94.285 Y126.829 E15.2427
G1 X94.702 Y127.807 E15.27806
G1 X95.162 Y128.767 E15.31347
G1 X95.659 Y129.705 E15.34877
G1 X96.196 Y130.623 E15.38415
G1 X96.774 Y131.515 E15.4195
G1 X97.388 Y132.382 E15.45483
G1 X98.038 Y133.223 E15.49019
G1 X98.725 Y134.037 E15.52561
G1 X99.441 Y134.817 E15.56083
G1 X100.205 Y135.577 E15.59667
G1 X100.893 Y136.208 E15.62772
G0 F6000 X101.031 Y136.86
;TYPE:WALL-OUTER
G1 F900 X102.601 Y133.495 E15.75122
G1 X102.799 Y133.167 E15.76397
G1 X103.061 Y132.889 E15.77667
G1 X103.311 Y132.688 E15.78734
G1 X103.611 Y132.514 E15.79888
G1 X103.996 Y132.364 E15.81262
G1 X104.458 Y132.302 E15.82812
G1 X130.55 Y132.303 E16.69595
G1 X130.899 Y132.348 E16.70765
G1 X131.27 Y132.462 E16.72056
G1 X131.552 Y132.6 E16.731
G1 X131.843 Y132.795 E16.74265
G1 X132.178 Y133.137 E16.75857
G1 X132.396 Y133.489 E16.77235
G1 X133.971 Y136.861 E16.89613
G1 X134.29 Y136.582 E16.91023
G1 X135.106 Y135.833 E16.94707
G1 X135.858 Y135.08 E16.98246
G1 X136.591 Y134.281 E17.01852
G1 X137.291 Y133.45 E17.05466
G1 X137.956 Y132.59 E17.09082
G1 X138.582 Y131.703 E17.12693
G1 X139.169 Y130.789 E17.16306
G1 X139.717 Y129.85 E17.19922
G1 X140.224 Y128.893 E17.23524
G1 X140.69 Y127.911 E17.27139
G1 X141.127 Y126.883 E17.30855
G1 X141.493 Y125.896 E17.34356
G1 X141.83 Y124.862 E17.37973
G1 X142.123 Y123.815 E17.41589
G1 X142.371 Y122.758 E17.452
G1 X142.572 Y121.691 E17.48811
G1 X142.729 Y120.615 E17.52428
G1 X142.839 Y119.537 E17.56032
G1 X142.904 Y118.452 E17.59647
G1 X142.923 Y117.503 E17.62804
G1 X142.904 Y116.554 E17.65961
G1 X142.84 Y115.469 E17.69576
G1 X142.729 Y114.387 E17.73194
G1 X142.573 Y113.316 E17.76794
G1 X142.371 Y112.247 E17.80412
G1 X142.127 Y111.202 E17.83981
G1 X141.833 Y110.142 E17.8764
G1 X141.496 Y109.109 E17.91254
G1 X141.115 Y108.091 E17.94869
G1 X140.692 Y107.093 E17.98474
G1 X140.224 Y106.11 E18.02096
G1 X139.717 Y105.149 E18.05709
G1 X139.171 Y104.212 E18.09316
G1 X138.583 Y103.297 E18.12934
G1 X137.955 Y102.41 E18.16549
G1 X137.294 Y101.55 E18.20156
G1 X136.593 Y100.719 E18.23772
G1 X135.859 Y99.918 E18.27386
G1 X135.076 Y99.136 E18.31066
G1 X134.286 Y98.412 E18.3463
G1 X133.97 Y98.141 E18.36015
G1 X132.399 Y101.505 E18.48364
G1 X132.2 Y101.834 E18.49643
G1 X131.939 Y102.111 E18.50908
G1 X131.715 Y102.293 E18.51868
G1 X131.375 Y102.493 E18.5318
G1 X130.996 Y102.64 E18.54532
G1 X130.541 Y102.698 E18.56058
G1 X104.45 Y102.697 E19.42837
G1 X104.101 Y102.652 E19.44007
G1 X103.73 Y102.538 E19.45298
G1 X103.453 Y102.404 E19.46322
G1 X103.146 Y102.196 E19.47555
G1 X102.822 Y101.863 E19.491
G1 X102.603 Y101.509 E19.50485
G1 X101.028 Y98.137 E19.62863
G1 X100.706 Y98.416 E19.6428
G1 X99.892 Y99.166 E19.67962
G1 X99.14 Y99.919 E19.71501
G1 X98.406 Y100.719 E19.75112
G1 X97.706 Y101.55 E19.78726
G1 X97.043 Y102.41 E19.82338
G1 X96.417 Y103.297 E19.85949
G1 X95.828 Y104.212 E19.89568
G1 X95.28 Y105.151 E19.93184
G1 X94.773 Y106.108 E19.96786
G1 X94.307 Y107.09 E20.00402
G1 X93.87 Y108.12 E20.04123
G1 X93.504 Y109.107 E20.07624
G1 X93.167 Y110.141 E20.11241
G1 X92.875 Y111.188 E20.14857
G1 X92.626 Y112.246 E20.18472
G1 X92.425 Y113.313 E20.22083
G1 X92.268 Y114.39 E20.25703
G1 X92.158 Y115.468 E20.29307
G1 X92.093 Y116.552 E20.32919
G1 X92.077 Y117.503 E20.36082
G1 X92.101 Y118.575 E20.39649
G1 X92.171 Y119.653 E20.43242
G1 X92.285 Y120.724 E20.46824
G1 X92.445 Y121.793 E20.50419
G1 X92.651 Y122.854 E20.54014
G1 X92.898 Y123.891 E20.57559
G1 X93.193 Y124.944 E20.61197
G1 X93.268 Y125.175 E20.62004
G1 X93.532 Y125.97 E20.6479
G1 X93.914 Y126.979 E20.68379
G1 X94.338 Y127.972 E20.7197
G1 X94.805 Y128.947 E20.75566
G1 X95.309 Y129.9 E20.79151
G1 X95.856 Y130.833 E20.82749
G1 X96.443 Y131.739 E20.86339
G1 X97.066 Y132.62 E20.89928
G1 X97.726 Y133.475 E20.9352
G1 X98.425 Y134.301 E20.97119
G1 X99.152 Y135.094 E21.00698
G1 X99.918 Y135.858 E21.04296
G1 X100.718 Y136.592 E21.07907
G1 X101.031 Y136.86 E21.09277
G0 F6000 X100.942 Y136.441
G0 X100.759 Y134.366
G0 X100.524 Y134.255
;TYPE:SKIN
G1 F900 X101.223 Y132.755 E21.14782
G1 X101.466 Y132.353 E21.16344
G1 X101.703 Y132.05 E21.17623
G1 X102.021 Y131.72 E21.19148
G1 X102.438 Y131.388 E21.20921
G1 X102.996 Y131.075 E21.23048
G1 X103.603 Y130.847 E21.25205
G1 X104.368 Y130.744 E21.27772
G1 X130.623 Y130.74 E22.15097
G1 X131.213 Y130.819 E22.17077
G1 X131.887 Y131.024 E22.1942
G1 X132.325 Y131.241 E22.21046
G1 X132.876 Y131.613 E22.23257
G1 X133.315 Y132.07 E22.25365
G1 X133.505 Y132.311 E22.26385
G1 X133.778 Y132.757 E22.28125
G1 X134.476 Y134.254 E22.33618
G1 X134.727 Y134.002 E22.34801
G1 X135.433 Y133.233 E22.38273
G1 X136.074 Y132.47 E22.41588
G1 X136.731 Y131.619 E22.45164
G1 X137.288 Y130.83 E22.48376
G1 X137.839 Y129.972 E22.51767
G1 X138.354 Y129.09 E22.55164
G1 X138.829 Y128.191 E22.58546
G1 X139.263 Y127.276 E22.61914
G1 X139.677 Y126.308 E22.65416
G1 X140.02 Y125.383 E22.68697
G1 X140.341 Y124.397 E22.72146
G1 X140.61 Y123.427 E22.75494
G1 X140.844 Y122.434 E22.78887
G1 X141.032 Y121.433 E22.82275
G1 X141.18 Y120.423 E22.8567
