;FLAVOR:Marlin
;TIME:11341
;Filament used: 6.56795m
;Layer height: 0.2
;MINX:64.658
;MINY:72.713
;MINZ:0.2
;MAXX:171.469
;MAXY:162.225
;MAXZ:7.6
;Generated with Cura_SteamEngine 4.8.0
M140 S50
M105
M190 S50
M104 S205
M105
M109 S205
M82 ;absolute extrusion mode
; Ender 3 Custom Start G-code
G92 E0 ; Reset Extruder
G28 ; Home all axes
G1 Z2.0 F3000 ; Move Z Axis up little to prevent scratching of Heat Bed
G1 X0.1 Y20 Z0.3 F5000.0 ; Move to start position
G1 X0.1 Y200.0 Z0.3 F1500.0 E15 ; Draw the first line
G1 X0.4 Y200.0 Z0.3 F5000.0 ; Move to side a little
G1 X0.4 Y20 Z0.3 F1500.0 E30 ; Draw the second line
G92 E0 ; Reset Extruder
G1 Z2.0 F3000 ; Move Z Axis up little to prevent scratching of Heat Bed
G1 X5 Y20 Z0.3 F5000.0 ; Move over to prevent blob squish
G92 E0
G92 E0
G1 F2700 E-5
;LAYER_COUNT:38
;LAYER:0
M107
;MESH:FuseHolder.stl(3)
G0 F6000 X87.066 Y127.436 Z0.2
;TYPE:WALL-INNER
G1 F2700 E0
G1 F1200 X86.998 Y127.623 E0.00662
G1 X86.811 Y127.555 E0.01089
G1 X67.215 Y120.422 E0.70449
G1 X67.028 Y120.354 E0.71111
G1 X66.961 Y120.541 E0.71537
G1 X66.62 Y121.482 E0.74866
G1 X87.576 Y129.11 E1.4904
G1 X87.577 Y129.111 E1.49045
G1 X87.716 Y129.161 E1.49536
G1 X87.766 Y129.021 E1.49856
G1 X90.708 Y120.936 E1.78472
G1 X90.776 Y120.749 E1.79133
G1 X90.589 Y120.682 E1.7956
G1 X89.648 Y120.341 E1.82889
G1 X87.066 Y127.436 E2.08001
G0 F6000 X87.861 Y127.59
;TYPE:WALL-OUTER
G1 F1200 X90.263 Y120.989 E2.31364
G1 X89.887 Y120.853 E2.32694
G1 X87.485 Y127.454 E2.56057
G1 X87.861 Y127.59 E2.57387
G0 F6000 X87.793 Y127.778
G0 X87.776 Y128.196
G0 X87.552 Y128.812
G0 X87.476 Y128.648
G1 F1200 X87.612 Y128.272 E2.58717
G1 X67.268 Y120.867 E3.30725
G1 X67.132 Y121.243 E3.32054
G1 X87.476 Y128.648 E4.04062
G0 F6000 X87.407 Y128.834
G0 X87.544 Y129.214
G0 X87.536 Y129.947
;TYPE:WALL-INNER
G1 F1200 X65.171 Y121.807 E4.83222
G1 X72.25 Y102.355 E5.52071
G1 X94.615 Y110.494 E6.31229
G1 X90.871 Y120.783 E6.67646
G1 X90.803 Y120.969 E6.68059
G1 X90.802 Y120.971 E6.68066
G1 X87.81 Y129.195 E6.97173
G1 X87.759 Y129.336 E6.97672
G1 X87.536 Y129.947 E6.99835
G0 F6000 X87.775 Y130.46
;TYPE:WALL-OUTER
G1 F1200 X64.658 Y122.046 E7.81657
G1 X72.011 Y101.842 E8.53168
G1 X95.128 Y110.255 E9.34989
G1 X87.775 Y130.46 E10.06503
G0 F6000 X87.673 Y130.242
G0 X87.207 Y129.709
G0 X87.303 Y129.447
;TYPE:SKIN
G1 F1200 X65.671 Y121.574 E10.83068
G1 X72.483 Y102.855 E11.49322
G1 X94.115 Y110.727 E12.25886
G1 X90.637 Y120.283 E12.59709
G1 X89.414 Y119.842 E12.64033
G1 X86.764 Y127.123 E12.89804
G1 X66.794 Y119.854 E13.60488
G1 X66.121 Y121.716 E13.67073
G1 X87.31 Y129.428 E14.42071
G1 X87.303 Y129.447 E14.42138
G0 F6000 X87.207 Y129.709
G0 X94.307 Y111.016
G0 X93.894 Y110.865
G1 F1200 X93.816 Y110.787 E14.42505
G0 F6000 X93.743 Y111.28
G1 F1200 X92.927 Y110.464 E14.46343
G0 F6000 X92.038 Y110.14
G1 F1200 X93.592 Y111.694 E14.53653
G0 F6000 X93.442 Y112.109
G1 F1200 X91.149 Y109.817 E14.64436
G0 F6000 X90.26 Y109.493
G1 F1200 X93.29 Y112.524 E14.7869
G0 F6000 X93.14 Y112.939
G1 F1200 X89.37 Y109.169 E14.96423
G0 F6000 X88.481 Y108.846
G1 F1200 X92.988 Y113.353 E15.17623
G0 F6000 X92.838 Y113.768
G1 F1200 X87.592 Y108.522 E15.42298
G0 F6000 X86.703 Y108.199
G1 F1200 X92.686 Y114.182 E15.70441
G0 F6000 X92.536 Y114.597
G1 F1200 X85.813 Y107.875 E16.02061
G0 F6000 X84.924 Y107.551
G1 F1200 X92.384 Y115.012 E16.37153
G0 F6000 X92.234 Y115.427
G1 F1200 X84.035 Y107.228 E16.75719
G0 F6000 X83.145 Y106.904
G1 F1200 X92.083 Y115.842 E17.1776
G0 F6000 X91.932 Y116.256
G1 F1200 X82.256 Y106.58 E17.63273
G0 F6000 X81.367 Y106.257
G1 F1200 X91.781 Y116.671 E18.12258
G0 F6000 X91.63 Y117.086
G1 F1200 X80.477 Y105.933 E18.64718
G0 F6000 X79.589 Y105.61
G1 F1200 X91.479 Y117.501 E19.20647
G0 F6000 X91.328 Y117.915
G1 F1200 X78.699 Y105.286 E19.8005
G0 F6000 X77.81 Y104.962
G1 F1200 X91.177 Y118.33 E20.42927
G0 F6000 X91.026 Y118.745
G1 F1200 X76.921 Y104.639 E21.09275
G0 F6000 X76.031 Y104.315
G1 F1200 X90.875 Y119.16 E21.79099
G0 F6000 X90.724 Y119.574
G1 F1200 X75.142 Y103.992 E22.52392
G0 F6000 X74.253 Y103.668
G1 F1200 X90.574 Y119.989 E23.29161
G0 F6000 X89.845 Y119.827
G1 F1200 X73.363 Y103.345 E24.06687
G0 F6000 X72.56 Y103.107
G1 F1200 X89.258 Y119.805 E24.85229
G0 F6000 X89.106 Y120.219
G1 F1200 X72.409 Y103.522 E25.63767
G0 F6000 X72.258 Y103.936
G1 F1200 X88.956 Y120.634 E26.42309
G0 F6000 X88.804 Y121.048
G1 F1200 X72.107 Y104.351 E27.20846
G0 F6000 X71.957 Y104.767
G1 F1200 X88.654 Y121.463 E27.99382
G0 F6000 X88.502 Y121.878
G1 F1200 X71.805 Y105.181 E28.77919
G0 F6000 X71.655 Y105.596
G1 F1200 X88.352 Y122.293 E29.56457
G0 F6000 X88.2 Y122.707
G1 F1200 X71.504 Y106.01 E30.34992
G0 F6000 X71.353 Y106.425
G1 F1200 X88.05 Y123.122 E31.1353
G0 F6000 X87.899 Y123.537
G1 F1200 X71.202 Y106.84 E31.92067
G0 F6000 X71.051 Y107.255
G1 F1200 X87.748 Y123.952 E32.70605
G0 F6000 X87.597 Y124.366
G1 F1200 X70.9 Y107.669 E33.49142
G0 F6000 X70.749 Y108.084
G1 F1200 X87.446 Y124.781 E34.2768
G0 F6000 X87.295 Y125.196
G1 F1200 X70.598 Y108.499 E35.06217
G0 F6000 X70.447 Y108.914
G1 F1200 X87.144 Y125.611 E35.84755
G0 F6000 X86.993 Y126.025
G1 F1200 X70.296 Y109.328 E36.63293
G0 F6000 X70.145 Y109.743
G1 F1200 X86.842 Y126.44 E37.4183
G0 F6000 X86.691 Y126.855
G1 F1200 X69.995 Y110.158 E38.20365
G0 F6000 X69.843 Y110.573
G1 F1200 X85.912 Y126.641 E38.95947
G0 F6000 X85.023 Y126.318
G1 F1200 X69.693 Y110.988 E39.68054
G0 F6000 X69.541 Y111.402
G1 F1200 X84.133 Y125.994 E40.36691
G0 F6000 X83.244 Y125.67
G1 F1200 X69.391 Y111.817 E41.01851
G0 F6000 X69.239 Y112.231
G1 F1200 X82.354 Y125.346 E41.6354
G0 F6000 X81.465 Y125.023
G1 F1200 X69.089 Y112.647 E42.21753
G0 F6000 X68.937 Y113.061
G1 F1200 X80.576 Y124.699 E42.76497
G0 F6000 X79.686 Y124.375
G1 F1200 X68.787 Y113.476 E43.27762
G0 F6000 X68.636 Y113.89
G1 F1200 X78.797 Y124.051 E43.75556
G0 F6000 X77.908 Y123.728
G1 F1200 X68.485 Y114.305 E44.19879
G0 F6000 X68.334 Y114.72
G1 F1200 X77.018 Y123.404 E44.60726
G0 F6000 X76.129 Y123.081
G1 F1200 X68.183 Y115.135 E44.98102
G0 F6000 X68.032 Y115.549
G1 F1200 X75.239 Y122.757 E45.32004
G0 F6000 X74.35 Y122.434
G1 F1200 X67.881 Y115.964 E45.62434
G0 F6000 X67.73 Y116.379
G1 F1200 X73.461 Y122.11 E45.89391
G0 F6000 X72.571 Y121.786
G1 F1200 X67.579 Y116.794 E46.12872
G0 F6000 X67.428 Y117.209
G1 F1200 X71.682 Y121.462 E46.32879
G0 F6000 X70.792 Y121.138
G1 F1200 X67.277 Y117.623 E46.49413
G0 F6000 X67.127 Y118.038
G1 F1200 X69.903 Y120.815 E46.62472
G0 F6000 X69.014 Y120.491
G1 F1200 X66.975 Y118.453 E46.72061
G0 F6000 X66.825 Y118.868
G1 F1200 X68.124 Y120.167 E46.78171
G0 F6000 X67.235 Y119.843
G1 F1200 X66.673 Y119.282 E46.80812
G0 F6000 X66.523 Y119.697
G1 F1200 X66.639 Y119.813 E46.81358
G0 F6000 X66.371 Y120.111
G1 F1200 X66.488 Y120.228 E46.81908
G0 F6000 X66.221 Y120.527
G1 F1200 X66.338 Y120.644 E46.82458
G0 F6000 X66.069 Y120.941
G1 F1200 X66.188 Y121.059 E46.83016
G0 F6000 X65.919 Y121.356
G1 F1200 X66.038 Y121.475 E46.83575
G0 F6000 X66.451 Y121.625
G0 X87.552 Y128.812
G0 X87.776 Y128.196
G0 X87.095 Y127.824
G0 X87.151 Y127.88
;TYPE:SKIN
G1 F1200 X87.411 Y127.857 E46.8448
G1 X87.96 Y127.841 E46.86384
G0 F6000 X88.102 Y128.043
G1 F2700 E41.86384
G0 F6000 X94.382 Y110.603
G0 X94.332 Y110.092
G0 X94.95 Y108.382
G0 X95.017 Y108.214
;TYPE:WALL-INNER
G1 F2700 E46.86384
G1 F1200 X94.83 Y108.147 E46.87045
G1 X73.003 Y100.279 E47.64214
G1 X79.82 Y81.368 E48.31074
G1 X79.887 Y81.181 E48.31735
G1 X80.074 Y81.248 E48.32162
G1 X101.9 Y89.117 E49.09329
G1 X95.084 Y108.027 E49.76185
G1 X95.017 Y108.214 E49.76612
G0 F6000 X95.258 Y108.726
;TYPE:WALL-OUTER
G1 F1200 X72.491 Y100.52 E50.57104
G1 X79.646 Y80.669 E51.27287
G1 X102.412 Y88.876 E52.07777
G1 X95.258 Y108.726 E52.77955
G0 F6000 X95.096 Y108.38
G0 X95.045 Y107.809
G0 X94.783 Y107.715
;TYPE:SKIN
G1 F1200 X73.502 Y100.045 E53.53193
G1 X80.121 Y81.68 E54.18121
G1 X101.401 Y89.351 E54.93357
G1 X94.783 Y107.715 E55.58281
G0 F6000 X95.045 Y107.809
G0 X101.495 Y89.915
G0 X101.08 Y89.766
G1 F1200 X100.515 Y89.202 E55.60936
G0 F6000 X99.631 Y88.883
G1 F1200 X100.93 Y90.182 E55.67046
G0 F6000 X100.78 Y90.598
G1 F1200 X98.746 Y88.564 E55.76614
G0 F6000 X97.862 Y88.245
G1 F1200 X100.63 Y91.013 E55.89634
G0 F6000 X100.48 Y91.429
G1 F1200 X96.977 Y87.926 E56.06111
G0 F6000 X96.092 Y87.607
G1 F1200 X100.33 Y91.845 E56.26045
G0 F6000 X100.18 Y92.261
G1 F1200 X95.208 Y87.288 E56.49434
G0 F6000 X94.324 Y86.97
G1 F1200 X100.031 Y92.677 E56.76278
G0 F6000 X99.881 Y93.093
G1 F1200 X93.439 Y86.651 E57.06579
G0 F6000 X92.555 Y86.332
G1 F1200 X99.731 Y93.509 E57.40335
G0 F6000 X99.581 Y93.924
G1 F1200 X91.67 Y86.013 E57.77546
G0 F6000 X90.786 Y85.694
G1 F1200 X99.431 Y94.34 E58.18212
G0 F6000 X99.282 Y94.756
G1 F1200 X89.901 Y85.376 E58.62335
G0 F6000 X89.016 Y85.057
G1 F1200 X99.132 Y95.172 E59.09915
G0 F6000 X98.982 Y95.588
G1 F1200 X88.132 Y84.738 E59.6095
G0 F6000 X87.247 Y84.419
G1 F1200 X98.832 Y96.003 E60.1544
G0 F6000 X98.682 Y96.419
G1 F1200 X86.363 Y84.1 E60.73385
G0 F6000 X85.478 Y83.781
G1 F1200 X98.533 Y96.836 E61.34792
G0 F6000 X98.383 Y97.251
G1 F1200 X84.594 Y83.462 E61.99651
G0 F6000 X83.709 Y83.143
G1 F1200 X98.233 Y97.667 E62.67967
G0 F6000 X98.083 Y98.083
G1 F1200 X82.824 Y82.824 E63.39741
G0 F6000 X81.94 Y82.505
G1 F1200 X97.933 Y98.499 E64.14969
G0 F6000 X97.783 Y98.915
G1 F1200 X81.055 Y82.187 E64.93653
G0 F6000 X80.208 Y81.905
G1 F1200 X97.633 Y99.33 E65.75615
G0 F6000 X97.483 Y99.746
G1 F1200 X80.058 Y82.321 E66.57577
G0 F6000 X79.909 Y82.737
G1 F1200 X97.333 Y100.162 E67.39536
G0 F6000 X97.184 Y100.578
G1 F1200 X79.759 Y83.153 E68.21498
G0 F6000 X79.609 Y83.569
G1 F1200 X97.034 Y100.993 E69.03457
G0 F6000 X96.884 Y101.41
G1 F1200 X79.459 Y83.985 E69.85419
G0 F6000 X79.309 Y84.4
G1 F1200 X96.735 Y101.826 E70.67386
G0 F6000 X96.585 Y102.241
G1 F1200 X79.159 Y84.816 E71.4935
G0 F6000 X79.009 Y85.232
G1 F1200 X96.435 Y102.657 E72.31314
G0 F6000 X96.285 Y103.073
G1 F1200 X78.86 Y85.648 E73.13276
G0 F6000 X78.71 Y86.064
G1 F1200 X96.135 Y103.489 E73.95238
G0 F6000 X95.985 Y103.905
G1 F1200 X78.56 Y86.479 E74.77202
G0 F6000 X78.41 Y86.895
G1 F1200 X95.835 Y104.32 E75.59164
G0 F6000 X95.685 Y104.736
G1 F1200 X78.26 Y87.311 E76.41126
G0 F6000 X78.11 Y87.727
G1 F1200 X95.535 Y105.152 E77.23088
G0 F6000 X95.386 Y105.568
G1 F1200 X77.961 Y88.143 E78.0505
G0 F6000 X77.811 Y88.559
G1 F1200 X95.236 Y105.984 E78.87012
G0 F6000 X95.086 Y106.4
G1 F1200 X77.661 Y88.975 E79.68973
G0 F6000 X77.511 Y89.391
G1 F1200 X94.936 Y106.816 E80.50935
G0 F6000 X94.786 Y107.232
G1 F1200 X77.361 Y89.806 E81.32899
G0 F6000 X77.211 Y90.222
G1 F1200 X94.392 Y107.403 E82.13714
G0 F6000 X93.507 Y107.084
G1 F1200 X77.061 Y90.638 E82.91071
G0 F6000 X76.912 Y91.054
G1 F1200 X92.623 Y106.765 E83.6497
G0 F6000 X91.738 Y106.446
G1 F1200 X76.762 Y91.469 E84.35415
G0 F6000 X76.612 Y91.885
G1 F1200 X90.854 Y106.127 E85.02405
G0 F6000 X89.97 Y105.809
G1 F1200 X76.462 Y92.301 E85.65943
G0 F6000 X76.312 Y92.717
G1 F1200 X89.085 Y105.49 E86.26023
G0 F6000 X88.2 Y105.171
G1 F1200 X76.162 Y93.133 E86.82646
G0 F6000 X76.012 Y93.548
G1 F1200 X87.316 Y104.852 E87.35817
G0 F6000 X86.431 Y104.533
G1 F1200 X75.863 Y93.965 E87.85525
G0 F6000 X75.713 Y94.381
G1 F1200 X85.547 Y104.215 E88.31781
G0 F6000 X84.663 Y103.896
G1 F1200 X75.563 Y94.796 E88.74585
G0 F6000 X75.413 Y95.212
G1 F1200 X83.778 Y103.577 E89.13931
G0 F6000 X82.894 Y103.258
G1 F1200 X75.263 Y95.628 E89.49823
G0 F6000 X75.113 Y96.044
G1 F1200 X82.009 Y102.939 E89.82257
G0 F6000 X81.125 Y102.621
G1 F1200 X74.963 Y96.459 E90.11241
G0 F6000 X74.814 Y96.875
G1 F1200 X80.241 Y102.302 E90.36768
G0 F6000 X79.356 Y101.983
G1 F1200 X74.664 Y97.291 E90.58838
G0 F6000 X74.514 Y97.707
G1 F1200 X78.471 Y101.664 E90.7745
G0 F6000 X77.587 Y101.346
G1 F1200 X74.364 Y98.123 E90.9261
G0 F6000 X74.214 Y98.538
G1 F1200 X76.703 Y101.027 E91.04318
G0 F6000 X75.818 Y100.708
G1 F1200 X74.064 Y98.954 E91.12568
G0 F6000 X73.915 Y99.371
G1 F1200 X74.934 Y100.39 E91.17361
G0 F6000 X74.049 Y100.071
G1 F1200 X73.765 Y99.786 E91.18699
G0 F6000 X73.436 Y99.667
G1 F2700 E86.18699
;MESH:FuseHolder.stl
G0 F6000 X73.352 Y99.637
G0 X73.236 Y100.169
G0 X95.13 Y108.452
G0 X96.144 Y108.816
G0 X100.212 Y97.433
G0 X109.209 Y72.713
G0 X152.187 Y88.282
G0 X171.469 Y112.579
G0 X155.901 Y155.556
G0 X131.528 Y146.77
G0 X139.186 Y125.524
G0 X134.645 Y137.343
G0 X129.632 Y135.548
G0 X130.005 Y134.509
G0 X133.891 Y135.739
;TYPE:WALL-INNER
G1 F2700 E91.18699
G1 F1200 X133.704 Y135.672 E91.1936
G1 X114.792 Y128.854 E91.86225
G1 X122.661 Y107.027 E92.63395
G1 X122.728 Y106.84 E92.64056
G1 X122.915 Y106.907 E92.64483
G1 X141.826 Y113.725 E93.31344
G1 X133.958 Y135.552 E94.08514
G1 X133.891 Y135.739 E94.08941
G0 F6000 X134.132 Y136.251
;TYPE:WALL-OUTER
G1 F1200 X114.28 Y129.095 E94.79128
G1 X122.487 Y106.328 E95.59621
G1 X142.338 Y113.484 E96.29804
G1 X134.132 Y136.251 E97.10296
G0 F6000 X133.97 Y135.905
G0 X133.919 Y135.334
G0 X133.657 Y135.24
;TYPE:SKIN
G1 F1200 X115.291 Y128.62 E97.75229
G1 X122.962 Y107.339 E98.50468
G1 X141.327 Y113.959 E99.15397
G1 X133.657 Y135.24 E99.90635
G0 F6000 X133.919 Y135.334
G0 X115.025 Y128.744
G0 X115.237 Y127.946
G0 X115.65 Y128.095
G1 F1200 X116.406 Y128.851 E99.94191
G0 F6000 X117.291 Y129.17
G1 F1200 X115.8 Y127.679 E100.01204
G0 F6000 X115.949 Y127.263
G1 F1200 X118.175 Y129.488 E100.11672
G0 F6000 X119.059 Y129.807
G1 F1200 X116.099 Y126.847 E100.25595
G0 F6000 X116.249 Y126.432
G1 F1200 X119.944 Y130.126 E100.42973
G0 F6000 X120.828 Y130.445
G1 F1200 X116.399 Y126.016 E100.63806
G0 F6000 X116.549 Y125.6
G1 F1200 X121.713 Y130.764 E100.88096
G0 F6000 X122.598 Y131.083
G1 F1200 X116.698 Y125.184 E101.15845
G0 F6000 X116.848 Y124.768
G1 F1200 X123.482 Y131.401 E101.47047
G0 F6000 X124.366 Y131.72
G1 F1200 X116.998 Y124.352 E101.81704
G0 F6000 X117.148 Y123.936
G1 F1200 X125.251 Y132.039 E102.19818
G0 F6000 X126.135 Y132.358
G1 F1200 X117.298 Y123.52 E102.61387
G0 F6000 X117.448 Y123.105
G1 F1200 X127.02 Y132.677 E103.0641
G0 F6000 X127.905 Y132.996
G1 F1200 X117.598 Y122.689 E103.54891
G0 F6000 X117.748 Y122.273
G1 F1200 X128.788 Y133.314 E104.06822
G0 F6000 X129.673 Y133.633
G1 F1200 X117.898 Y121.857 E104.62211
G0 F6000 X118.047 Y121.442
G1 F1200 X130.558 Y133.952 E105.21056
G0 F6000 X131.442 Y134.271
G1 F1200 X118.197 Y121.026 E105.83357
G0 F6000 X118.347 Y120.61
G1 F1200 X132.327 Y134.589 E106.49112
G0 F6000 X133.211 Y134.908
G1 F1200 X118.497 Y120.194 E107.18322
G0 F6000 X118.647 Y119.778
G1 F1200 X133.652 Y134.783 E107.88901
G0 F6000 X133.802 Y134.367
G1 F1200 X118.797 Y119.363 E108.59478
G0 F6000 X118.947 Y118.947
G1 F1200 X133.952 Y133.952 E109.30057
G0 F6000 X134.101 Y133.535
G1 F1200 X119.097 Y118.531 E110.00631
G0 F6000 X119.247 Y118.115
G1 F1200 X134.251 Y133.119 E110.71205
G0 F6000 X134.401 Y132.704
G1 F1200 X119.397 Y117.7 E111.41779
G0 F6000 X119.547 Y117.284
G1 F1200 X134.551 Y132.288 E112.12353
G0 F6000 X134.701 Y131.872
G1 F1200 X119.696 Y116.867 E112.82932
G0 F6000 X119.846 Y116.452
G1 F1200 X134.85 Y131.456 E113.53507
G0 F6000 X135 Y131.041
G1 F1200 X119.996 Y116.036 E114.24083
G0 F6000 X120.145 Y115.62
G1 F1200 X135.15 Y130.625 E114.94662
G0 F6000 X135.3 Y130.209
G1 F1200 X120.295 Y115.204 E115.65241
G0 F6000 X120.445 Y114.788
G1 F1200 X135.45 Y129.793 E116.3582
G0 F6000 X135.6 Y129.377
G1 F1200 X120.595 Y114.373 E117.06397
G0 F6000 X120.745 Y113.957
G1 F1200 X135.75 Y128.962 E117.76975
G0 F6000 X135.9 Y128.546
G1 F1200 X120.895 Y113.541 E118.47554
G0 F6000 X121.045 Y113.125
G1 F1200 X136.049 Y128.129 E119.18129
G0 F6000 X136.199 Y127.714
