;FLAVOR:Marlin
;TIME:1354
;Filament used: 0.842173m
;Layer height: 0.2
;MINX:98.9
;MINY:101.4
;MINZ:0.2
;MAXX:136.1
;MAXY:133.6
;MAXZ:5.4
;Generated with Cura_SteamEngine 4.8.0
M140 S50
M105
M190 S50
M104 S205
M105
M109 S205
M82 ;absolute extrusion mode
; Ender 3 Custom Start G-code
G92 E0 ; Reset Extruder
G28 ; Home all axes
G1 Z2.0 F3000 ; Move Z Axis up little to prevent scratching of Heat Bed
G1 X0.1 Y20 Z0.3 F5000.0 ; Move to start position
G1 X0.1 Y200.0 Z0.3 F1500.0 E15 ; Draw the first line
G1 X0.4 Y200.0 Z0.3 F5000.0 ; Move to side a little
G1 X0.4 Y20 Z0.3 F1500.0 E30 ; Draw the second line
G92 E0 ; Reset Extruder
G1 Z2.0 F3000 ; Move Z Axis up little to prevent scratching of Heat Bed
G1 X5 Y20 Z0.3 F5000.0 ; Move over to prevent blob squish
G92 E0
G92 E0
G1 F2700 E-5
;LAYER_COUNT:33
;LAYER:0
M107
;MESH:28e8e88d-7718-4b58-8de7-6b8ef7bfd51e.stl
G0 F6000 X99.493 Y132.948 Z0.2
;TYPE:WALL-INNER
G1 F2700 E0
G1 F1200 X99.493 Y132.809 E0.00462
G1 X99.494 Y102.1 E1.02601
G1 X99.552 Y101.993 E1.03006
G1 X135.261 Y101.994 E2.21774
G1 X135.4 Y101.994 E2.22237
G1 X135.507 Y102.052 E2.22641
G1 X135.507 Y102.191 E2.23104
G1 X135.506 Y132.9 E3.25242
G1 X135.448 Y133.007 E3.25647
G1 X99.739 Y133.006 E4.44416
G1 X99.6 Y133.006 E4.44878
G1 X99.493 Y132.948 E4.45283
G0 F6000 X99.221 Y133.29
;TYPE:WALL-OUTER
G1 F1200 X99.117 Y133.113 E4.45966
G1 X99.093 Y132.982 E4.46409
G1 X99.094 Y102.027 E5.49365
G1 X99.21 Y101.721 E5.50454
G1 X99.387 Y101.617 E5.51137
G1 X99.518 Y101.593 E5.5158
G1 X135.473 Y101.594 E6.71166
G1 X135.779 Y101.71 E6.72255
G1 X135.883 Y101.887 E6.72938
G1 X135.907 Y102.018 E6.73381
G1 X135.906 Y132.973 E7.76337
G1 X135.79 Y133.279 E7.77426
G1 X135.613 Y133.383 E7.78109
G1 X135.482 Y133.407 E7.78551
G1 X99.527 Y133.406 E8.98138
G1 X99.221 Y133.29 E8.99227
G0 F6000 X99.504 Y132.954
G0 X99.883 Y132.616
;TYPE:SKIN
G1 F1200 X99.884 Y102.383 E9.99782
G1 X135.117 Y102.384 E11.16968
G1 X135.116 Y132.617 E12.17523
G1 X99.883 Y132.616 E13.34708
G0 F6000 X100.211 Y132.455
G1 F1200 X100.042 Y132.286 E13.35503
G0 F6000 X100.042 Y131.721
G1 F1200 X100.776 Y132.455 E13.38956
G0 F6000 X101.342 Y132.455
G1 F1200 X100.042 Y131.155 E13.45071
G0 F6000 X100.042 Y130.589
G1 F1200 X101.908 Y132.455 E13.53848
G0 F6000 X102.473 Y132.455
G1 F1200 X100.042 Y130.024 E13.65282
G0 F6000 X100.042 Y129.458
G1 F1200 X103.039 Y132.455 E13.79379
G0 F6000 X103.605 Y132.455
G1 F1200 X100.042 Y128.892 E13.96139
G0 F6000 X100.042 Y128.327
G1 F1200 X104.17 Y132.455 E14.15555
G0 F6000 X104.736 Y132.455
G1 F1200 X100.042 Y127.761 E14.37635
G0 F6000 X100.042 Y127.195
G1 F1200 X105.302 Y132.455 E14.62376
G0 F6000 X105.868 Y132.455
G1 F1200 X100.042 Y126.63 E14.89777
G0 F6000 X100.042 Y126.064
G1 F1200 X106.433 Y132.455 E15.19839
G0 F6000 X106.999 Y132.455
G1 F1200 X100.042 Y125.498 E15.52562
G0 F6000 X100.042 Y124.933
G1 F1200 X107.565 Y132.455 E15.87946
G0 F6000 X108.13 Y132.455
G1 F1200 X100.042 Y124.367 E16.25989
G0 F6000 X100.042 Y123.801
G1 F1200 X108.696 Y132.455 E16.66695
G0 F6000 X109.262 Y132.455
G1 F1200 X100.042 Y123.235 E17.10063
G0 F6000 X100.042 Y122.67
G1 F1200 X109.827 Y132.455 E17.56089
G0 F6000 X110.393 Y132.455
G1 F1200 X100.042 Y122.104 E18.04777
G0 F6000 X100.042 Y121.538
G1 F1200 X110.959 Y132.455 E18.56127
G0 F6000 X111.524 Y132.455
G1 F1200 X100.042 Y120.973 E19.10135
G0 F6000 X100.042 Y120.407
G1 F1200 X112.09 Y132.455 E19.66805
G0 F6000 X112.656 Y132.455
G1 F1200 X100.042 Y119.841 E20.26137
G0 F6000 X100.042 Y119.276
G1 F1200 X113.221 Y132.455 E20.88127
G0 F6000 X113.787 Y132.455
G1 F1200 X100.042 Y118.71 E21.52779
G0 F6000 X100.042 Y118.144
G1 F1200 X114.353 Y132.455 E22.20094
G0 F6000 X114.918 Y132.455
G1 F1200 X100.042 Y117.579 E22.90066
G0 F6000 X100.042 Y117.013
G1 F1200 X115.484 Y132.455 E23.62701
G0 F6000 X116.05 Y132.455
G1 F1200 X100.042 Y116.447 E24.37997
G0 F6000 X100.042 Y115.882
G1 F1200 X116.616 Y132.455 E25.15954
G0 F6000 X117.181 Y132.455
G1 F1200 X100.042 Y115.316 E25.96571
G0 F6000 X100.042 Y114.75
G1 F1200 X117.748 Y132.455 E26.79852
G0 F6000 X118.313 Y132.455
G1 F1200 X100.042 Y114.185 E27.65791
G0 F6000 X100.042 Y113.619
G1 F1200 X118.879 Y132.455 E28.54392
G0 F6000 X119.445 Y132.455
G1 F1200 X100.042 Y113.053 E29.45655
G0 F6000 X100.042 Y112.487
G1 F1200 X120.01 Y132.455 E30.39578
G0 F6000 X120.576 Y132.455
G1 F1200 X100.042 Y111.922 E31.36162
G0 F6000 X100.042 Y111.356
G1 F1200 X121.142 Y132.455 E32.35407
G0 F6000 X121.707 Y132.455
G1 F1200 X100.042 Y110.79 E33.37313
G0 F6000 X100.042 Y110.225
G1 F1200 X122.273 Y132.455 E34.41878
G0 F6000 X122.839 Y132.455
G1 F1200 X100.042 Y109.659 E35.49106
G0 F6000 X100.042 Y109.093
G1 F1200 X123.404 Y132.455 E36.58994
G0 F6000 X123.97 Y132.455
G1 F1200 X100.042 Y108.528 E37.71541
G0 F6000 X100.042 Y107.962
G1 F1200 X124.536 Y132.455 E38.86751
G0 F6000 X125.102 Y132.455
G1 F1200 X100.042 Y107.396 E40.04623
G0 F6000 X100.042 Y106.831
G1 F1200 X125.667 Y132.455 E41.25153
G0 F6000 X126.233 Y132.455
G1 F1200 X100.042 Y106.265 E42.48345
G0 F6000 X100.042 Y105.699
G1 F1200 X126.799 Y132.455 E43.742
G0 F6000 X127.364 Y132.455
G1 F1200 X100.042 Y105.134 E45.02712
G0 F6000 X100.042 Y104.568
G1 F1200 X127.93 Y132.455 E46.33886
G0 F6000 X128.496 Y132.455
G1 F1200 X100.042 Y104.002 E47.67722
G0 F6000 X100.042 Y103.436
G1 F1200 X129.061 Y132.455 E49.04219
G0 F6000 X129.627 Y132.455
G1 F1200 X100.042 Y102.871 E50.43375
G0 F6000 X100.28 Y102.543
G1 F1200 X130.193 Y132.455 E51.84075
G0 F6000 X130.758 Y132.455
G1 F1200 X100.846 Y102.543 E53.24771
G0 F6000 X101.411 Y102.543
G1 F1200 X131.324 Y132.455 E54.65471
G0 F6000 X131.89 Y132.455
G1 F1200 X101.977 Y102.543 E56.0617
G0 F6000 X102.543 Y102.543
G1 F1200 X132.455 Y132.455 E57.46867
G0 F6000 X133.021 Y132.455
G1 F1200 X103.108 Y102.543 E58.87566
G0 F6000 X103.674 Y102.543
G1 F1200 X133.587 Y132.455 E60.28265
G0 F6000 X134.153 Y132.455
G1 F1200 X104.24 Y102.543 E61.68965
G0 F6000 X104.805 Y102.543
G1 F1200 X134.718 Y132.455 E63.09664
G0 F6000 X134.956 Y132.127
G1 F1200 X105.371 Y102.543 E64.4882
G0 F6000 X105.937 Y102.543
G1 F1200 X134.956 Y131.562 E65.85317
G0 F6000 X134.956 Y130.996
G1 F1200 X106.503 Y102.543 E67.19151
G0 F6000 X107.068 Y102.543
G1 F1200 X134.956 Y130.43 E68.50325
G0 F6000 X134.956 Y129.865
G1 F1200 X107.634 Y102.543 E69.78839
G0 F6000 X108.2 Y102.543
G1 F1200 X134.956 Y129.299 E71.04691
G0 F6000 X134.956 Y128.733
G1 F1200 X108.765 Y102.543 E72.27883
G0 F6000 X109.331 Y102.543
G1 F1200 X134.956 Y128.168 E73.48416
G0 F6000 X134.956 Y127.602
G1 F1200 X109.897 Y102.543 E74.66285
G0 F6000 X110.462 Y102.543
G1 F1200 X134.956 Y127.036 E75.81495
G0 F6000 X134.956 Y126.47
G1 F1200 X111.028 Y102.543 E76.94043
G0 F6000 X111.594 Y102.543
G1 F1200 X134.956 Y125.905 E78.03931
G0 F6000 X134.956 Y125.339
G1 F1200 X112.159 Y102.543 E79.11158
G0 F6000 X112.725 Y102.543
G1 F1200 X134.956 Y124.773 E80.15724
G0 F6000 X134.956 Y124.208
G1 F1200 X113.291 Y102.543 E81.17629
G0 F6000 X113.856 Y102.543
G1 F1200 X134.956 Y123.642 E82.16875
G0 F6000 X134.956 Y123.076
G1 F1200 X114.422 Y102.543 E83.13458
G0 F6000 X114.988 Y102.543
G1 F1200 X134.956 Y122.511 E84.07382
G0 F6000 X134.956 Y121.945
G1 F1200 X115.553 Y102.543 E84.98645
G0 F6000 X116.119 Y102.543
G1 F1200 X134.956 Y121.379 E85.87246
G0 F6000 X134.956 Y120.814
G1 F1200 X116.685 Y102.543 E86.73187
G0 F6000 X117.251 Y102.543
G1 F1200 X134.956 Y120.248 E87.56466
G0 F6000 X134.956 Y119.682
G1 F1200 X117.817 Y102.543 E88.37083
G0 F6000 X118.383 Y102.543
G1 F1200 X134.956 Y119.117 E89.1504
G0 F6000 X134.956 Y118.551
G1 F1200 X118.948 Y102.543 E89.90336
G0 F6000 X119.514 Y102.543
G1 F1200 X134.956 Y117.985 E90.62971
G0 F6000 X134.956 Y117.42
G1 F1200 X120.08 Y102.543 E91.32945
G0 F6000 X120.645 Y102.543
G1 F1200 X134.956 Y116.854 E92.0026
G0 F6000 X134.956 Y116.288
G1 F1200 X121.211 Y102.543 E92.64912
G0 F6000 X121.777 Y102.543
G1 F1200 X134.956 Y115.722 E93.26902
G0 F6000 X134.956 Y115.157
G1 F1200 X122.342 Y102.543 E93.86234
G0 F6000 X122.908 Y102.543
G1 F1200 X134.956 Y114.591 E94.42904
G0 F6000 X134.956 Y114.025
G1 F1200 X123.474 Y102.543 E94.96912
G0 F6000 X124.039 Y102.543
G1 F1200 X134.956 Y113.46 E95.48262
G0 F6000 X134.956 Y112.894
G1 F1200 X124.605 Y102.543 E95.9695
G0 F6000 X125.171 Y102.543
G1 F1200 X134.956 Y112.328 E96.42976
G0 F6000 X134.956 Y111.763
G1 F1200 X125.737 Y102.543 E96.86342
G0 F6000 X126.302 Y102.543
G1 F1200 X134.956 Y111.197 E97.27048
G0 F6000 X134.956 Y110.631
G1 F1200 X126.868 Y102.543 E97.65091
G0 F6000 X127.434 Y102.543
G1 F1200 X134.956 Y110.066 E98.00475
G0 F6000 X134.956 Y109.5
G1 F1200 X127.999 Y102.543 E98.33198
G0 F6000 X128.565 Y102.543
G1 F1200 X134.956 Y108.934 E98.63259
G0 F6000 X134.956 Y108.369
G1 F1200 X129.131 Y102.543 E98.90661
G0 F6000 X129.696 Y102.543
G1 F1200 X134.956 Y107.803 E99.15402
G0 F6000 X134.956 Y107.237
G1 F1200 X130.262 Y102.543 E99.37481
G0 F6000 X130.828 Y102.543
G1 F1200 X134.956 Y106.672 E99.56901
G0 F6000 X134.956 Y106.106
G1 F1200 X131.393 Y102.543 E99.7366
G0 F6000 X131.959 Y102.543
G1 F1200 X134.956 Y105.54 E99.87757
G0 F6000 X134.956 Y104.974
G1 F1200 X132.525 Y102.543 E99.99191
G0 F6000 X133.09 Y102.543
G1 F1200 X134.956 Y104.409 E100.07969
G0 F6000 X134.956 Y103.843
G1 F1200 X133.656 Y102.543 E100.14083
G0 F6000 X134.222 Y102.543
G1 F1200 X134.956 Y103.277 E100.17536
G0 F6000 X134.956 Y102.712
G1 F1200 X134.787 Y102.543 E100.18331
G1 F2700 E95.18331
G0 F6000 X134.788 Y102.104
G0 X135.325 Y102.176
G0 X135.561 Y133.04
G0 X135.601 Y133.056
;TYPE:SKIN
G1 F2700 E100.18331
G1 F1200 X135.663 Y133.117 E100.18475
G1 F2700 E95.18475
G0 F6000 X135.548 Y133.073
G0 X99.675 Y132.824
G0 X99.44 Y101.959
G0 X99.397 Y101.942
G1 F2700 E100.18475
G1 F1200 X99.335 Y101.881 E100.1862
G0 F6000 X99.733 Y101.804
G1 F2700 E95.1862
;MESH:NONMESH
G0 F300 X99.733 Y101.804 Z0.4
G0 F6000 X99.733 Y101.893
G0 X99.42 Y133.046
G0 X99.397 Y133.106
;TIME_ELAPSED:166.471136
;LAYER:1
M106 S85
;TYPE:WALL-INNER
;MESH:28e8e88d-7718-4b58-8de7-6b8ef7bfd51e.stl
G1 F2700 E100.1862
G1 F1350 X99.332 Y132.96 E100.19152
G1 X99.332 Y102.044 E101.21979
G1 X99.394 Y101.897 E101.22509
G1 X99.54 Y101.832 E101.23041
G1 X135.456 Y101.832 E102.42498
G1 X135.603 Y101.894 E102.43029
G1 X135.668 Y102.04 E102.4356
G1 X135.668 Y132.956 E103.46387
G1 X135.606 Y133.103 E103.46918
G1 X135.46 Y133.168 E103.47449
G1 X99.544 Y133.168 E104.66906
G1 X99.397 Y133.106 E104.67437
G0 F7500 X99.103 Y133.398
;TYPE:WALL-OUTER
G1 F1350 X98.951 Y133.134 E104.6845
G1 X98.932 Y132.989 E104.68937
G1 X98.932 Y102.017 E105.7195
G1 X98.957 Y101.853 E105.72502
G1 X99.102 Y101.603 E105.73463
G1 X99.366 Y101.451 E105.74476
G1 X99.511 Y101.432 E105.74963
G1 X135.483 Y101.432 E106.94606
G1 X135.647 Y101.457 E106.95158
G1 X135.897 Y101.602 E106.96119
G1 X136.049 Y101.866 E106.97132
G1 X136.068 Y102.011 E106.97619
G1 X136.068 Y132.983 E108.00632
G1 X136.043 Y133.147 E108.01184
G1 X135.898 Y133.397 E108.02145
G1 X135.634 Y133.549 E108.03158
G1 X135.489 Y133.568 E108.03644
G1 X99.517 Y133.568 E109.23288
G1 X99.353 Y133.543 E109.2384
G1 X99.103 Y133.398 E109.24801
G0 F7500 X99.414 Y133.088
G0 X99.722 Y132.778
;TYPE:SKIN
G1 F1350 X99.722 Y102.222 E110.2643
G1 X135.278 Y102.222 E111.4469
G1 X135.278 Y132.778 E112.4632
G1 X99.722 Y132.778 E113.6458
G1 F2700 E108.6458
G0 F7500 X99.442 Y132.778
G0 X99.442 Y102.633
G0 X99.882 Y102.633
G1 F2700 E113.6458
G1 F1350 X100.134 Y102.381 E113.65765
G0 F7500 X100.699 Y102.381
G1 F1350 X99.882 Y103.198 E113.69608
G0 F7500 X99.882 Y103.764
G1 F1350 X101.265 Y102.381 E113.76113
G0 F7500 X101.831 Y102.381
G1 F1350 X99.882 Y104.33 E113.85281
G0 F7500 X99.882 Y104.895
G1 F1350 X102.396 Y102.381 E113.97106
G0 F7500 X102.962 Y102.381
G1 F1350 X99.882 Y105.461 E114.11593
G0 F7500 X99.882 Y106.027
G1 F1350 X103.528 Y102.381 E114.28743
G0 F7500 X104.093 Y102.381
G1 F1350 X99.882 Y106.592 E114.4855
G0 F7500 X99.882 Y107.158
G1 F1350 X104.659 Y102.381 E114.71019
G0 F7500 X105.225 Y102.381
G1 F1350 X99.882 Y107.724 E114.96151
G0 F7500 X99.882 Y108.289
G1 F1350 X105.79 Y102.381 E115.23941
G0 F7500 X106.356 Y102.381
G1 F1350 X99.882 Y108.855 E115.54392
G0 F7500 X99.882 Y109.421
G1 F1350 X106.922 Y102.381 E115.87506
G0 F7500 X107.488 Y102.381
G1 F1350 X99.882 Y109.986 E116.2328
G0 F7500 X99.882 Y110.552
G1 F1350 X108.053 Y102.381 E116.61714
G0 F7500 X108.619 Y102.381
G1 F1350 X99.882 Y111.118 E117.0281
G0 F7500 X99.882 Y111.683
G1 F1350 X109.185 Y102.381 E117.46567
G0 F7500 X109.75 Y102.381
G1 F1350 X99.882 Y112.249 E117.92983
G0 F7500 X99.882 Y112.815
G1 F1350 X110.316 Y102.381 E118.42061
G0 F7500 X110.882 Y102.381
G1 F1350 X99.882 Y113.381 E118.93802
G0 F7500 X99.882 Y113.946
G1 F1350 X111.447 Y102.381 E119.482
G0 F7500 X112.013 Y102.381
G1 F1350 X99.882 Y114.512 E120.0526
G0 F7500 X99.882 Y115.078
G1 F1350 X112.579 Y102.381 E120.64983
G0 F7500 X113.144 Y102.381
G1 F1350 X99.882 Y115.643 E121.27363
G0 F7500 X99.882 Y116.209
G1 F1350 X113.71 Y102.381 E121.92406
G0 F7500 X114.276 Y102.381
G1 F1350 X99.882 Y116.775 E122.60111
G0 F7500 X99.882 Y117.34
G1 F1350 X114.841 Y102.381 E123.30474
G0 F7500 X115.407 Y102.381
G1 F1350 X99.882 Y117.906 E124.03498
G0 F7500 X99.882 Y118.472
G1 F1350 X115.973 Y102.381 E124.79186
G0 F7500 X116.538 Y102.381
G1 F1350 X99.882 Y119.037 E125.5753
G0 F7500 X99.882 Y119.603
G1 F1350 X117.104 Y102.381 E126.38537
G0 F7500 X117.67 Y102.381
G1 F1350 X99.882 Y120.169 E127.22207
G0 F7500 X99.882 Y120.734
G1 F1350 X118.236 Y102.381 E128.08536
G0 F7500 X118.801 Y102.381
G1 F1350 X99.882 Y121.3 E128.97525
G0 F7500 X99.882 Y121.866
G1 F1350 X119.367 Y102.381 E129.89177
G0 F7500 X119.933 Y102.381
G1 F1350 X99.882 Y122.432 E130.8349
G0 F7500 X99.882 Y122.997
G1 F1350 X120.498 Y102.381 E131.80462
G0 F7500 X121.064 Y102.381
G1 F1350 X99.882 Y123.563 E132.80095
G0 F7500 X99.882 Y124.129
G1 F1350 X121.63 Y102.381 E133.82391
G0 F7500 X122.195 Y102.381
G1 F1350 X99.882 Y124.694 E134.87345
G0 F7500 X99.882 Y125.26
G1 F1350 X122.761 Y102.381 E135.9496
G0 F7500 X123.327 Y102.381
G1 F1350 X99.882 Y125.826 E137.05239
G0 F7500 X99.882 Y126.391
G1 F1350 X123.892 Y102.381 E138.18174
G0 F7500 X124.458 Y102.381
G1 F1350 X99.882 Y126.957 E139.33772
G0 F7500 X99.882 Y127.523
G1 F1350 X125.024 Y102.381 E140.52032
G0 F7500 X125.589 Y102.381
G1 F1350 X99.882 Y128.088 E141.7295
G0 F7500 X99.882 Y128.654
G1 F1350 X126.155 Y102.381 E142.9653
G0 F7500 X126.721 Y102.381
G1 F1350 X99.882 Y129.22 E144.22773
G0 F7500 X99.882 Y129.785
G1 F1350 X127.286 Y102.381 E145.51673
G0 F7500 X127.852 Y102.381
G1 F1350 X99.882 Y130.351 E146.83235
G0 F7500 X99.882 Y130.917
G1 F1350 X128.418 Y102.381 E148.1746
G0 F7500 X128.984 Y102.381
G1 F1350 X99.882 Y131.482 E149.54344
G0 F7500 X99.882 Y132.048
G1 F1350 X129.549 Y102.381 E150.93889
G0 F7500 X130.115 Y102.381
G1 F1350 X99.882 Y132.614 E152.36096
G0 F7500 X100.444 Y132.617
G1 F1350 X130.681 Y102.381 E153.78319
G0 F7500 X131.246 Y102.381
G1 F1350 X101.01 Y132.617 E155.2054
G0 F7500 X101.575 Y132.617
G1 F1350 X131.812 Y102.381 E156.62763
G0 F7500 X132.378 Y102.381
G1 F1350 X102.141 Y132.617 E158.04986
G0 F7500 X102.707 Y132.617
G1 F1350 X132.943 Y102.381 E159.47207
G0 F7500 X133.509 Y102.381
G1 F1350 X103.272 Y132.617 E160.8943
G0 F7500 X103.838 Y132.617
G1 F1350 X134.075 Y102.381 E162.31653
G0 F7500 X134.64 Y102.381
G1 F1350 X104.404 Y132.617 E163.73874
G0 F7500 X104.97 Y132.617
G1 F1350 X135.116 Y102.471 E165.15672
G0 F7500 X135.116 Y103.036
G1 F1350 X105.535 Y132.617 E166.54812
G0 F7500 X106.101 Y132.617
G1 F1350 X135.116 Y103.602 E167.91289
G0 F7500 X135.116 Y104.168
G1 F1350 X106.667 Y132.617 E169.25105
G0 F7500 X107.232 Y132.617
