;FLAVOR:Marlin
;TIME:7558
;Filament used: 5.77035m
;Layer height: 0.2
;MINX:64.356
;MINY:83.2
;MINZ:0.2
;MAXX:173.793
;MAXY:151.8
;MAXZ:8
;Generated with Cura_SteamEngine 5.2.1
M140 S65
M105
M190 S65
M104 S240
M105
M109 S240
M82 ;absolute extrusion mode
; Ender 3 Custom Start G-code
G92 E0 ; Reset Extruder
G28 ; Home all axes
G1 Z2.0 F3000 ; Move Z Axis up little to prevent scratching of Heat Bed
G1 X0.1 Y20 Z0.3 F5000.0 ; Move to start position
G1 X0.1 Y200.0 Z0.3 F1500.0 E15 ; Draw the first line
G1 X0.4 Y200.0 Z0.3 F5000.0 ; Move to side a little
G1 X0.4 Y20 Z0.3 F1500.0 E30 ; Draw the second line
G92 E0 ; Reset Extruder
G1 Z2.0 F3000 ; Move Z Axis up little to prevent scratching of Heat Bed
G1 X5 Y20 Z0.3 F5000.0 ; Move over to prevent blob squish
G92 E0
G92 E0
G1 F2700 E-5
;LAYER_COUNT:40
;LAYER:0
M107
G0 F6000 X77.985 Y86.238 Z0.2
;TYPE:SKIRT
G1 F2700 E0
G1 F900 X78.3 Y85.953 E0.01413
G1 X78.66 Y85.645 E0.02989
G1 X79.286 Y85.163 E0.05616
G1 X79.65 Y84.925 E0.07063
G1 X80.049 Y84.68 E0.0862
G1 X80.742 Y84.301 E0.11247
G1 X81.153 Y84.117 E0.12745
G1 X81.589 Y83.937 E0.14314
G1 X82.334 Y83.673 E0.16943
G1 X82.741 Y83.564 E0.18344
G1 X83.198 Y83.454 E0.19908
G1 X83.974 Y83.308 E0.22534
G1 X84.412 Y83.261 E0.23999
G1 X84.883 Y83.224 E0.2557
G1 X85.494 Y83.2 E0.27604
G1 X96.492 Y83.2 E0.64184
G1 X97.103 Y83.224 E0.66217
G1 X97.574 Y83.261 E0.67789
G1 X98.357 Y83.363 E0.70415
G1 X98.788 Y83.454 E0.7188
G1 X99.245 Y83.564 E0.73444
G1 X100.003 Y83.787 E0.76072
G1 X100.394 Y83.936 E0.77463
G1 X100.828 Y84.115 E0.79025
G1 X101.542 Y84.453 E0.81652
G1 X101.925 Y84.673 E0.83121
G1 X102.327 Y84.919 E0.84689
G1 X102.979 Y85.365 E0.87316
G1 X103.332 Y85.65 E0.88825
G1 X103.689 Y85.956 E0.90389
G1 X104.262 Y86.499 E0.93015
G1 X104.54 Y86.807 E0.94395
G1 X104.848 Y87.167 E0.9597
G1 X105.33 Y87.793 E0.98598
G1 X105.568 Y88.157 E1.00045
G1 X105.813 Y88.556 E1.01602
G1 X106.255 Y89.364 E1.04665
G1 X106.735 Y89.477 E1.06305
G1 X107.493 Y89.696 E1.08929
G1 X108.498 Y90.123 E1.12561
G1 X108.923 Y90.34 E1.14148
G1 X109.607 Y90.734 E1.16774
G1 X110.248 Y91.196 E1.19402
G1 X110.891 Y91.772 E1.22273
G1 X111.221 Y92.102 E1.23825
G1 X111.76 Y92.7 E1.26503
G1 X165.102 Y92.7 E3.03919
G1 X165.891 Y92.74 E3.06547
G1 X167.025 Y92.935 E3.10374
G1 X167.895 Y93.192 E3.13391
G1 X168.847 Y93.601 E3.16837
G1 X169.129 Y93.745 E3.1789
G1 X169.813 Y94.14 E3.20518
G1 X170.454 Y94.601 E3.23144
G1 X171.097 Y95.177 E3.26015
G1 X171.316 Y95.396 E3.27045
G1 X171.846 Y95.982 E3.29673
G1 X172.313 Y96.618 E3.32297
G1 X172.748 Y97.364 E3.35169
G1 X172.892 Y97.646 E3.36223
G1 X173.215 Y98.366 E3.38847
G1 X173.554 Y99.448 E3.42619
G1 X173.722 Y100.339 E3.45634
G1 X173.793 Y101.392 E3.49144
G1 X173.793 Y139.608 E4.76251
G1 X173.753 Y140.397 E4.78879
G1 X173.561 Y141.524 E4.82681
G1 X173.304 Y142.393 E4.85695
G1 X172.892 Y143.354 E4.89173
G1 X172.748 Y143.636 E4.90226
G1 X172.353 Y144.32 E4.92853
G1 X171.892 Y144.961 E4.95479
G1 X171.316 Y145.604 E4.98351
G1 X171.097 Y145.823 E4.99381
G1 X170.511 Y146.353 E5.02009
G1 X169.875 Y146.82 E5.04633
G1 X169.129 Y147.255 E5.07505
G1 X168.847 Y147.399 E5.08558
G1 X168.127 Y147.722 E5.11183
G1 X167.053 Y148.059 E5.14927
G1 X166.164 Y148.227 E5.17936
G1 X165.102 Y148.3 E5.21477
G1 X111.757 Y148.3 E6.98903
G1 X111.221 Y148.898 E7.01574
G1 X110.891 Y149.228 E7.03126
G1 X110.305 Y149.758 E7.05754
G1 X109.669 Y150.225 E7.08378
G1 X108.924 Y150.66 E7.11248
G1 X108.503 Y150.875 E7.1282
G1 X107.782 Y151.198 E7.15448
G1 X106.77 Y151.514 E7.18974
G1 X106.469 Y151.586 E7.20003
G1 X105.692 Y151.731 E7.22632
G1 X104.654 Y151.8 E7.26092
G1 X79.652 Y151.8 E8.09249
G1 X78.863 Y151.76 E8.11877
G1 X78.083 Y151.641 E8.14501
G1 X77.318 Y151.443 E8.17129
G1 X76.578 Y151.169 E8.19754
G1 X75.869 Y150.821 E8.22381
G1 X75.198 Y150.403 E8.2501
G1 X74.574 Y149.92 E8.27635
G1 X74.001 Y149.377 E8.3026
G1 X73.486 Y148.778 E8.32888
G1 X73.035 Y148.13 E8.35514
G1 X72.651 Y147.439 E8.38143
G1 X72.339 Y146.714 E8.40768
G1 X72.102 Y145.961 E8.43394
G1 X71.943 Y145.187 E8.46022
G1 X71.862 Y144.402 E8.48647
G1 X71.852 Y144.001 E8.49981
G1 X71.852 Y140.085 E8.63005
G1 X71.368 Y140.06 E8.64617
G1 X70.588 Y139.941 E8.67242
G1 X69.823 Y139.743 E8.6987
G1 X69.083 Y139.469 E8.72494
G1 X68.374 Y139.121 E8.75121
G1 X67.703 Y138.703 E8.77751
G1 X67.079 Y138.22 E8.80375
G1 X66.506 Y137.677 E8.83001
G1 X65.991 Y137.078 E8.85628
G1 X65.54 Y136.43 E8.88254
G1 X65.156 Y135.739 E8.90883
G1 X64.844 Y135.014 E8.93509
G1 X64.607 Y134.261 E8.96134
G1 X64.448 Y133.487 E8.98762
G1 X64.367 Y132.702 E9.01387
G1 X64.357 Y132.301 E9.02721
G1 X64.356 Y124.601 E9.28332
G1 X64.396 Y123.812 E9.30959
G1 X64.515 Y123.032 E9.33583
G1 X64.713 Y122.267 E9.36212
G1 X64.987 Y121.527 E9.38836
G1 X65.335 Y120.817 E9.41466
G1 X65.528 Y120.508 E9.42678
G1 X65.156 Y119.839 E9.45224
G1 X64.844 Y119.114 E9.47849
G1 X64.607 Y118.361 E9.50475
G1 X64.448 Y117.587 E9.53103
G1 X64.367 Y116.802 E9.55727
G1 X64.357 Y116.401 E9.57062
G1 X64.356 Y108.701 E9.82672
G1 X64.396 Y107.912 E9.853
G1 X64.515 Y107.132 E9.87924
G1 X64.713 Y106.367 E9.90552
G1 X64.987 Y105.627 E9.93177
G1 X65.335 Y104.917 E9.95806
G1 X65.752 Y104.247 E9.98431
G1 X66.235 Y103.622 E10.01058
G1 X66.779 Y103.05 E10.03684
G1 X67.378 Y102.535 E10.06311
G1 X68.025 Y102.083 E10.08936
G1 X68.716 Y101.7 E10.11564
G1 X69.441 Y101.388 E10.14189
G1 X70.194 Y101.151 E10.16815
G1 X70.968 Y100.991 E10.19444
G1 X71.742 Y100.911 E10.22032
G1 X71.742 Y97 E10.3504
G1 X71.782 Y96.211 E10.37667
G1 X71.901 Y95.43 E10.40295
G1 X72.099 Y94.666 E10.4292
G1 X72.373 Y93.925 E10.45548
G1 X72.721 Y93.216 E10.48174
G1 X73.138 Y92.546 E10.50799
G1 X73.621 Y91.921 E10.53426
G1 X74.165 Y91.349 E10.56052
G1 X74.764 Y90.834 E10.58679
G1 X75.288 Y90.469 E10.60803
G1 X75.429 Y90.098 E10.62123
G1 X75.609 Y89.662 E10.63692
G1 X75.947 Y88.949 E10.66317
G1 X76.17 Y88.56 E10.67808
G1 X76.416 Y88.159 E10.69373
G1 X76.863 Y87.508 E10.71999
G1 X77.136 Y87.17 E10.73444
G1 X77.442 Y86.812 E10.75011
G1 X77.985 Y86.238 E10.77639
G0 F6000 X78.56 Y86.257
G1 F900 X78.92 Y85.949 E10.79214
G1 X79.53 Y85.48 E10.81774
G1 X79.859 Y85.266 E10.83079
G1 X80.258 Y85.021 E10.84636
G1 X80.933 Y84.653 E10.87193
G1 X81.306 Y84.487 E10.88551
G1 X81.742 Y84.307 E10.9012
G1 X82.834 Y83.952 E10.93939
G1 X83.291 Y83.842 E10.95503
G1 X84.047 Y83.702 E10.9806
G1 X84.443 Y83.66 E10.99384
G1 X84.914 Y83.623 E11.00956
G1 X85.494 Y83.6 E11.02886
G1 X96.492 Y83.6 E11.39466
G1 X97.072 Y83.623 E11.41396
G1 X97.543 Y83.66 E11.42968
G1 X98.305 Y83.76 E11.45524
G1 X98.695 Y83.842 E11.4685
G1 X99.152 Y83.952 E11.48413
G1 X100.242 Y84.306 E11.52225
G1 X100.676 Y84.485 E11.53786
G1 X101.37 Y84.815 E11.56342
G1 X101.717 Y85.014 E11.57672
G1 X102.119 Y85.26 E11.5924
G1 X102.753 Y85.695 E11.61797
G1 X103.072 Y85.954 E11.63164
G1 X103.429 Y86.26 E11.64728
G1 X104.236 Y87.067 E11.68524
G1 X104.544 Y87.427 E11.701
G1 X105.013 Y88.037 E11.72659
G1 X105.227 Y88.366 E11.73964
G1 X105.472 Y88.765 E11.75521
G1 X105.84 Y89.44 E11.78078
G1 X105.97 Y89.733 E11.79145
G1 X106.345 Y89.796 E11.80409
G1 X106.643 Y89.866 E11.81427
G1 X107.382 Y90.081 E11.83987
G1 X108.316 Y90.479 E11.87364
G1 X108.741 Y90.696 E11.88951
G1 X109.407 Y91.081 E11.9151
G1 X110.029 Y91.533 E11.94067
G1 X110.609 Y92.054 E11.9666
G1 X110.939 Y92.384 E11.98213
G1 X111.582 Y93.1 E12.01413
G1 X165.102 Y93.1 E13.79422
G1 X165.87 Y93.14 E13.81979
G1 X166.933 Y93.323 E13.85567
G1 X167.781 Y93.576 E13.8851
G1 X168.665 Y93.958 E13.91713
G1 X168.947 Y94.102 E13.92766
G1 X169.613 Y94.486 E13.95323
G1 X170.236 Y94.938 E13.97883
G1 X170.815 Y95.459 E14.00474
G1 X171.034 Y95.678 E14.01504
G1 X171.548 Y96.25 E14.04062
G1 X172.001 Y96.872 E14.06621
G1 X172.391 Y97.546 E14.09211
G1 X172.535 Y97.828 E14.10264
G1 X172.849 Y98.53 E14.12822
G1 X173.166 Y99.544 E14.16356
G1 X173.328 Y100.413 E14.19296
G1 X173.393 Y101.392 E14.22559
G1 X173.393 Y139.608 E15.49666
G1 X173.353 Y140.376 E15.52224
G1 X173.172 Y141.432 E15.55787
G1 X172.92 Y142.279 E15.58726
G1 X172.535 Y143.172 E15.61961
G1 X172.391 Y143.454 E15.63014
G1 X172.007 Y144.12 E15.65571
G1 X171.555 Y144.743 E15.68131
G1 X171.034 Y145.322 E15.70722
G1 X170.815 Y145.541 E15.71752
G1 X170.243 Y146.055 E15.74309
G1 X169.621 Y146.508 E15.76869
G1 X168.947 Y146.898 E15.79459
G1 X168.665 Y147.042 E15.80512
G1 X167.963 Y147.356 E15.8307
G1 X166.957 Y147.671 E15.86576
G1 X166.09 Y147.834 E15.8951
G1 X165.102 Y147.9 E15.92803
G1 X111.582 Y147.9 E17.70812
G1 X110.939 Y148.616 E17.74012
G1 X110.609 Y148.946 E17.75565
G1 X110.037 Y149.46 E17.78122
G1 X109.415 Y149.913 E17.80682
G1 X108.742 Y150.303 E17.83269
G1 X108.321 Y150.518 E17.84841
G1 X107.618 Y150.832 E17.87402
G1 X106.677 Y151.125 E17.9068
G1 X106.376 Y151.197 E17.91709
G1 X105.619 Y151.337 E17.9427
G1 X104.654 Y151.4 E17.97486
G1 X79.652 Y151.4 E18.80643
G1 X78.884 Y151.36 E18.83201
G1 X78.124 Y151.241 E18.8576
G1 X77.381 Y151.043 E18.88317
G1 X76.662 Y150.769 E18.90876
G1 X75.976 Y150.422 E18.93433
G1 X75.329 Y150.006 E18.95991
G1 X74.729 Y149.525 E18.98549
G1 X74.182 Y148.984 E19.01108
G1 X73.694 Y148.389 E19.03667
G1 X73.271 Y147.747 E19.06225
G1 X72.916 Y147.064 E19.08785
G1 X72.635 Y146.349 E19.1134
G1 X72.429 Y145.607 E19.13901
G1 X72.301 Y144.849 E19.16458
G1 X72.252 Y144.001 E19.19283
G1 X72.252 Y139.7 E19.33588
G1 X71.389 Y139.66 E19.36462
G1 X70.629 Y139.541 E19.3902
G1 X69.886 Y139.343 E19.41578
G1 X69.167 Y139.069 E19.44137
G1 X68.481 Y138.722 E19.46694
G1 X67.834 Y138.306 E19.49252
G1 X67.234 Y137.825 E19.5181
G1 X66.687 Y137.284 E19.54369
G1 X66.199 Y136.689 E19.56928
G1 X65.776 Y136.047 E19.59485
G1 X65.421 Y135.364 E19.62046
G1 X65.14 Y134.649 E19.64601
G1 X64.934 Y133.907 E19.67162
G1 X64.806 Y133.149 E19.69719
G1 X64.757 Y132.301 E19.72544
G1 X64.756 Y124.601 E19.98154
G1 X64.796 Y123.833 E20.00712
G1 X64.915 Y123.073 E20.03271
G1 X65.113 Y122.33 E20.05828
G1 X65.387 Y121.611 E20.08387
G1 X65.733 Y120.924 E20.10946
G1 X66.008 Y120.499 E20.12629
G1 X65.776 Y120.147 E20.14032
G1 X65.421 Y119.464 E20.16592
G1 X65.14 Y118.749 E20.19147
G1 X64.934 Y118.007 E20.21708
G1 X64.806 Y117.249 E20.24265
G1 X64.757 Y116.401 E20.2709
G1 X64.756 Y108.701 E20.527
G1 X64.796 Y107.933 E20.55258
G1 X64.915 Y107.173 E20.57817
G1 X65.113 Y106.43 E20.60374
G1 X65.387 Y105.711 E20.62933
G1 X65.733 Y105.024 E20.65492
G1 X66.15 Y104.378 E20.68049
G1 X66.631 Y103.777 E20.7061
G1 X67.172 Y103.231 E20.73166
G1 X67.766 Y102.743 E20.75723
G1 X68.408 Y102.319 E20.78282
G1 X69.091 Y101.965 E20.80841
G1 X69.807 Y101.683 E20.834
G1 X70.548 Y101.477 E20.85958
G1 X71.306 Y101.349 E20.88515
G1 X72.142 Y101.301 E20.913
G1 X72.142 Y97 E21.05605
G1 X72.182 Y96.232 E21.08163
G1 X72.301 Y95.472 E21.10722
G1 X72.499 Y94.728 E21.13282
G1 X72.773 Y94.01 E21.15838
G1 X73.12 Y93.323 E21.18398
G1 X73.536 Y92.676 E21.20957
G1 X74.017 Y92.076 E21.23514
G1 X74.558 Y91.529 E21.26073
G1 X75.152 Y91.041 E21.2863
G1 X75.612 Y90.738 E21.30462
G1 X75.799 Y90.251 E21.32197
G1 X75.979 Y89.815 E21.33766
G1 X76.309 Y89.12 E21.36325
G1 X76.511 Y88.769 E21.37672
G1 X76.757 Y88.368 E21.39237
G1 X77.193 Y87.735 E21.41793
G1 X77.44 Y87.43 E21.43098
G1 X77.746 Y87.072 E21.44665
G1 X78.56 Y86.257 E21.48496
G0 F6000 X78.82 Y86.561
G1 F900 X79.18 Y86.253 E21.50072
G1 X80.068 Y85.607 E21.53724
G1 X80.467 Y85.362 E21.55281
G1 X81.459 Y84.857 E21.58984
G1 X81.895 Y84.677 E21.60553
G1 X82.928 Y84.341 E21.64166
G1 X83.385 Y84.231 E21.65729
G1 X84.475 Y84.058 E21.694
G1 X84.946 Y84.021 E21.70971
G1 X85.494 Y84 E21.72795
G1 X96.492 Y84 E22.09375
G1 X97.04 Y84.021 E22.11199
G1 X97.511 Y84.058 E22.1277
G1 X98.601 Y84.231 E22.16441
G1 X99.058 Y84.341 E22.18004
G1 X100.089 Y84.676 E22.2161
G1 X100.523 Y84.855 E22.23171
G1 X101.508 Y85.355 E22.26845
G1 X101.91 Y85.601 E22.28413
G1 X102.812 Y86.257 E22.32122
G1 X103.169 Y86.563 E22.33686
G1 X103.932 Y87.327 E22.37277
G1 X104.24 Y87.687 E22.38853
G1 X104.886 Y88.575 E22.42506
G1 X105.131 Y88.974 E22.44063
G1 X105.7 Y90.091 E22.48232
G1 X106.254 Y90.185 E22.50101
G1 X106.552 Y90.255 E22.51119
G1 X107.27 Y90.465 E22.53607
G1 X108.134 Y90.836 E22.56735
G1 X108.559 Y91.053 E22.58322
G1 X109.206 Y91.428 E22.60809
G1 X109.81 Y91.87 E22.63299
G1 X110.326 Y92.337 E22.65613
G1 X110.656 Y92.667 E22.67166
G1 X111.156 Y93.224 E22.69655
G1 X111.355 Y93.5 E22.70787
G1 X165.102 Y93.5 E24.4955
G1 X165.849 Y93.54 E24.52038
G1 X166.841 Y93.713 E24.55387
G1 X167.666 Y93.96 E24.58252
G1 X168.483 Y94.314 E24.61213
G1 X168.765 Y94.458 E24.62266
G1 X169.413 Y94.833 E24.64756
G1 X170.016 Y95.275 E24.67243
G1 X170.532 Y95.742 E24.69558
G1 X170.751 Y95.961 E24.70588
G1 X171.251 Y96.518 E24.73077
G1 X171.688 Y97.124 E24.75562
G1 X172.035 Y97.728 E24.77879
G1 X172.179 Y98.01 E24.78932
G1 X172.483 Y98.693 E24.81419
G1 X172.778 Y99.641 E24.84721
G1 X172.934 Y100.486 E24.87579
G1 X172.993 Y101.392 E24.90599
G1 X172.993 Y139.608 E26.17706
G1 X172.953 Y140.355 E26.20194
G1 X172.782 Y141.34 E26.23519
G1 X172.536 Y142.165 E26.26382
G1 X172.179 Y142.99 E26.29372
G1 X172.035 Y143.272 E26.30425
G1 X171.66 Y143.92 E26.32915
G1 X171.218 Y144.523 E26.35402
G1 X170.751 Y145.039 E26.37717
G1 X170.532 Y145.258 E26.38747
G1 X169.975 Y145.758 E26.41237
G1 X169.369 Y146.195 E26.43721
G1 X168.765 Y146.542 E26.46038
G1 X168.483 Y146.686 E26.47091
G1 X167.8 Y146.99 E26.49578
G1 X166.86 Y147.283 E26.52853
G1 X166.016 Y147.44 E26.55708
G1 X165.102 Y147.5 E26.58755
G1 X111.355 Y147.5 E28.37518
G1 X111.123 Y147.817 E28.38824
G1 X110.656 Y148.333 E28.41139
G1 X110.326 Y148.663 E28.42691
G1 X109.769 Y149.163 E28.45181
G1 X109.163 Y149.6 E28.47666
G1 X108.56 Y149.947 E28.4998
G1 X108.139 Y150.162 E28.51552
G1 X107.455 Y150.466 E28.54042
G1 X106.583 Y150.736 E28.57078
G1 X106.282 Y150.808 E28.58107
G1 X105.547 Y150.943 E28.60593
G1 X104.654 Y151 E28.63569
G1 X79.652 Y151 E29.46726
G1 X78.905 Y150.96 E29.49214
G1 X78.167 Y150.841 E29.517
G1 X77.445 Y150.643 E29.5419
G1 X76.749 Y150.37 E29.56677
G1 X76.086 Y150.023 E29.59166
G1 X75.463 Y149.608 E29.61656
G1 X74.889 Y149.129 E29.64142
G1 X74.368 Y148.592 E29.66631
G1 X73.909 Y148.002 E29.69117
G1 X73.514 Y147.366 E29.71607
G1 X73.19 Y146.692 E29.74094
G1 X72.94 Y145.987 E29.76582
G1 X72.766 Y145.259 E29.79072
G1 X72.671 Y144.517 E29.8156
G1 X72.652 Y144.001 E29.83277
G1 X72.652 Y139.3 E29.98913
G1 X72.157 Y139.3 E30.00559
G1 X71.41 Y139.26 E30.03047
G1 X70.672 Y139.141 E30.05534
G1 X69.95 Y138.943 E30.08024
G1 X69.254 Y138.67 E30.1051
G1 X68.591 Y138.323 E30.12999
G1 X67.968 Y137.908 E30.15489
G1 X67.394 Y137.429 E30.17975
G1 X66.873 Y136.892 E30.20464
G1 X66.414 Y136.302 E30.2295
G1 X66.019 Y135.666 E30.2544
G1 X65.695 Y134.992 E30.27928
G1 X65.445 Y134.287 E30.30416
G1 X65.271 Y133.559 E30.32905
G1 X65.176 Y132.817 E30.35393
G1 X65.157 Y132.301 E30.37111
G1 X65.156 Y124.601 E30.62721
G1 X65.196 Y123.854 E30.65209
G1 X65.315 Y123.115 E30.67698
G1 X65.513 Y122.394 E30.70185
G1 X65.786 Y121.698 E30.72672
G1 X66.132 Y121.034 E30.75162
G1 X66.481 Y120.51 E30.77256
G1 X66.019 Y119.766 E30.80169
G1 X65.695 Y119.092 E30.82656
G1 X65.445 Y118.387 E30.85144
G1 X65.271 Y117.659 E30.87634
G1 X65.176 Y116.917 E30.90122
G1 X65.157 Y116.401 E30.91839
G1 X65.156 Y108.701 E31.1745
G1 X65.196 Y107.954 E31.19938
G1 X65.315 Y107.215 E31.22427
G1 X65.513 Y106.494 E31.24914
G1 X65.786 Y105.798 E31.27401
G1 X66.132 Y105.134 E31.29891
G1 X66.547 Y104.512 E31.32378
G1 X67.026 Y103.937 E31.34867
G1 X67.564 Y103.417 E31.37356
G1 X68.154 Y102.957 E31.39844
G1 X68.789 Y102.563 E31.4233
G1 X69.463 Y102.239 E31.44817
G1 X70.168 Y101.988 E31.47306
G1 X70.896 Y101.814 E31.49795
