;FLAVOR:Marlin
;TIME:348
;Filament used: 0.0694597m
;Layer height: 0.12
;MINX:101.511
;MINY:101.512
;MINZ:0.12
;MAXX:133.489
;MAXY:133.488
;MAXZ:9
;Generated with Cura_SteamEngine 5.2.1
M140 S70
M105
M190 S70
M104 S240
M105
M109 S240
M82 ;absolute extrusion mode
; Ender 3 Custom Start G-code
G92 E0 ; Reset Extruder
G28 ; Home all axes
G1 Z2.0 F3000 ; Move Z Axis up little to prevent scratching of Heat Bed
G1 X0.1 Y20 Z0.3 F5000.0 ; Move to start position
G1 X0.1 Y200.0 Z0.3 F1500.0 E15 ; Draw the first line
G1 X0.4 Y200.0 Z0.3 F5000.0 ; Move to side a little
G1 X0.4 Y20 Z0.3 F1500.0 E30 ; Draw the second line
G92 E0 ; Reset Extruder
G1 Z2.0 F3000 ; Move Z Axis up little to prevent scratching of Heat Bed
G1 X5 Y20 Z0.3 F5000.0 ; Move over to prevent blob squish
G92 E0
G92 E0
G1 F2700 E-5
;LAYER_COUNT:75
;LAYER:0
M107
G0 F6000 X106.289 Y106.104 Z0.12
;TYPE:SKIRT
G1 F2700 E0
G1 F900 X106.836 Y105.591 E0.01497
G1 X107.175 Y105.294 E0.02396
G1 X107.924 Y104.694 E0.04311
G1 X108.137 Y104.538 E0.04838
G1 X108.669 Y104.172 E0.06127
G1 X108.957 Y103.986 E0.06811
G1 X109.579 Y103.61 E0.08261
G1 X110.153 Y103.299 E0.09564
G1 X110.579 Y103.084 E0.10516
G1 X111.752 Y102.575 E0.13068
G1 X112.025 Y102.475 E0.13648
G1 X112.705 Y102.251 E0.15077
G1 X113.29 Y102.079 E0.16294
G1 X114.209 Y101.851 E0.18183
G1 X114.993 Y101.707 E0.19774
G1 X115.796 Y101.601 E0.21391
G1 X116.093 Y101.572 E0.21986
G1 X116.767 Y101.527 E0.23334
G1 X117.045 Y101.517 E0.23889
G1 X117.673 Y101.512 E0.25142
G1 X118.004 Y101.519 E0.25803
G1 X118.742 Y101.56 E0.27278
G1 X119.058 Y101.588 E0.27911
G1 X119.746 Y101.669 E0.29294
G1 X120.356 Y101.768 E0.30527
G1 X120.633 Y101.821 E0.3109
G1 X121.393 Y101.994 E0.32645
G1 X121.833 Y102.111 E0.33554
G1 X122.714 Y102.386 E0.35396
G1 X123.186 Y102.555 E0.36396
G1 X124.055 Y102.908 E0.38268
G1 X124.698 Y103.229 E0.39702
G1 X125.273 Y103.539 E0.41006
G1 X126.08 Y104.019 E0.4288
G1 X126.535 Y104.317 E0.43965
G1 X127.413 Y104.95 E0.46125
G1 X128.15 Y105.582 E0.48062
G1 X128.576 Y105.977 E0.49222
G1 X129.192 Y106.595 E0.50963
G1 X129.376 Y106.795 E0.51505
G1 X129.99 Y107.523 E0.53406
G1 X130.392 Y108.044 E0.54719
G1 X130.933 Y108.811 E0.56592
G1 X131.416 Y109.639 E0.58505
G1 X131.843 Y110.45 E0.60334
G1 X132.244 Y111.298 E0.62206
G1 X132.438 Y111.788 E0.63258
G1 X132.548 Y112.088 E0.63896
G1 X132.869 Y113.119 E0.6605
G1 X133.06 Y113.857 E0.67572
G1 X133.256 Y114.774 E0.69443
G1 X133.33 Y115.282 E0.70468
G1 X133.408 Y115.922 E0.71754
G1 X133.489 Y117.21 E0.7433
G1 X133.484 Y117.871 E0.75649
G1 X133.473 Y118.204 E0.76314
G1 X133.403 Y119.129 E0.78165
G1 X133.351 Y119.57 E0.79051
G1 X133.105 Y120.926 E0.81801
G1 X132.897 Y121.766 E0.83528
G1 X132.6 Y122.759 E0.85597
G1 X132.497 Y123.053 E0.86218
G1 X132.15 Y123.924 E0.88089
G1 X131.887 Y124.469 E0.89297
G1 X131.616 Y124.993 E0.90474
G1 X131.31 Y125.556 E0.91753
G1 X130.821 Y126.356 E0.93624
G1 X130.543 Y126.753 E0.94591
G1 X130.295 Y127.09 E0.95426
G1 X129.727 Y127.798 E0.97238
G1 X129.428 Y128.141 E0.98146
G1 X128.932 Y128.674 E0.99599
G1 X128.711 Y128.896 E1.00224
G1 X128.164 Y129.409 E1.0172
G1 X127.825 Y129.706 E1.0262
G1 X127.079 Y130.304 E1.04528
G1 X126.873 Y130.455 E1.05037
G1 X126.347 Y130.817 E1.06312
G1 X126.055 Y131.006 E1.07006
G1 X125.432 Y131.383 E1.08459
G1 X124.861 Y131.694 E1.09756
G1 X124.43 Y131.912 E1.1072
G1 X123.248 Y132.425 E1.13292
G1 X122.975 Y132.525 E1.13872
G1 X122.295 Y132.749 E1.15301
G1 X121.71 Y132.921 E1.16518
G1 X120.791 Y133.149 E1.18407
G1 X120.007 Y133.293 E1.19998
G1 X119.204 Y133.399 E1.21614
G1 X118.907 Y133.428 E1.2221
G1 X118.233 Y133.473 E1.23558
G1 X117.955 Y133.483 E1.24113
G1 X117.327 Y133.488 E1.25366
G1 X116.996 Y133.481 E1.26027
G1 X116.261 Y133.44 E1.27496
G1 X115.944 Y133.412 E1.28131
G1 X115.24 Y133.329 E1.29546
G1 X114.412 Y133.188 E1.31222
G1 X113.837 Y133.065 E1.32395
G1 X113.021 Y132.853 E1.34078
G1 X112.286 Y132.614 E1.3562
G1 X111.814 Y132.445 E1.36621
G1 X110.945 Y132.092 E1.38492
G1 X110.302 Y131.771 E1.39927
G1 X109.727 Y131.461 E1.4123
G1 X108.92 Y130.981 E1.43104
G1 X108.462 Y130.681 E1.44197
G1 X107.574 Y130.04 E1.46382
G1 X106.85 Y129.418 E1.48287
G1 X106.424 Y129.023 E1.49446
G1 X105.814 Y128.411 E1.51171
G1 X105.626 Y128.207 E1.51724
G1 X104.99 Y127.452 E1.53694
G1 X104.59 Y126.931 E1.55005
G1 X104.051 Y126.163 E1.56877
G1 X103.582 Y125.357 E1.58738
G1 X103.156 Y124.548 E1.60563
G1 X102.553 Y123.206 E1.63499
G1 X102.23 Y122.227 E1.65556
G1 X102.113 Y121.818 E1.66405
G1 X101.888 Y120.928 E1.68237
G1 X101.705 Y120.009 E1.70107
G1 X101.64 Y119.52 E1.71092
G1 X101.574 Y118.916 E1.72304
G1 X101.511 Y117.533 E1.75067
G1 X101.519 Y117.064 E1.76003
G1 X101.55 Y116.404 E1.77322
G1 X101.583 Y115.977 E1.78176
G1 X101.695 Y115.046 E1.80048
G1 X101.807 Y114.461 E1.81236
G1 X101.966 Y113.771 E1.82649
G1 X102.134 Y113.119 E1.83993
G1 X102.406 Y112.222 E1.85863
G1 X102.506 Y111.937 E1.86466
G1 X102.854 Y111.066 E1.88338
G1 X103.165 Y110.431 E1.89749
G1 X103.586 Y109.636 E1.91544
G1 X104.06 Y108.827 E1.93415
G1 X104.417 Y108.305 E1.94677
G1 X104.675 Y107.951 E1.95552
G1 X105.273 Y107.202 E1.97464
G1 X105.572 Y106.859 E1.98372
G1 X106.068 Y106.326 E1.99825
G1 X106.289 Y106.104 E2.0045
G0 F6000 X106.573 Y106.387
G1 F900 X107.1 Y105.892 E2.01893
G1 X107.439 Y105.595 E2.02793
G1 X108.161 Y105.016 E2.0464
G1 X108.374 Y104.86 E2.05166
G1 X108.886 Y104.508 E2.06406
G1 X109.174 Y104.322 E2.07091
G1 X109.78 Y103.956 E2.08503
G1 X110.333 Y103.656 E2.09759
G1 X110.759 Y103.441 E2.10711
G1 X111.889 Y102.951 E2.13169
G1 X112.162 Y102.851 E2.13749
G1 X112.818 Y102.634 E2.15128
G1 X113.403 Y102.462 E2.16345
G1 X114.288 Y102.243 E2.18164
G1 X115.053 Y102.102 E2.19717
G1 X115.835 Y101.999 E2.21291
G1 X116.132 Y101.97 E2.21886
G1 X116.781 Y101.927 E2.23184
G1 X117.059 Y101.917 E2.23739
G1 X117.664 Y101.912 E2.24947
G1 X117.995 Y101.919 E2.25607
G1 X118.707 Y101.958 E2.2703
G1 X119.023 Y101.986 E2.27664
G1 X119.693 Y102.065 E2.2901
G1 X120.281 Y102.161 E2.30199
G1 X120.558 Y102.214 E2.30762
G1 X121.29 Y102.381 E2.3226
G1 X121.73 Y102.498 E2.33169
G1 X122.579 Y102.762 E2.34943
G1 X123.051 Y102.931 E2.35943
G1 X123.904 Y103.279 E2.37782
G1 X124.508 Y103.581 E2.39129
G1 X125.083 Y103.891 E2.40433
G1 X125.861 Y104.354 E2.4224
G1 X126.316 Y104.652 E2.43325
G1 X127.164 Y105.264 E2.45412
G1 X127.878 Y105.875 E2.47287
G1 X128.304 Y106.27 E2.48447
G1 X128.898 Y106.866 E2.50126
G1 X129.082 Y107.066 E2.50668
G1 X129.673 Y107.768 E2.525
G1 X130.075 Y108.289 E2.53813
G1 X130.605 Y109.041 E2.55649
G1 X131.062 Y109.826 E2.57462
G1 X131.489 Y110.637 E2.59291
G1 X131.883 Y111.469 E2.61128
G1 X132.172 Y112.226 E2.62745
G1 X132.482 Y113.219 E2.64821
G1 X132.673 Y113.957 E2.66342
G1 X132.865 Y114.858 E2.6818
G1 X132.933 Y115.331 E2.69134
G1 X133.011 Y115.971 E2.70421
G1 X133.089 Y117.211 E2.729
G1 X133.084 Y117.858 E2.74191
G1 X133.073 Y118.191 E2.74856
G1 X133.006 Y119.082 E2.76639
G1 X132.954 Y119.523 E2.77525
G1 X132.716 Y120.83 E2.80177
G1 X132.508 Y121.67 E2.81904
G1 X132.223 Y122.627 E2.83896
G1 X132.12 Y122.921 E2.84518
G1 X131.778 Y123.776 E2.86356
G1 X131.531 Y124.285 E2.87485
G1 X131.122 Y125.069 E2.89249
G1 X130.96 Y125.362 E2.89917
G1 X130.22 Y126.516 E2.92653
G1 X129.972 Y126.853 E2.93488
G1 X129.425 Y127.535 E2.95233
G1 X129.126 Y127.878 E2.96141
G1 X128.648 Y128.391 E2.9754
G1 X128.427 Y128.613 E2.98165
G1 X127.9 Y129.108 E2.99608
G1 X127.561 Y129.405 E3.00508
G1 X126.843 Y129.981 E3.02345
G1 X126.637 Y130.132 E3.02854
G1 X126.13 Y130.482 E3.04084
G1 X125.838 Y130.671 E3.04778
G1 X125.231 Y131.038 E3.06193
G1 X124.68 Y131.337 E3.07444
G1 X124.249 Y131.555 E3.08408
G1 X123.111 Y132.049 E3.10884
G1 X122.838 Y132.149 E3.11464
G1 X122.182 Y132.366 E3.12843
G1 X121.597 Y132.538 E3.1406
G1 X120.712 Y132.757 E3.15879
G1 X119.947 Y132.898 E3.17432
G1 X119.165 Y133.001 E3.19006
G1 X118.868 Y133.03 E3.19601
G1 X118.219 Y133.073 E3.20899
G1 X117.941 Y133.083 E3.21454
G1 X117.336 Y133.088 E3.22662
G1 X117.005 Y133.081 E3.23322
G1 X116.296 Y133.042 E3.24739
G1 X115.979 Y133.014 E3.25375
G1 X115.294 Y132.933 E3.26751
G1 X114.485 Y132.795 E3.28389
G1 X113.931 Y132.676 E3.2952
G1 X113.249 Y132.499 E3.30926
G1 X112.421 Y132.238 E3.32658
G1 X111.949 Y132.069 E3.33659
G1 X111.096 Y131.721 E3.35497
G1 X110.492 Y131.419 E3.36845
G1 X109.917 Y131.109 E3.38148
G1 X109.139 Y130.646 E3.39955
G1 X108.681 Y130.346 E3.41048
G1 X107.824 Y129.726 E3.43159
G1 X107.122 Y129.125 E3.45003
G1 X106.696 Y128.73 E3.46162
G1 X106.108 Y128.14 E3.47824
G1 X105.92 Y127.936 E3.48378
G1 X105.307 Y127.208 E3.50277
G1 X104.907 Y126.687 E3.51588
G1 X104.379 Y125.933 E3.53425
G1 X103.936 Y125.171 E3.55184
G1 X103.51 Y124.362 E3.57009
G1 X102.928 Y123.065 E3.59845
G1 X102.615 Y122.117 E3.61838
G1 X102.39 Y121.302 E3.63525
G1 X102.276 Y120.834 E3.64486
G1 X102.038 Y119.476 E3.67238
G1 X101.972 Y118.872 E3.6845
G1 X101.911 Y117.54 E3.71111
G1 X101.919 Y117.071 E3.72047
G1 X101.949 Y116.435 E3.73318
G1 X101.982 Y116.008 E3.74172
G1 X102.092 Y115.094 E3.7601
G1 X102.198 Y114.547 E3.77121
G1 X102.353 Y113.871 E3.78506
G1 X102.521 Y113.219 E3.79849
G1 X102.784 Y112.354 E3.81653
G1 X102.884 Y112.069 E3.82256
G1 X103.226 Y111.215 E3.84092
G1 X103.518 Y110.618 E3.85418
G1 X103.939 Y109.823 E3.87213
G1 X104.405 Y109.029 E3.89051
G1 X104.741 Y108.541 E3.90233
G1 X104.999 Y108.187 E3.91107
G1 X105.575 Y107.465 E3.9295
G1 X105.874 Y107.122 E3.93858
G1 X106.352 Y106.609 E3.95258
G1 X106.573 Y106.387 E3.95883
G0 F6000 X106.856 Y106.669
G1 F900 X107.363 Y106.193 E3.97271
G1 X107.702 Y105.896 E3.9817
G1 X108.397 Y105.339 E3.99947
G1 X108.61 Y105.183 E4.00474
G1 X109.103 Y104.844 E4.01668
G1 X109.391 Y104.658 E4.02353
G1 X109.981 Y104.302 E4.03728
G1 X110.513 Y104.013 E4.04936
G1 X110.939 Y103.798 E4.05888
G1 X112.027 Y103.326 E4.08255
G1 X112.3 Y103.226 E4.08835
G1 X112.931 Y103.018 E4.10161
G1 X113.516 Y102.846 E4.11378
G1 X114.368 Y102.635 E4.13129
G1 X115.112 Y102.498 E4.14639
G1 X115.874 Y102.397 E4.16173
G1 X116.171 Y102.368 E4.16769
G1 X116.795 Y102.327 E4.18017
G1 X117.073 Y102.317 E4.18572
G1 X117.656 Y102.312 E4.19735
G1 X117.987 Y102.319 E4.20396
G1 X118.671 Y102.357 E4.21763
G1 X118.987 Y102.385 E4.22396
G1 X119.64 Y102.462 E4.23708
G1 X120.206 Y102.554 E4.24853
G1 X120.483 Y102.607 E4.25415
G1 X121.187 Y102.768 E4.26857
G1 X121.627 Y102.885 E4.27765
G1 X122.444 Y103.139 E4.29472
G1 X122.916 Y103.308 E4.30473
G1 X123.752 Y103.65 E4.32275
G1 X124.318 Y103.933 E4.33538
G1 X124.893 Y104.243 E4.34842
G1 X125.642 Y104.688 E4.36581
G1 X126.097 Y104.986 E4.37666
G1 X126.918 Y105.579 E4.39687
G1 X127.606 Y106.169 E4.41496
G1 X128.032 Y106.564 E4.42655
G1 X128.603 Y107.137 E4.44269
G1 X128.787 Y107.337 E4.44812
G1 X129.357 Y108.012 E4.46575
G1 X129.759 Y108.533 E4.47888
G1 X130.278 Y109.272 E4.4969
G1 X130.708 Y110.012 E4.51398
G1 X131.135 Y110.823 E4.53227
G1 X131.52 Y111.64 E4.5503
G1 X131.797 Y112.364 E4.56577
G1 X132.095 Y113.319 E4.58573
G1 X132.286 Y114.057 E4.60094
G1 X132.536 Y115.379 E4.62779
G1 X132.614 Y116.019 E4.64066
G1 X132.689 Y117.213 E4.66453
G1 X132.684 Y117.845 E4.67715
G1 X132.673 Y118.178 E4.68379
G1 X132.609 Y119.035 E4.70094
G1 X132.557 Y119.476 E4.70981
G1 X132.328 Y120.734 E4.73532
G1 X132.12 Y121.574 E4.75259
G1 X131.845 Y122.494 E4.77175
G1 X131.742 Y122.788 E4.77797
G1 X131.406 Y123.627 E4.79601
G1 X131.176 Y124.102 E4.80654
G1 X130.905 Y124.626 E4.81831
G1 X130.609 Y125.168 E4.83064
G1 X129.898 Y126.279 E4.85696
G1 X129.65 Y126.616 E4.86531
G1 X129.124 Y127.272 E4.88209
G1 X128.825 Y127.615 E4.89117
G1 X128.365 Y128.109 E4.90464
G1 X128.144 Y128.331 E4.91089
G1 X127.637 Y128.807 E4.92477
G1 X127.298 Y129.104 E4.93376
G1 X126.606 Y129.659 E4.95147
G1 X126.4 Y129.81 E4.95656
G1 X125.912 Y130.146 E4.96839
G1 X125.62 Y130.335 E4.97533
G1 X125.029 Y130.692 E4.98911
G1 X124.5 Y130.98 E5.00113
G1 X124.069 Y131.198 E5.01077
G1 X122.973 Y131.674 E5.03461
G1 X122.7 Y131.774 E5.04041
G1 X122.069 Y131.982 E5.05367
G1 X121.484 Y132.154 E5.06584
G1 X120.632 Y132.365 E5.08336
G1 X119.888 Y132.502 E5.09845
G1 X119.126 Y132.603 E5.11379
G1 X118.829 Y132.632 E5.11975
G1 X118.205 Y132.673 E5.13223
G1 X117.927 Y132.683 E5.13778
G1 X117.344 Y132.688 E5.14941
G1 X117.013 Y132.681 E5.15602
G1 X116.332 Y132.643 E5.16963
G1 X116.015 Y132.615 E5.17598
G1 X115.347 Y132.536 E5.18941
G1 X114.559 Y132.402 E5.20536
G1 X113.812 Y132.236 E5.22063
G1 X113.135 Y132.049 E5.23464
G1 X112.556 Y131.861 E5.24679
G1 X112.084 Y131.692 E5.2568
G1 X111.248 Y131.35 E5.27482
G1 X110.682 Y131.067 E5.28745
G1 X110.107 Y130.757 E5.30049
G1 X109.358 Y130.311 E5.31788
G1 X108.9 Y130.011 E5.32881
G1 X108.072 Y129.413 E5.34919
G1 X107.394 Y128.831 E5.36702
G1 X106.968 Y128.436 E5.37862
G1 X106.402 Y127.869 E5.3946
G1 X106.214 Y127.665 E5.40014
G1 X105.624 Y126.965 E5.41841
G1 X105.224 Y126.444 E5.43152
G1 X104.707 Y125.704 E5.44953
G1 X104.29 Y124.984 E5.46614
G1 X103.864 Y124.175 E5.48438
G1 X103.302 Y122.925 E5.51173
G1 X102.999 Y122.007 E5.53103
G1 X102.882 Y121.598 E5.53951
G1 X102.665 Y120.739 E5.5572
G1 X102.435 Y119.433 E5.58366
G1 X102.369 Y118.829 E5.59578
G1 X102.31 Y117.547 E5.6214
G1 X102.318 Y117.078 E5.63076
G1 X102.347 Y116.466 E5.64298
G1 X102.38 Y116.039 E5.65153
G1 X102.49 Y115.143 E5.66954
G1 X102.588 Y114.633 E5.67991
G1 X102.741 Y113.971 E5.69347
G1 X102.909 Y113.319 E5.7069
G1 X103.161 Y112.487 E5.72425
G1 X103.261 Y112.202 E5.73028
G1 X103.598 Y111.364 E5.7483
G1 X103.872 Y110.806 E5.76071
G1 X104.293 Y110.011 E5.77866
G1 X104.75 Y109.232 E5.79669
G1 X105.064 Y108.776 E5.80773
G1 X105.322 Y108.422 E5.81648
G1 X105.876 Y107.728 E5.8342
G1 X106.175 Y107.385 E5.84328
G1 X106.635 Y106.891 E5.85675
G1 X106.856 Y106.669 E5.863
G1 F2700 E0.863
;MESH:minox-takeup-reel-36-exp-v6.stl
G0 F6000 X112.794 Y114.337
G0 X113.667 Y114.981
G0 X114.181 Y118.307
G0 X114.333 Y118.831
G0 X114.835 Y119.666
G0 X115.587 Y120.354
G0 X116.329 Y120.706
G0 X117.251 Y121.095
;TYPE:WALL-INNER
G1 F2700 E5.863
G1 F900 X117.644 Y121.096 E5.87084
G1 X118.09 Y121.056 E5.87978
G1 X118.53 Y120.95 E5.88881
G1 X118.889 Y120.824 E5.8964
G1 X119.11 Y120.696 E5.9015
G1 X119.384 Y120.543 E5.90776
G1 X119.543 Y120.463 E5.91131
G1 X119.818 Y120.26 E5.91814
G1 X120.161 Y119.931 E5.92762
G1 X120.494 Y119.503 E5.93844
G1 X120.611 Y119.27 E5.94364
G1 X120.862 Y118.809 E5.95412
G1 X121.062 Y118.003 E5.97069
G1 X121.092 Y117.696 E5.97685
G1 X121.099 Y117.282 E5.98511
G1 X121.037 Y116.894 E5.99295
G1 X120.865 Y116.197 E6.00728
G1 X120.588 Y115.685 E6.0189
G1 X120.497 Y115.5 E6.02301
G1 X120.169 Y115.081 E6.03363
G1 X119.827 Y114.749 E6.04314
G1 X119.497 Y114.509 E6.05128
G1 X119.056 Y114.274 E6.06126
G1 X118.894 Y114.177 E6.06502
G1 X118.541 Y114.056 E6.07247
G1 X118.172 Y113.965 E6.08006
G1 X117.749 Y113.905 E6.08858
G1 X117.356 Y113.904 E6.09642
G1 X116.91 Y113.944 E6.10536
G1 X116.47 Y114.05 E6.11439
G1 X116.111 Y114.175 E6.12198
G1 X115.89 Y114.304 E6.12708
G1 X115.758 Y114.363 E6.12997
G1 X115.459 Y114.537 E6.13687
G1 X115.184 Y114.738 E6.14367
G1 X114.839 Y115.07 E6.15323
G1 X114.506 Y115.497 E6.16403
G1 X114.357 Y115.792 E6.17063
G1 X114.137 Y116.195 E6.17979
G1 X113.938 Y116.997 E6.19628
G1 X113.907 Y117.306 E6.20248
G1 X113.901 Y117.667 E6.20968
G1 X113.95 Y117.95 E6.21541
G1 X113.963 Y118.106 E6.21854
G1 X114.135 Y118.804 E6.23288
G1 X114.393 Y119.277 E6.24364
G1 X114.502 Y119.497 E6.24854
G1 X114.829 Y119.917 E6.25916
G1 X115.173 Y120.25 E6.26871
G1 X115.503 Y120.492 E6.27688
G1 X115.891 Y120.696 E6.28563
G1 X116.106 Y120.822 E6.2906
G1 X116.458 Y120.944 E6.29804
G1 X116.828 Y121.035 E6.30564
