;FLAVOR:Marlin
;TIME:302
;Filament used: 0.0701278m
;Layer height: 0.12
;MINX:98.011
;MINY:97.97
;MINZ:0.12
;MAXX:136.989
;MAXY:137.03
;MAXZ:2.88
;Generated with Cura_SteamEngine 5.2.1
M140 S70
M105
M190 S70
M104 S240
M105
M109 S240
M82 ;absolute extrusion mode
; Ender 3 Custom Start G-code
G92 E0 ; Reset Extruder
G28 ; Home all axes
G1 Z2.0 F3000 ; Move Z Axis up little to prevent scratching of Heat Bed
G1 X0.1 Y20 Z0.3 F5000.0 ; Move to start position
G1 X0.1 Y200.0 Z0.3 F1500.0 E15 ; Draw the first line
G1 X0.4 Y200.0 Z0.3 F5000.0 ; Move to side a little
G1 X0.4 Y20 Z0.3 F1500.0 E30 ; Draw the second line
G92 E0 ; Reset Extruder
G1 Z2.0 F3000 ; Move Z Axis up little to prevent scratching of Heat Bed
G1 X5 Y20 Z0.3 F5000.0 ; Move over to prevent blob squish
G92 E0
G92 E0
G1 F2700 E-5
;LAYER_COUNT:24
;LAYER:0
M107
G0 F6000 X103.73 Y103.668 Z0.12
;TYPE:SKIRT
G1 F2700 E0
G1 F900 X104.345 Y103.078 E0.01701
G1 X105.044 Y102.477 E0.0354
G1 X105.72 Y101.944 E0.05258
G1 X106.404 Y101.446 E0.06947
G1 X106.984 Y101.057 E0.0834
G1 X107.809 Y100.555 E0.10268
G1 X108.447 Y100.204 E0.11721
G1 X109.164 Y99.843 E0.13323
G1 X109.794 Y99.565 E0.14697
G1 X110.565 Y99.25 E0.16359
G1 X111.374 Y98.956 E0.18077
G1 X111.721 Y98.845 E0.18804
G1 X112.546 Y98.616 E0.20512
G1 X113.364 Y98.423 E0.2219
G1 X114.194 Y98.261 E0.23877
G1 X114.899 Y98.151 E0.25301
G1 X115.853 Y98.044 E0.27217
G1 X116.593 Y97.994 E0.28697
G1 X117.446 Y97.97 E0.304
G1 X117.942 Y97.975 E0.3139
G1 X118.508 Y97.995 E0.3252
G1 X118.865 Y98.017 E0.33234
G1 X119.708 Y98.102 E0.34925
G1 X120.661 Y98.235 E0.36845
G1 X121.744 Y98.441 E0.39045
G1 X122.479 Y98.62 E0.40555
G1 X123.219 Y98.828 E0.42089
G1 X123.661 Y98.969 E0.43014
G1 X124.227 Y99.167 E0.44211
G1 X124.611 Y99.313 E0.45031
G1 X125.116 Y99.519 E0.46119
G1 X125.536 Y99.703 E0.47034
G1 X126.064 Y99.952 E0.48199
G1 X126.404 Y100.123 E0.48959
G1 X126.881 Y100.378 E0.50038
G1 X127.312 Y100.622 E0.51027
G1 X128.047 Y101.07 E0.52744
G1 X128.781 Y101.574 E0.54521
G1 X129.44 Y102.067 E0.56164
G1 X130.104 Y102.605 E0.57869
G1 X130.706 Y103.133 E0.59467
G1 X131.348 Y103.744 E0.61236
G1 X131.608 Y104.012 E0.61981
G1 X132.177 Y104.645 E0.63679
G1 X132.705 Y105.281 E0.65329
G1 X133.229 Y105.965 E0.67048
G1 X133.694 Y106.624 E0.68658
G1 X134.171 Y107.362 E0.70412
G1 X134.351 Y107.666 E0.71117
G1 X134.616 Y108.139 E0.72199
G1 X134.857 Y108.596 E0.7323
G1 X135.1 Y109.086 E0.74321
G1 X135.248 Y109.404 E0.75021
G1 X135.476 Y109.929 E0.76163
G1 X135.66 Y110.385 E0.77145
G1 X135.94 Y111.151 E0.78772
G1 X136.148 Y111.801 E0.80134
G1 X136.291 Y112.309 E0.81187
G1 X136.443 Y112.905 E0.82415
G1 X136.6 Y113.617 E0.8387
G1 X136.707 Y114.194 E0.85041
G1 X136.826 Y115.004 E0.86675
G1 X136.915 Y115.818 E0.88309
G1 X136.974 Y116.656 E0.89985
G1 X136.985 Y116.994 E0.9066
G1 X136.989 Y117.542 E0.91754
G1 X136.98 Y118.062 E0.92792
G1 X136.945 Y118.769 E0.94204
G1 X136.866 Y119.634 E0.95938
G1 X136.816 Y120.047 E0.96768
G1 X136.733 Y120.614 E0.97911
G1 X136.665 Y121.004 E0.98701
G1 X136.469 Y121.901 E1.00534
G1 X136.208 Y122.898 E1.0259
G1 X135.952 Y123.738 E1.04343
G1 X135.834 Y124.076 E1.05057
G1 X135.498 Y124.925 E1.06879
G1 X135.168 Y125.666 E1.08498
G1 X134.831 Y126.356 E1.10031
G1 X134.497 Y126.984 E1.1145
G1 X134.097 Y127.675 E1.13043
G1 X133.853 Y128.063 E1.13958
G1 X133.296 Y128.867 E1.1591
G1 X132.797 Y129.523 E1.17555
G1 X132.286 Y130.146 E1.19163
G1 X131.907 Y130.575 E1.20305
G1 X131.393 Y131.118 E1.21797
G1 X130.985 Y131.521 E1.22942
G1 X130.431 Y132.032 E1.24446
G1 X129.986 Y132.415 E1.25617
G1 X129.34 Y132.93 E1.27266
G1 X128.673 Y133.422 E1.2892
G1 X127.962 Y133.905 E1.30635
G1 X127.662 Y134.092 E1.31341
G1 X126.925 Y134.512 E1.33034
G1 X126.186 Y134.897 E1.34697
G1 X125.397 Y135.27 E1.36438
G1 X124.668 Y135.579 E1.38018
G1 X123.836 Y135.892 E1.39792
G1 X123.468 Y136.014 E1.40566
G1 X122.661 Y136.248 E1.42243
G1 X121.768 Y136.47 E1.44079
G1 X120.791 Y136.666 E1.46068
G1 X120.078 Y136.776 E1.47507
G1 X119.178 Y136.878 E1.49315
G1 X118.571 Y136.921 E1.50529
G1 X118.059 Y136.945 E1.51552
G1 X117.232 Y136.964 E1.53203
G1 X112.156 Y137.03 E1.63333
G1 X111.304 Y137.03 E1.65034
G1 X110.367 Y136.989 E1.66905
G1 X109.437 Y136.868 E1.68777
G1 X108.521 Y136.668 E1.70648
G1 X107.625 Y136.391 E1.72519
G1 X106.756 Y136.038 E1.74391
G1 X105.92 Y135.613 E1.76263
G1 X105.123 Y135.118 E1.78135
G1 X104.371 Y134.557 E1.80007
G1 X103.67 Y133.934 E1.81879
G1 X103.025 Y133.254 E1.83749
G1 X102.439 Y132.521 E1.85622
G1 X101.919 Y131.741 E1.87493
G1 X101.466 Y130.92 E1.89364
G1 X101.086 Y130.062 E1.91237
G1 X100.801 Y129.247 E1.9296
G1 X100.56 Y128.459 E1.94604
G1 X100.262 Y127.432 E1.96738
G1 X99.074 Y123.806 E2.04353
G1 X98.823 Y123.005 E2.06028
G1 X98.611 Y122.228 E2.07635
G1 X98.425 Y121.435 E2.09261
G1 X98.259 Y120.577 E2.11005
G1 X98.205 Y120.222 E2.11721
G1 X98.139 Y119.701 E2.12769
G1 X98.09 Y119.228 E2.13718
G1 X98.043 Y118.61 E2.14955
G1 X98.024 Y118.205 E2.15764
G1 X98.011 Y117.343 E2.17485
G1 X98.029 Y116.678 E2.18812
G1 X98.072 Y115.936 E2.20295
G1 X98.162 Y115.032 E2.22108
G1 X98.244 Y114.452 E2.23277
G1 X98.363 Y113.768 E2.24663
G1 X98.459 Y113.303 E2.2561
G1 X98.574 Y112.805 E2.2663
G1 X98.668 Y112.437 E2.27388
G1 X98.81 Y111.934 E2.28431
G1 X98.929 Y111.546 E2.29241
G1 X99.109 Y111.007 E2.30375
G1 X99.227 Y110.683 E2.31063
G1 X99.48 Y110.049 E2.32426
G1 X99.825 Y109.258 E2.34148
G1 X100.173 Y108.534 E2.35751
G1 X100.354 Y108.19 E2.36526
G1 X100.812 Y107.401 E2.38347
G1 X101.258 Y106.701 E2.40003
G1 X101.74 Y106.005 E2.41693
G1 X102.208 Y105.382 E2.43248
G1 X102.778 Y104.685 E2.45045
G1 X103.024 Y104.408 E2.45784
G1 X103.383 Y104.023 E2.46835
G1 X103.73 Y103.668 E2.47825
G0 F6000 X104.016 Y103.948
G1 F900 X104.618 Y103.37 E2.49491
G1 X105.292 Y102.791 E2.51264
G1 X105.968 Y102.258 E2.52982
G1 X106.627 Y101.779 E2.54608
G1 X107.207 Y101.39 E2.56001
G1 X108.002 Y100.906 E2.57859
G1 X108.64 Y100.555 E2.59312
G1 X109.331 Y100.207 E2.60856
G1 X109.945 Y99.935 E2.62196
G1 X110.716 Y99.62 E2.63858
G1 X111.495 Y99.337 E2.65512
G1 X111.842 Y99.226 E2.66239
G1 X112.638 Y99.005 E2.67888
G1 X113.456 Y98.812 E2.69565
G1 X114.256 Y98.656 E2.71191
G1 X114.961 Y98.546 E2.72615
G1 X115.88 Y98.443 E2.74461
G1 X116.62 Y98.393 E2.75941
G1 X117.442 Y98.37 E2.77582
G1 X117.938 Y98.375 E2.78572
G1 X118.483 Y98.394 E2.7966
G1 X118.84 Y98.416 E2.80374
G1 X119.653 Y98.498 E2.82004
G1 X120.606 Y98.631 E2.83925
G1 X121.649 Y98.83 E2.86044
G1 X122.384 Y99.009 E2.87553
G1 X123.098 Y99.209 E2.89033
G1 X123.54 Y99.35 E2.89959
G1 X124.085 Y99.541 E2.91111
G1 X124.469 Y99.687 E2.91931
G1 X124.956 Y99.886 E2.92981
G1 X125.376 Y100.07 E2.93896
G1 X125.885 Y100.309 E2.95018
G1 X126.225 Y100.48 E2.95778
G1 X126.684 Y100.726 E2.96817
G1 X127.115 Y100.97 E2.97805
G1 X127.535 Y101.22 E2.98781
G1 X127.834 Y101.408 E2.99486
G1 X128.542 Y101.894 E3.01199
G1 X129.201 Y102.387 E3.02842
G1 X129.841 Y102.906 E3.04486
G1 X130.443 Y103.434 E3.06084
G1 X131.061 Y104.022 E3.07786
G1 X131.321 Y104.29 E3.08532
G1 X131.869 Y104.9 E3.10168
G1 X132.397 Y105.536 E3.11818
G1 X132.902 Y106.196 E3.13476
G1 X133.367 Y106.855 E3.15086
G1 X133.827 Y107.565 E3.16774
G1 X134.007 Y107.869 E3.17479
G1 X134.262 Y108.325 E3.18521
G1 X134.503 Y108.782 E3.19552
G1 X134.737 Y109.254 E3.20604
G1 X134.885 Y109.572 E3.21304
G1 X135.105 Y110.079 E3.22407
G1 X135.289 Y110.535 E3.23388
G1 X135.563 Y111.282 E3.24976
G1 X135.766 Y111.918 E3.26308
G1 X135.903 Y112.407 E3.27322
G1 X136.055 Y113.003 E3.28549
G1 X136.206 Y113.69 E3.29953
G1 X136.313 Y114.267 E3.31124
G1 X136.428 Y115.048 E3.32699
G1 X136.517 Y115.862 E3.34333
G1 X136.574 Y116.669 E3.35948
G1 X136.585 Y117.007 E3.36623
G1 X136.589 Y117.535 E3.37676
G1 X136.58 Y118.055 E3.38714
G1 X136.547 Y118.736 E3.40075
G1 X136.511 Y119.176 E3.40956
G1 X136.419 Y119.999 E3.42608
G1 X136.338 Y120.546 E3.43712
G1 X136.27 Y120.936 E3.44502
G1 X136.082 Y121.799 E3.46265
G1 X135.821 Y122.796 E3.48321
G1 X135.575 Y123.606 E3.50011
G1 X135.457 Y123.944 E3.50725
G1 X135.132 Y124.762 E3.52482
G1 X134.802 Y125.503 E3.541
G1 X134.478 Y126.168 E3.55576
G1 X134.144 Y126.796 E3.56996
G1 X133.758 Y127.462 E3.58532
G1 X133.514 Y127.85 E3.59447
G1 X132.978 Y128.624 E3.61326
G1 X132.479 Y129.28 E3.6297
G1 X131.986 Y129.881 E3.64522
G1 X131.607 Y130.31 E3.65664
G1 X131.112 Y130.833 E3.67101
G1 X130.704 Y131.236 E3.68246
G1 X130.17 Y131.729 E3.69696
G1 X129.725 Y132.112 E3.70868
G1 X129.102 Y132.608 E3.72457
G1 X128.435 Y133.1 E3.74111
G1 X127.75 Y133.566 E3.75764
G1 X127.45 Y133.753 E3.7647
G1 X126.741 Y134.158 E3.78099
G1 X126.002 Y134.543 E3.79762
G1 X125.241 Y134.901 E3.8144
G1 X124.512 Y135.21 E3.8302
G1 X123.711 Y135.512 E3.84729
G1 X123.343 Y135.634 E3.85502
G1 X122.564 Y135.86 E3.87121
G1 X121.671 Y136.082 E3.88957
G1 X120.73 Y136.271 E3.90873
G1 X120.017 Y136.381 E3.92312
G1 X119.15 Y136.479 E3.94054
G1 X118.543 Y136.522 E3.95268
G1 X118.05 Y136.545 E3.96253
G1 X117.227 Y136.564 E3.97896
G1 X111.998 Y136.631 E4.08332
G1 X111.305 Y136.63 E4.09715
G1 X110.385 Y136.589 E4.11552
G1 X109.472 Y136.468 E4.1339
G1 X108.574 Y136.268 E4.15226
G1 X107.696 Y135.991 E4.17063
G1 X106.845 Y135.639 E4.18901
G1 X106.028 Y135.214 E4.20739
G1 X105.251 Y134.721 E4.22575
G1 X104.52 Y134.161 E4.24413
G1 X103.84 Y133.54 E4.26251
G1 X103.216 Y132.863 E4.28088
G1 X102.654 Y132.134 E4.29925
G1 X102.157 Y131.359 E4.31762
G1 X101.729 Y130.544 E4.33599
G1 X101.374 Y129.695 E4.35436
G1 X101.183 Y129.13 E4.36626
G1 X100.942 Y128.342 E4.38271
G1 X100.644 Y127.314 E4.40406
G1 X99.456 Y123.687 E4.48023
G1 X99.205 Y122.886 E4.49698
G1 X99 Y122.137 E4.51248
G1 X98.814 Y121.344 E4.52873
G1 X98.655 Y120.517 E4.54554
G1 X98.536 Y119.66 E4.5628
G1 X98.487 Y119.187 E4.57229
G1 X98.443 Y118.592 E4.5842
G1 X98.412 Y117.718 E4.60165
G1 X98.411 Y117.342 E4.60916
G1 X98.429 Y116.701 E4.62195
G1 X98.472 Y115.959 E4.63679
G1 X98.558 Y115.088 E4.65425
G1 X98.64 Y114.508 E4.66594
G1 X98.755 Y113.849 E4.67929
G1 X98.851 Y113.384 E4.68877
G1 X99.056 Y112.536 E4.70618
G1 X99.192 Y112.051 E4.71623
G1 X99.311 Y111.663 E4.72433
G1 X99.485 Y111.144 E4.73525
G1 X99.603 Y110.82 E4.74213
G1 X99.847 Y110.209 E4.75526
G1 X100.192 Y109.418 E4.77248
G1 X100.527 Y108.72 E4.78793
G1 X100.708 Y108.376 E4.79569
G1 X101.149 Y107.616 E4.81323
G1 X101.595 Y106.916 E4.82979
G1 X102.06 Y106.245 E4.84608
G1 X102.528 Y105.622 E4.86163
G1 X103.077 Y104.95 E4.87895
G1 X103.323 Y104.673 E4.88634
G1 X103.669 Y104.303 E4.89645
G1 X104.016 Y103.948 E4.90636
G0 F6000 X104.302 Y104.227
G1 F900 X104.891 Y103.662 E4.92265
G1 X105.54 Y103.105 E4.93971
G1 X106.216 Y102.572 E4.95689
G1 X106.849 Y102.111 E4.97252
G1 X107.429 Y101.722 E4.98646
G1 X108.194 Y101.256 E5.00433
G1 X108.832 Y100.905 E5.01886
G1 X109.498 Y100.57 E5.03374
G1 X110.096 Y100.306 E5.04679
G1 X110.867 Y99.991 E5.06341
G1 X111.617 Y99.718 E5.07933
G1 X111.964 Y99.607 E5.0866
G1 X112.73 Y99.395 E5.10247
G1 X113.548 Y99.202 E5.11924
G1 X114.318 Y99.051 E5.1349
G1 X115.023 Y98.941 E5.14914
G1 X115.907 Y98.842 E5.16689
G1 X116.647 Y98.792 E5.18169
G1 X117.438 Y98.77 E5.19748
G1 X117.934 Y98.775 E5.20738
G1 X118.458 Y98.793 E5.21784
G1 X118.815 Y98.815 E5.22498
G1 X119.598 Y98.894 E5.24068
G1 X120.551 Y99.027 E5.25989
G1 X121.555 Y99.219 E5.28029
G1 X122.29 Y99.398 E5.29538
G1 X122.976 Y99.59 E5.3096
G1 X123.418 Y99.731 E5.31886
G1 X123.943 Y99.915 E5.32996
G1 X124.327 Y100.061 E5.33816
G1 X124.795 Y100.252 E5.34824
G1 X125.215 Y100.436 E5.35739
G1 X125.705 Y100.667 E5.36821
G1 X126.045 Y100.838 E5.3758
G1 X126.487 Y101.074 E5.3858
G1 X126.918 Y101.318 E5.39568
G1 X127.621 Y101.747 E5.41212
G1 X128.302 Y102.215 E5.42861
G1 X128.961 Y102.708 E5.44503
G1 X129.577 Y103.207 E5.46085
G1 X130.179 Y103.735 E5.47683
G1 X130.774 Y104.301 E5.49322
G1 X131.034 Y104.569 E5.50067
G1 X131.561 Y105.156 E5.51641
G1 X132.089 Y105.792 E5.53291
G1 X132.575 Y106.426 E5.54885
G1 X133.04 Y107.085 E5.56495
G1 X133.483 Y107.769 E5.58121
G1 X133.663 Y108.073 E5.58826
G1 X133.908 Y108.512 E5.59829
G1 X134.149 Y108.969 E5.6086
G1 X134.375 Y109.423 E5.61872
G1 X134.523 Y109.741 E5.62572
G1 X134.734 Y110.228 E5.63631
G1 X134.918 Y110.684 E5.64613
G1 X135.185 Y111.414 E5.66164
G1 X135.383 Y112.036 E5.67467
G1 X135.516 Y112.506 E5.68441
G1 X135.668 Y113.102 E5.69669
G1 X135.813 Y113.763 E5.71019
G1 X135.92 Y114.34 E5.7219
G1 X136.031 Y115.091 E5.73705
G1 X136.12 Y115.905 E5.75339
G1 X136.175 Y116.682 E5.76894
G1 X136.186 Y117.02 E5.77569
G1 X136.189 Y117.529 E5.78585
G1 X136.18 Y118.049 E5.79622
G1 X136.148 Y118.704 E5.80931
G1 X136.112 Y119.144 E5.81812
G1 X136.022 Y119.951 E5.83433
G1 X135.944 Y120.477 E5.84494
G1 X135.876 Y120.867 E5.85284
G1 X135.695 Y121.698 E5.86981
G1 X135.434 Y122.695 E5.89038
G1 X135.197 Y123.474 E5.90663
G1 X135.079 Y123.812 E5.91377
G1 X134.767 Y124.6 E5.93068
G1 X134.437 Y125.341 E5.94687
G1 X134.125 Y125.981 E5.96108
G1 X133.791 Y126.609 E5.97527
G1 X133.42 Y127.249 E5.99004
G1 X133.176 Y127.637 E5.99918
G1 X132.659 Y128.382 E6.01728
G1 X132.16 Y129.038 E6.03373
G1 X131.686 Y129.616 E6.04865
G1 X131.307 Y130.045 E6.06007
G1 X130.831 Y130.549 E6.0739
G1 X130.423 Y130.952 E6.08535
G1 X129.909 Y131.426 E6.0993
G1 X129.464 Y131.809 E6.11102
G1 X128.865 Y132.286 E6.1263
G1 X128.198 Y132.778 E6.14284
G1 X127.539 Y133.226 E6.15874
G1 X127.239 Y133.413 E6.1658
G1 X126.556 Y133.803 E6.18149
G1 X125.817 Y134.188 E6.19812
G1 X125.085 Y134.533 E6.21427
G1 X124.356 Y134.842 E6.23007
G1 X123.585 Y135.133 E6.24652
G1 X123.217 Y135.255 E6.25425
G1 X122.468 Y135.472 E6.26981
G1 X121.575 Y135.694 E6.28818
G1 X120.669 Y135.876 E6.30662
G1 X119.956 Y135.986 E6.32102
G1 X119.122 Y136.08 E6.33776
G1 X118.515 Y136.123 E6.34991
G1 X118.04 Y136.145 E6.3594
G1 X117.222 Y136.164 E6.37573
G1 X111.998 Y136.231 E6.47999
G1 X111.305 Y136.23 E6.49382
G1 X110.403 Y136.189 E6.51183
G1 X109.508 Y136.068 E6.52986
G1 X108.627 Y135.868 E6.54789
G1 X107.768 Y135.591 E6.5659
G1 X106.936 Y135.24 E6.58392
G1 X106.138 Y134.816 E6.60195
G1 X105.382 Y134.323 E6.61996
G1 X104.671 Y133.765 E6.638
G1 X104.013 Y133.147 E6.65601
G1 X103.412 Y132.473 E6.67403
G1 X102.873 Y131.748 E6.69206
G1 X102.401 Y130.978 E6.71009
G1 X101.998 Y130.17 E6.72811
G1 X101.566 Y129.013 E6.75275
G1 X101.282 Y128.081 E6.77219
G1 X101.023 Y127.187 E6.79077
G1 X99.878 Y123.693 E6.86414
G1 X99.587 Y122.766 E6.88353
G1 X99.39 Y122.045 E6.89845
G1 X99.204 Y121.252 E6.9147
G1 X99.05 Y120.457 E6.93086
G1 X98.934 Y119.619 E6.94775
G1 X98.885 Y119.146 E6.95724
G1 X98.842 Y118.573 E6.9687
G1 X98.823 Y118.168 E6.97679
G1 X98.811 Y117.341 E6.9933
G1 X98.828 Y116.724 E7.00562
G1 X98.871 Y115.982 E7.02045
G1 X98.954 Y115.144 E7.03725
G1 X99.036 Y114.564 E7.04894
G1 X99.147 Y113.93 E7.06179
G1 X99.243 Y113.465 E7.07126
G1 X99.349 Y113.003 E7.08072
G1 X99.574 Y112.168 E7.09798
G1 X99.693 Y111.78 E7.10608
G1 X99.861 Y111.28 E7.11661
G1 X99.979 Y110.956 E7.12349
G1 X100.214 Y110.369 E7.13611
G1 X100.559 Y109.578 E7.15333
G1 X100.881 Y108.906 E7.1682
G1 X101.062 Y108.562 E7.17595
G1 X101.487 Y107.831 E7.19283
G1 X101.933 Y107.131 E7.20939
G1 X102.38 Y106.486 E7.22505
G1 X102.848 Y105.863 E7.2406
G1 X103.376 Y105.216 E7.25727
G1 X103.622 Y104.939 E7.26466
G1 X103.955 Y104.582 E7.2744
G1 X104.302 Y104.227 E7.28431
G1 F2700 E2.28431
;MESH:minox-takup-cap.stl
G0 F6000 X108.635 Y115.135
G0 X109.676 Y115.44
G0 X110.938 Y119.622
G0 X112.711 Y124.621
;TYPE:WALL-INNER
G1 F2700 E7.28431
G1 F900 X117.502 Y124.561 E7.37993
G1 X117.876 Y124.548 E7.3874
G1 X118.382 Y124.504 E7.39753
G1 X118.807 Y124.438 E7.40611
G1 X119.29 Y124.329 E7.416
