;FLAVOR:Marlin
;TIME:1234
;Filament used: 0.386192m
;Layer height: 0.12
;MINX:84.364
;MINY:97.967
;MINZ:0.12
;MAXX:150.635
;MAXY:137.031
;MAXZ:9.72
;Generated with Cura_SteamEngine 5.2.1
M140 S70
M105
M190 S70
M104 S240
M105
M109 S240
M82 ;absolute extrusion mode
; Ender 3 Custom Start G-code
G92 E0 ; Reset Extruder
G28 ; Home all axes
G1 Z2.0 F3000 ; Move Z Axis up little to prevent scratching of Heat Bed
G1 X0.1 Y20 Z0.3 F5000.0 ; Move to start position
G1 X0.1 Y200.0 Z0.3 F1500.0 E15 ; Draw the first line
G1 X0.4 Y200.0 Z0.3 F5000.0 ; Move to side a little
G1 X0.4 Y20 Z0.3 F1500.0 E30 ; Draw the second line
G92 E0 ; Reset Extruder
G1 Z2.0 F3000 ; Move Z Axis up little to prevent scratching of Heat Bed
G1 X5 Y20 Z0.3 F5000.0 ; Move over to prevent blob squish
G92 E0
G92 E0
G1 F2700 E-5
;LAYER_COUNT:81
;LAYER:0
M107
G0 F6000 X91.063 Y102.754 Z0.12
;TYPE:SKIRT
G1 F2700 E0
G1 F900 X91.521 Y102.37 E0.01193
G1 X92.006 Y101.985 E0.02428
G1 X92.682 Y101.489 E0.04102
G1 X93.127 Y101.188 E0.05174
G1 X93.726 Y100.81 E0.06587
G1 X94.241 Y100.508 E0.07779
G1 X94.735 Y100.235 E0.08905
G1 X95.122 Y100.034 E0.09775
G1 X95.83 Y99.698 E0.11339
G1 X96.381 Y99.46 E0.12537
G1 X96.904 Y99.25 E0.13662
G1 X97.237 Y99.126 E0.14371
G1 X97.925 Y98.891 E0.15822
G1 X98.411 Y98.744 E0.16835
G1 X98.935 Y98.599 E0.1792
G1 X99.769 Y98.403 E0.1963
G1 X100.499 Y98.261 E0.21114
G1 X101.262 Y98.141 E0.22655
G1 X102.164 Y98.04 E0.24466
G1 X102.843 Y97.994 E0.25824
G1 X103.249 Y97.977 E0.26635
G1 X103.942 Y97.967 E0.28019
G1 X104.904 Y97.998 E0.29939
G1 X105.457 Y98.035 E0.31045
G1 X106.124 Y98.101 E0.32383
G1 X106.889 Y98.192 E0.3392
G1 X109.548 Y98.469 E0.39255
G1 X112.004 Y98.655 E0.44171
G1 X114.559 Y98.776 E0.49275
G1 X117.048 Y98.824 E0.54243
G1 X119.607 Y98.8 E0.5935
G1 X122.094 Y98.707 E0.64317
G1 X124.594 Y98.542 E0.69316
G1 X127.831 Y98.225 E0.75807
G1 X129.147 Y98.073 E0.78451
G1 X129.684 Y98.025 E0.79527
G1 X130.08 Y97.999 E0.80319
G1 X130.63 Y97.976 E0.81417
G1 X131.209 Y97.967 E0.82573
G1 X132.147 Y97.993 E0.84445
G1 X132.719 Y98.033 E0.8559
G1 X133.322 Y98.092 E0.86799
G1 X133.816 Y98.154 E0.87792
G1 X134.439 Y98.25 E0.8905
G1 X134.895 Y98.334 E0.89976
G1 X135.413 Y98.443 E0.91032
G1 X135.784 Y98.53 E0.91792
G1 X136.324 Y98.671 E0.92906
G1 X136.757 Y98.796 E0.93806
G1 X137.315 Y98.973 E0.94974
G1 X137.767 Y99.13 E0.95929
G1 X138.282 Y99.323 E0.97026
G1 X138.648 Y99.471 E0.97814
G1 X139.121 Y99.676 E0.98843
G1 X139.521 Y99.86 E0.99722
G1 X140.118 Y100.154 E1.0105
G1 X140.596 Y100.413 E1.02134
G1 X141.04 Y100.668 E1.03156
G1 X141.513 Y100.956 E1.04261
G1 X141.911 Y101.212 E1.05206
G1 X142.39 Y101.538 E1.06362
G1 X142.712 Y101.77 E1.07154
G1 X143.117 Y102.077 E1.08168
G1 X143.618 Y102.482 E1.09454
G1 X143.942 Y102.758 E1.10303
G1 X144.332 Y103.106 E1.11346
G1 X144.651 Y103.405 E1.12219
G1 X145.091 Y103.843 E1.13458
G1 X145.705 Y104.504 E1.15258
G1 X146.068 Y104.923 E1.16364
G1 X146.491 Y105.443 E1.17702
G1 X146.761 Y105.796 E1.18589
G1 X147.131 Y106.309 E1.19851
G1 X147.402 Y106.709 E1.20815
G1 X147.865 Y107.444 E1.22549
G1 X148.129 Y107.901 E1.23602
G1 X148.352 Y108.309 E1.2453
G1 X148.589 Y108.768 E1.25561
G1 X148.797 Y109.195 E1.26509
G1 X149.021 Y109.685 E1.27584
G1 X149.268 Y110.286 E1.28881
G1 X149.437 Y110.73 E1.29829
G1 X149.642 Y111.316 E1.31068
G1 X149.787 Y111.773 E1.32025
G1 X149.93 Y112.264 E1.33045
G1 X150.129 Y113.05 E1.34663
G1 X150.247 Y113.587 E1.3576
G1 X150.376 Y114.27 E1.37147
G1 X150.45 Y114.761 E1.38138
G1 X150.507 Y115.207 E1.39036
G1 X150.558 Y115.692 E1.40009
G1 X150.602 Y116.309 E1.41243
G1 X150.624 Y116.795 E1.42214
G1 X150.635 Y117.365 E1.43352
G1 X150.632 Y117.818 E1.44256
G1 X150.613 Y118.395 E1.45408
G1 X150.586 Y118.851 E1.46319
G1 X150.526 Y119.516 E1.47652
G1 X150.464 Y120.031 E1.48687
G1 X150.384 Y120.577 E1.49788
G1 X150.309 Y121.014 E1.50673
G1 X150.177 Y121.666 E1.52001
G1 X150.051 Y122.203 E1.53101
G1 X149.869 Y122.88 E1.545
G1 X149.729 Y123.342 E1.55464
G1 X149.576 Y123.81 E1.56446
G1 X149.337 Y124.458 E1.57825
G1 X149.135 Y124.961 E1.58906
G1 X148.934 Y125.428 E1.59921
G1 X148.575 Y126.189 E1.616
G1 X148.19 Y126.914 E1.63238
G1 X147.91 Y127.403 E1.64363
G1 X147.499 Y128.065 E1.65918
G1 X147.175 Y128.548 E1.67079
G1 X146.831 Y129.032 E1.68264
G1 X146.567 Y129.383 E1.6914
G1 X146.208 Y129.835 E1.70292
G1 X145.835 Y130.27 E1.71435
G1 X145.434 Y130.717 E1.72634
G1 X144.885 Y131.287 E1.74213
G1 X144.484 Y131.674 E1.75325
G1 X143.868 Y132.226 E1.76976
G1 X143.311 Y132.688 E1.7842
G1 X142.626 Y133.212 E1.80141
G1 X142.199 Y133.513 E1.81184
G1 X141.749 Y133.814 E1.82264
G1 X141.274 Y134.115 E1.83386
G1 X140.464 Y134.581 E1.85251
G1 X139.924 Y134.862 E1.86466
G1 X139.324 Y135.151 E1.87795
G1 X138.79 Y135.389 E1.88962
G1 X138.057 Y135.685 E1.90539
G1 X137.582 Y135.857 E1.91547
G1 X137.037 Y136.038 E1.92693
G1 X136.593 Y136.173 E1.93619
G1 X135.946 Y136.349 E1.94958
G1 X135.443 Y136.469 E1.9599
G1 X134.933 Y136.578 E1.9703
G1 X134.552 Y136.65 E1.97804
G1 X133.975 Y136.743 E1.9897
G1 X133.499 Y136.807 E1.99929
G1 X132.949 Y136.867 E2.01033
G1 X132.578 Y136.898 E2.01776
G1 X131.981 Y136.931 E2.02969
G1 X130.699 Y136.967 E2.05528
G1 X125.643 Y137.031 E2.15619
G1 X124.947 Y137.03 E2.17008
G1 X124.325 Y137.011 E2.1825
G1 X122.704 Y136.91 E2.21491
G1 X120.196 Y136.798 E2.26501
G1 X117.702 Y136.757 E2.31479
G1 X115.176 Y136.787 E2.3652
G1 X112.68 Y136.887 E2.41505
G1 X111.655 Y136.957 E2.43555
G1 X110.64 Y137.014 E2.45584
G1 X110.041 Y137.031 E2.4678
G1 X109.278 Y137.031 E2.48302
G1 X104.178 Y136.964 E2.58481
G1 X103.088 Y136.933 E2.60657
G1 X102.369 Y136.893 E2.62094
G1 X101.75 Y136.836 E2.63335
G1 X101.288 Y136.78 E2.64263
G1 X100.726 Y136.697 E2.65397
G1 X100.295 Y136.622 E2.6627
G1 X99.733 Y136.509 E2.67414
G1 X99.273 Y136.404 E2.68356
G1 X98.747 Y136.27 E2.69439
G1 X98.366 Y136.163 E2.70229
G1 X97.675 Y135.944 E2.71675
G1 X97.061 Y135.727 E2.72975
G1 X96.408 Y135.473 E2.74373
G1 X95.657 Y135.141 E2.76012
G1 X95.171 Y134.908 E2.77087
G1 X94.582 Y134.603 E2.78411
G1 X94.215 Y134.399 E2.79249
G1 X93.757 Y134.13 E2.80309
G1 X93.335 Y133.868 E2.813
G1 X92.739 Y133.474 E2.82726
G1 X92.286 Y133.146 E2.83842
G1 X91.785 Y132.764 E2.85099
G1 X91.174 Y132.262 E2.86677
G1 X90.772 Y131.907 E2.87747
G1 X90.342 Y131.507 E2.88919
G1 X90.049 Y131.219 E2.89739
G1 X89.642 Y130.796 E2.90911
G1 X89.29 Y130.411 E2.91952
G1 X88.849 Y129.898 E2.93302
G1 X88.514 Y129.483 E2.94366
G1 X88.077 Y128.904 E2.95814
G1 X87.811 Y128.526 E2.96736
G1 X87.541 Y128.124 E2.97703
G1 X87.271 Y127.702 E2.98702
G1 X86.956 Y127.178 E2.99922
G1 X86.582 Y126.492 E3.01482
G1 X86.339 Y126.012 E3.02555
G1 X86.01 Y125.3 E3.04121
G1 X85.783 Y124.759 E3.05291
G1 X85.552 Y124.162 E3.06569
G1 X85.37 Y123.646 E3.07661
G1 X85.137 Y122.901 E3.09218
G1 X85.026 Y122.497 E3.10055
G1 X84.892 Y121.957 E3.11165
G1 X84.764 Y121.378 E3.12348
G1 X84.643 Y120.742 E3.1364
G1 X84.563 Y120.242 E3.14651
G1 X84.468 Y119.475 E3.16193
G1 X84.416 Y118.888 E3.17369
G1 X84.375 Y118.208 E3.18729
G1 X84.364 Y117.663 E3.19816
G1 X84.367 Y117.036 E3.21068
G1 X84.396 Y116.294 E3.22549
G1 X84.432 Y115.797 E3.23544
G1 X84.489 Y115.217 E3.24707
G1 X84.583 Y114.538 E3.26075
G1 X84.67 Y114.011 E3.27141
G1 X84.829 Y113.228 E3.28735
G1 X84.966 Y112.659 E3.29903
G1 X85.121 Y112.082 E3.31095
G1 X85.249 Y111.654 E3.31987
G1 X85.42 Y111.131 E3.33085
G1 X85.56 Y110.736 E3.33921
G1 X85.77 Y110.191 E3.35087
G1 X86.092 Y109.44 E3.36718
G1 X86.36 Y108.863 E3.37987
G1 X86.854 Y107.921 E3.4011
G1 X87.141 Y107.433 E3.4124
G1 X87.608 Y106.694 E3.42984
G1 X87.946 Y106.202 E3.44175
G1 X88.248 Y105.787 E3.452
G1 X88.659 Y105.257 E3.46538
G1 X88.99 Y104.856 E3.47576
G1 X89.356 Y104.434 E3.4869
G1 X89.613 Y104.153 E3.4945
G1 X90.02 Y103.731 E3.5062
G1 X90.368 Y103.389 E3.51594
G1 X90.781 Y103.004 E3.52721
G1 X91.063 Y102.754 E3.53473
G0 F6000 X91.328 Y103.053
G1 F900 X91.77 Y102.683 E3.54623
G1 X92.255 Y102.298 E3.55859
G1 X92.906 Y101.82 E3.57471
G1 X93.351 Y101.519 E3.58543
G1 X93.928 Y101.155 E3.59904
G1 X94.443 Y100.853 E3.61096
G1 X94.919 Y100.59 E3.62181
G1 X95.306 Y100.389 E3.63051
G1 X95.989 Y100.065 E3.6456
G1 X96.54 Y99.827 E3.65758
G1 X97.044 Y99.624 E3.66842
G1 X97.377 Y99.5 E3.67551
G1 X98.049 Y99.271 E3.68968
G1 X98.518 Y99.13 E3.69945
G1 X99.042 Y98.985 E3.7103
G1 X99.845 Y98.796 E3.72676
G1 X100.575 Y98.654 E3.7416
G1 X101.311 Y98.538 E3.75647
G1 X102.196 Y98.439 E3.77424
G1 X102.86 Y98.393 E3.78753
G1 X103.266 Y98.376 E3.79564
G1 X103.942 Y98.367 E3.80913
G1 X104.388 Y98.376 E3.81803
G1 X104.887 Y98.397 E3.828
G1 X105.42 Y98.433 E3.83866
G1 X106.077 Y98.498 E3.85183
G1 X106.875 Y98.593 E3.86787
G1 X109.474 Y98.863 E3.92002
G1 X112.026 Y99.057 E3.97109
G1 X114.532 Y99.176 E4.02116
G1 X117.044 Y99.224 E4.0713
G1 X119.59 Y99.2 E4.12211
G1 X122.134 Y99.105 E4.17291
G1 X124.629 Y98.941 E4.22281
G1 X127.91 Y98.619 E4.2886
G1 X129.192 Y98.471 E4.31435
G1 X129.711 Y98.424 E4.32475
G1 X130.107 Y98.398 E4.33267
G1 X130.636 Y98.376 E4.34324
G1 X131.215 Y98.367 E4.35479
G1 X132.119 Y98.392 E4.37284
G1 X132.691 Y98.432 E4.38428
G1 X133.272 Y98.489 E4.39593
G1 X133.766 Y98.551 E4.40587
G1 X134.366 Y98.643 E4.41798
G1 X134.822 Y98.727 E4.42724
G1 X135.322 Y98.832 E4.43743
G1 X135.693 Y98.919 E4.44504
G1 X136.213 Y99.055 E4.45576
G1 X136.646 Y99.18 E4.46476
G1 X137.184 Y99.351 E4.47602
G1 X137.636 Y99.508 E4.48557
G1 X138.132 Y99.694 E4.49614
G1 X138.498 Y99.842 E4.50402
G1 X138.954 Y100.039 E4.51393
G1 X139.354 Y100.223 E4.52272
G1 X139.936 Y100.51 E4.53567
G1 X140.397 Y100.76 E4.54613
G1 X140.841 Y101.015 E4.55635
G1 X141.296 Y101.292 E4.56698
G1 X141.694 Y101.548 E4.57643
G1 X142.156 Y101.863 E4.58758
G1 X142.869 Y102.39 E4.60528
G1 X143.359 Y102.787 E4.61786
G1 X143.683 Y103.063 E4.62636
G1 X144.058 Y103.398 E4.63639
G1 X144.377 Y103.697 E4.64512
G1 X144.802 Y104.119 E4.65707
G1 X145.403 Y104.766 E4.67469
G1 X145.766 Y105.185 E4.68576
G1 X146.174 Y105.686 E4.69865
G1 X146.444 Y106.039 E4.70752
G1 X146.8 Y106.534 E4.71969
G1 X147.071 Y106.934 E4.72933
G1 X147.523 Y107.652 E4.74626
G1 X147.778 Y108.093 E4.75642
G1 X148.001 Y108.501 E4.7657
G1 X148.23 Y108.943 E4.77564
G1 X148.438 Y109.37 E4.78512
G1 X148.654 Y109.843 E4.79549
G1 X148.895 Y110.428 E4.80812
G1 X149.064 Y110.872 E4.8176
G1 X149.261 Y111.437 E4.82954
G1 X149.406 Y111.894 E4.83911
G1 X149.544 Y112.367 E4.84894
G1 X149.738 Y113.136 E4.86477
G1 X149.856 Y113.673 E4.87574
G1 X149.982 Y114.339 E4.88927
G1 X150.053 Y114.811 E4.89879
G1 X150.16 Y115.725 E4.91716
G1 X150.202 Y116.327 E4.9292
G1 X150.224 Y116.813 E4.93891
G1 X150.235 Y117.362 E4.94987
G1 X150.232 Y117.815 E4.95891
G1 X150.213 Y118.372 E4.97003
G1 X150.186 Y118.828 E4.97914
G1 X150.129 Y119.468 E4.99197
G1 X150.067 Y119.983 E5.00232
G1 X149.99 Y120.509 E5.01293
G1 X149.915 Y120.946 E5.02178
G1 X149.788 Y121.574 E5.03456
G1 X149.662 Y122.111 E5.04557
G1 X149.486 Y122.764 E5.05907
G1 X149.199 Y123.677 E5.07816
G1 X148.965 Y124.309 E5.09161
G1 X148.763 Y124.812 E5.10243
G1 X148.57 Y125.262 E5.1122
G1 X148.219 Y126.007 E5.12864
G1 X147.843 Y126.715 E5.14463
G1 X147.563 Y127.204 E5.15588
G1 X147.167 Y127.842 E5.17086
G1 X146.843 Y128.325 E5.18247
G1 X146.511 Y128.792 E5.19391
G1 X146.247 Y129.143 E5.20267
G1 X145.902 Y129.578 E5.21375
G1 X145.537 Y130.003 E5.22493
G1 X145.136 Y130.45 E5.23691
G1 X144.607 Y130.999 E5.25213
G1 X144.206 Y131.386 E5.26325
G1 X143.612 Y131.918 E5.27916
G1 X143.055 Y132.38 E5.2936
G1 X142.395 Y132.885 E5.31019
G1 X141.968 Y133.186 E5.32061
G1 X141.535 Y133.476 E5.33101
G1 X141.06 Y133.777 E5.34224
G1 X140.279 Y134.226 E5.36021
G1 X139.739 Y134.507 E5.37236
G1 X139.161 Y134.786 E5.38517
G1 X138.627 Y135.024 E5.39684
G1 X137.921 Y135.309 E5.41203
G1 X137.446 Y135.481 E5.42211
G1 X136.921 Y135.656 E5.43316
G1 X136.477 Y135.791 E5.44242
G1 X135.853 Y135.96 E5.45532
G1 X135.35 Y136.08 E5.46564
G1 X134.858 Y136.185 E5.47568
G1 X134.477 Y136.257 E5.48341
G1 X133.921 Y136.346 E5.49465
G1 X133.445 Y136.41 E5.50424
G1 X132.916 Y136.468 E5.51486
G1 X132.545 Y136.499 E5.52229
G1 X131.969 Y136.532 E5.5338
G1 X130.865 Y136.564 E5.55584
G1 X125.644 Y136.631 E5.66004
G1 X124.948 Y136.63 E5.67393
G1 X124.348 Y136.612 E5.68591
G1 X122.718 Y136.51 E5.7185
G1 X120.257 Y136.4 E5.76766
G1 X117.669 Y136.357 E5.81931
G1 X115.192 Y136.387 E5.86875
G1 X112.634 Y136.489 E5.91984
G1 X111.769 Y136.549 E5.93714
G1 X110.617 Y136.614 E5.96017
G1 X110.041 Y136.631 E5.97167
G1 X109.283 Y136.631 E5.98679
G1 X104.19 Y136.564 E6.08844
G1 X103.1 Y136.533 E6.1102
G1 X102.395 Y136.494 E6.12429
G1 X101.798 Y136.439 E6.13625
G1 X101.336 Y136.383 E6.14554
G1 X100.795 Y136.303 E6.15645
G1 X100.364 Y136.228 E6.16519
G1 X99.822 Y136.119 E6.17622
G1 X99.362 Y136.014 E6.18563
G1 X98.855 Y135.885 E6.19607
G1 X98.474 Y135.778 E6.20397
G1 X97.808 Y135.567 E6.21791
G1 X97.194 Y135.35 E6.23091
G1 X96.565 Y135.105 E6.24438
G1 X95.83 Y134.78 E6.26042
G1 X95.344 Y134.547 E6.27117
G1 X94.776 Y134.254 E6.28393
G1 X94.409 Y134.05 E6.29231
G1 X93.968 Y133.791 E6.30251
G1 X93.546 Y133.529 E6.31243
G1 X92.965 Y133.144 E6.32633
G1 X92.529 Y132.828 E6.33708
G1 X92.028 Y132.446 E6.34965
G1 X91.439 Y131.962 E6.36487
G1 X91.037 Y131.607 E6.37557
G1 X90.622 Y131.222 E6.38687
G1 X90.329 Y130.934 E6.39507
G1 X89.937 Y130.527 E6.40634
G1 X89.585 Y130.142 E6.41675
G1 X89.16 Y129.647 E6.42977
G1 X88.825 Y129.232 E6.44042
G1 X88.404 Y128.674 E6.45436
G1 X88.138 Y128.296 E6.46359
G1 X87.878 Y127.909 E6.47289
G1 X87.608 Y127.487 E6.48289
G1 X87.304 Y126.981 E6.49467
G1 X86.939 Y126.312 E6.50988
G1 X86.696 Y125.832 E6.52062
G1 X86.379 Y125.145 E6.53571
G1 X86.152 Y124.604 E6.54742
G1 X85.93 Y124.029 E6.55972
G1 X85.748 Y123.513 E6.57064
G1 X85.523 Y122.795 E6.58566
G1 X85.412 Y122.391 E6.59402
G1 X85.283 Y121.871 E6.60471
G1 X85.155 Y121.292 E6.61654
G1 X85.038 Y120.679 E6.629
G1 X84.958 Y120.179 E6.6391
G1 X84.866 Y119.439 E6.65398
G1 X84.814 Y118.852 E6.66574
G1 X84.775 Y118.19 E6.67898
G1 X84.764 Y117.665 E6.68946
G1 X84.767 Y117.038 E6.70197
G1 X84.795 Y116.323 E6.71625
G1 X84.831 Y115.826 E6.72619
G1 X84.886 Y115.267 E6.7374
G1 X84.978 Y114.603 E6.75078
G1 X85.065 Y114.076 E6.76144
G1 X85.218 Y113.322 E6.77679
G1 X85.355 Y112.753 E6.78847
G1 X85.504 Y112.197 E6.79996
G1 X85.632 Y111.769 E6.80887
G1 X85.797 Y111.265 E6.81946
G1 X85.937 Y110.87 E6.82782
G1 X86.139 Y110.344 E6.83906
G1 X86.454 Y109.609 E6.85502
G1 X86.722 Y109.032 E6.86772
G1 X87.199 Y108.123 E6.8882
G1 X87.486 Y107.635 E6.8995
G1 X87.943 Y106.911 E6.91659
G1 X88.269 Y106.437 E6.92807
G1 X88.571 Y106.022 E6.93831
G1 X88.967 Y105.511 E6.95121
G1 X89.298 Y105.11 E6.96159
G1 X89.651 Y104.704 E6.97233
G1 X89.908 Y104.423 E6.97992
G1 X90.3 Y104.017 E6.99119
G1 X90.648 Y103.675 E7.00092
G1 X91.046 Y103.303 E7.0118
G1 X91.328 Y103.053 E7.01932
G0 F6000 X91.594 Y103.352
G1 F900 X92.018 Y102.996 E7.03036
G1 X92.503 Y102.611 E7.04272
G1 X93.13 Y102.151 E7.05824
G1 X93.575 Y101.85 E7.06896
G1 X94.13 Y101.5 E7.08206
G1 X94.645 Y101.198 E7.09397
G1 X95.104 Y100.945 E7.10443
G1 X95.491 Y100.744 E7.11313
G1 X96.147 Y100.432 E7.12763
G1 X96.698 Y100.194 E7.13961
G1 X97.184 Y99.999 E7.15006
G1 X97.517 Y99.875 E7.15715
G1 X98.174 Y99.652 E7.17099
G1 X98.625 Y99.515 E7.1804
G1 X99.149 Y99.37 E7.19125
G1 X99.921 Y99.189 E7.20707
G1 X100.651 Y99.047 E7.22191
G1 X101.359 Y98.935 E7.23622
G1 X102.228 Y98.837 E7.25367
G1 X102.876 Y98.793 E7.26663
G1 X103.282 Y98.776 E7.27474
G1 X103.942 Y98.767 E7.28791
G1 X104.87 Y98.797 E7.30644
G1 X105.383 Y98.832 E7.3167
G1 X106.03 Y98.895 E7.32968
G1 X106.855 Y98.993 E7.34626
G1 X109.438 Y99.262 E7.39808
