;FLAVOR:Marlin
;TIME:561
;Filament used: 0.172108m
;Layer height: 0.12
;MINX:98.018
;MINY:97.981
;MINZ:0.12
;MAXX:136.982
;MAXY:137.03
;MAXZ:4.56
;Generated with Cura_SteamEngine 5.2.1
M140 S70
M105
M190 S70
M104 S240
M105
M109 S240
M82 ;absolute extrusion mode
; Ender 3 Custom Start G-code
G92 E0 ; Reset Extruder
G28 ; Home all axes
G1 Z2.0 F3000 ; Move Z Axis up little to prevent scratching of Heat Bed
G1 X0.1 Y20 Z0.3 F5000.0 ; Move to start position
G1 X0.1 Y200.0 Z0.3 F1500.0 E15 ; Draw the first line
G1 X0.4 Y200.0 Z0.3 F5000.0 ; Move to side a little
G1 X0.4 Y20 Z0.3 F1500.0 E30 ; Draw the second line
G92 E0 ; Reset Extruder
G1 Z2.0 F3000 ; Move Z Axis up little to prevent scratching of Heat Bed
G1 X5 Y20 Z0.3 F5000.0 ; Move over to prevent blob squish
G92 E0
G92 E0
G1 F2700 E-5
;LAYER_COUNT:38
;LAYER:0
M107
G0 F6000 X103.413 Y103.99 Z0.12
;TYPE:SKIRT
G1 F2700 E0
G1 F900 X104.026 Y103.379 E0.01727
G1 X104.338 Y103.088 E0.02579
G1 X104.856 Y102.635 E0.03952
G1 X105.446 Y102.15 E0.05476
G1 X106.13 Y101.63 E0.07191
G1 X106.545 Y101.34 E0.08201
G1 X107.071 Y100.995 E0.09456
G1 X107.827 Y100.54 E0.11217
G1 X108.186 Y100.339 E0.12038
G1 X108.717 Y100.061 E0.13234
G1 X109.082 Y99.882 E0.14046
G1 X109.853 Y99.539 E0.1573
G1 X110.774 Y99.172 E0.17708
G1 X111.717 Y98.845 E0.197
G1 X112.145 Y98.718 E0.20591
G1 X112.717 Y98.565 E0.21773
G1 X113.173 Y98.456 E0.22708
G1 X113.666 Y98.35 E0.23714
G1 X114.043 Y98.278 E0.2448
G1 X114.953 Y98.144 E0.26316
G1 X115.825 Y98.052 E0.28066
G1 X116.606 Y97.997 E0.29628
G1 X117.077 Y97.981 E0.30569
G1 X117.818 Y97.981 E0.32047
G1 X118.475 Y98.003 E0.33359
G1 X119.206 Y98.052 E0.34821
G1 X119.694 Y98.101 E0.358
G1 X120.48 Y98.209 E0.37383
G1 X121.331 Y98.357 E0.39107
G1 X122.335 Y98.58 E0.4116
G1 X122.82 Y98.712 E0.42163
G1 X123.649 Y98.973 E0.43897
G1 X124.554 Y99.298 E0.45816
G1 X125.356 Y99.623 E0.47543
G1 X125.691 Y99.774 E0.48276
G1 X126.202 Y100.02 E0.49408
G1 X126.622 Y100.236 E0.50351
G1 X127.145 Y100.523 E0.51541
G1 X127.516 Y100.74 E0.52399
G1 X128.277 Y101.229 E0.54204
G1 X129.097 Y101.804 E0.56203
G1 X129.843 Y102.375 E0.58077
G1 X130.156 Y102.637 E0.58892
G1 X130.78 Y103.202 E0.60572
G1 X131.333 Y103.742 E0.62114
G1 X131.895 Y104.332 E0.6374
G1 X132.309 Y104.801 E0.64989
G1 X132.78 Y105.373 E0.66467
G1 X133.097 Y105.785 E0.67505
G1 X133.529 Y106.387 E0.68983
G1 X133.88 Y106.913 E0.70245
G1 X134.278 Y107.557 E0.71756
G1 X134.532 Y108.001 E0.72777
G1 X134.887 Y108.675 E0.74297
G1 X135.179 Y109.279 E0.75636
G1 X135.462 Y109.915 E0.77025
G1 X135.676 Y110.44 E0.78157
G1 X135.891 Y111.005 E0.79363
G1 X136.071 Y111.54 E0.80489
G1 X136.286 Y112.273 E0.82014
G1 X136.411 Y112.753 E0.83004
G1 X136.568 Y113.45 E0.84429
G1 X136.709 Y114.184 E0.85921
G1 X136.836 Y115.013 E0.87595
G1 X136.893 Y115.513 E0.88599
G1 X136.946 Y116.131 E0.89837
G1 X136.967 Y116.498 E0.9057
G1 X136.982 Y117.385 E0.92341
G1 X136.957 Y118.446 E0.94459
G1 X136.896 Y119.373 E0.96313
G1 X136.851 Y119.788 E0.97146
G1 X136.763 Y120.423 E0.98425
G1 X136.669 Y120.983 E0.99558
G1 X136.463 Y121.946 E1.01523
G1 X136.254 Y122.745 E1.03171
G1 X136.141 Y123.147 E1.04005
G1 X135.944 Y123.773 E1.05314
G1 X135.223 Y125.895 E1.09787
G1 X134.448 Y128.4 E1.1502
G1 X134.24 Y129.111 E1.16498
G1 X133.939 Y129.999 E1.18369
G1 X133.563 Y130.859 E1.20242
G1 X133.116 Y131.683 E1.22113
G1 X132.6 Y132.466 E1.23984
G1 X132.02 Y133.203 E1.25856
G1 X131.378 Y133.887 E1.27728
G1 X130.681 Y134.514 E1.29599
G1 X129.933 Y135.08 E1.31471
G1 X129.139 Y135.58 E1.33343
G1 X128.306 Y136.01 E1.35214
G1 X127.439 Y136.368 E1.37086
G1 X126.545 Y136.65 E1.38957
G1 X125.63 Y136.856 E1.40828
G1 X124.7 Y136.983 E1.42702
G1 X123.696 Y137.03 E1.44707
G1 X122.865 Y137.03 E1.46366
G1 X117.57 Y136.959 E1.56933
G1 X116.966 Y136.942 E1.58139
G1 X116.12 Y136.897 E1.5983
G1 X115.531 Y136.85 E1.61009
G1 X114.984 Y136.787 E1.62108
G1 X114.554 Y136.727 E1.62974
G1 X113.623 Y136.557 E1.64863
G1 X112.901 Y136.392 E1.66341
G1 X112.139 Y136.188 E1.67915
G1 X111.327 Y135.94 E1.69609
G1 X110.46 Y135.635 E1.71443
G1 X110.117 Y135.498 E1.72181
G1 X109.356 Y135.161 E1.73841
G1 X108.65 Y134.815 E1.7541
G1 X107.923 Y134.424 E1.77058
G1 X107.359 Y134.093 E1.78363
G1 X106.749 Y133.707 E1.79803
G1 X106.338 Y133.428 E1.80795
G1 X105.726 Y132.981 E1.82307
G1 X105.234 Y132.595 E1.83555
G1 X104.656 Y132.109 E1.85062
G1 X104.268 Y131.759 E1.86105
G1 X103.738 Y131.247 E1.87575
G1 X103.296 Y130.791 E1.88843
G1 X102.8 Y130.245 E1.90315
G1 X102.429 Y129.807 E1.9146
G1 X101.915 Y129.15 E1.93125
G1 X101.447 Y128.504 E1.94717
G1 X100.923 Y127.71 E1.96615
G1 X100.689 Y127.32 E1.97523
G1 X100.279 Y126.575 E1.9922
G1 X99.929 Y125.874 E2.00784
G1 X99.594 Y125.135 E2.02403
G1 X99.299 Y124.416 E2.03954
G1 X99.002 Y123.603 E2.05681
G1 X98.872 Y123.198 E2.0653
G1 X98.619 Y122.271 E2.08447
G1 X98.395 Y121.284 E2.10467
G1 X98.227 Y120.369 E2.12324
G1 X98.174 Y119.989 E2.13089
G1 X98.091 Y119.162 E2.14748
G1 X98.039 Y118.338 E2.16396
G1 X98.018 Y117.52 E2.18029
G1 X98.024 Y116.993 E2.1908
G1 X98.056 Y116.263 E2.20539
G1 X98.114 Y115.519 E2.22028
G1 X98.197 Y114.781 E2.2351
G1 X98.257 Y114.371 E2.24337
G1 X98.378 Y113.691 E2.25715
G1 X98.491 Y113.156 E2.26806
G1 X98.647 Y112.516 E2.28121
G1 X98.75 Y112.141 E2.28897
G1 X98.898 Y111.648 E2.29924
G1 X99.054 Y111.169 E2.3093
G1 X99.293 Y110.506 E2.32336
G1 X99.463 Y110.079 E2.33253
G1 X99.784 Y109.35 E2.34843
G1 X100.148 Y108.599 E2.36508
G1 X100.622 Y107.725 E2.38492
G1 X101.033 Y107.042 E2.40083
G1 X101.525 Y106.296 E2.41866
G1 X101.821 Y105.884 E2.42879
G1 X102.12 Y105.486 E2.43872
G1 X102.596 Y104.902 E2.45376
G1 X102.977 Y104.463 E2.46536
G1 X103.413 Y103.99 E2.47819
G0 F6000 X103.699 Y104.269
G1 F900 X104.299 Y103.671 E2.4951
G1 X104.611 Y103.38 E2.50361
G1 X105.11 Y102.944 E2.51684
G1 X105.7 Y102.459 E2.53208
G1 X106.359 Y101.958 E2.5486
G1 X106.774 Y101.668 E2.5587
G1 X107.281 Y101.336 E2.5708
G1 X108.023 Y100.889 E2.58808
G1 X108.382 Y100.688 E2.59629
G1 X108.893 Y100.42 E2.60781
G1 X109.258 Y100.241 E2.61592
G1 X110.001 Y99.911 E2.63215
G1 X110.922 Y99.544 E2.65193
G1 X111.831 Y99.229 E2.67113
G1 X112.259 Y99.102 E2.68004
G1 X112.81 Y98.954 E2.69142
G1 X113.266 Y98.845 E2.70078
G1 X114.119 Y98.671 E2.71815
G1 X114.995 Y98.542 E2.73582
G1 X115.867 Y98.45 E2.75332
G1 X116.619 Y98.397 E2.76837
G1 X117.09 Y98.381 E2.77777
G1 X117.805 Y98.381 E2.79204
G1 X118.462 Y98.403 E2.80516
G1 X119.166 Y98.45 E2.81924
G1 X119.654 Y98.499 E2.82903
G1 X120.411 Y98.603 E2.84427
G1 X121.262 Y98.751 E2.86151
G1 X122.23 Y98.966 E2.8813
G1 X122.715 Y99.098 E2.89133
G1 X123.514 Y99.35 E2.90805
G1 X124.419 Y99.675 E2.92724
G1 X125.192 Y99.987 E2.94388
G1 X125.527 Y100.138 E2.95121
G1 X126.019 Y100.376 E2.96212
G1 X126.439 Y100.592 E2.97154
G1 X126.943 Y100.868 E2.98301
G1 X127.314 Y101.085 E2.99158
G1 X128.048 Y101.556 E3.00899
G1 X128.868 Y102.131 E3.02897
G1 X129.586 Y102.682 E3.04704
G1 X129.899 Y102.944 E3.05518
G1 X130.501 Y103.488 E3.07137
G1 X131.054 Y104.028 E3.0868
G1 X131.595 Y104.597 E3.10247
G1 X132.009 Y105.066 E3.11495
G1 X132.463 Y105.617 E3.1292
G1 X132.78 Y106.029 E3.13957
G1 X133.196 Y106.609 E3.15382
G1 X133.547 Y107.135 E3.16644
G1 X133.931 Y107.755 E3.18099
G1 X134.185 Y108.199 E3.1912
G1 X134.527 Y108.849 E3.20585
G1 X134.819 Y109.453 E3.21924
G1 X135.092 Y110.066 E3.23263
G1 X135.306 Y110.591 E3.24395
G1 X135.515 Y111.143 E3.25573
G1 X135.689 Y111.658 E3.26658
G1 X135.899 Y112.374 E3.28147
G1 X136.024 Y112.854 E3.29136
G1 X136.176 Y113.525 E3.30509
G1 X136.317 Y114.259 E3.32001
G1 X136.439 Y115.058 E3.33614
G1 X136.496 Y115.558 E3.34618
G1 X136.547 Y116.153 E3.3581
G1 X136.568 Y116.52 E3.36544
G1 X136.582 Y117.376 E3.38252
G1 X136.557 Y118.437 E3.4037
G1 X136.498 Y119.33 E3.42156
G1 X136.453 Y119.745 E3.42989
G1 X136.369 Y120.357 E3.44222
G1 X136.275 Y120.917 E3.45355
G1 X136.076 Y121.844 E3.47247
G1 X135.758 Y123.031 E3.49699
G1 X135.566 Y123.644 E3.50981
G1 X134.827 Y125.818 E3.55563
G1 X134.078 Y128.239 E3.60621
G1 X133.856 Y128.999 E3.62201
G1 X133.56 Y129.871 E3.64038
G1 X133.189 Y130.714 E3.65876
G1 X132.747 Y131.521 E3.67713
G1 X132.236 Y132.287 E3.6955
G1 X131.661 Y133.006 E3.71387
G1 X131.026 Y133.672 E3.73224
G1 X130.335 Y134.281 E3.75062
G1 X129.594 Y134.827 E3.76899
G1 X128.808 Y135.307 E3.78737
G1 X127.984 Y135.717 E3.80573
G1 X127.127 Y136.054 E3.82411
G1 X126.244 Y136.315 E3.84249
G1 X125.342 Y136.499 E3.86086
G1 X124.427 Y136.604 E3.87924
G1 X123.696 Y136.63 E3.89383
G1 X122.871 Y136.63 E3.9103
G1 X117.581 Y136.559 E4.01587
G1 X116.977 Y136.542 E4.02793
G1 X116.143 Y136.498 E4.0446
G1 X115.566 Y136.451 E4.05615
G1 X115.039 Y136.391 E4.06674
G1 X114.609 Y136.331 E4.0754
G1 X113.712 Y136.167 E4.0936
G1 X112.99 Y136.002 E4.10838
G1 X112.256 Y135.806 E4.12354
G1 X111.444 Y135.558 E4.14048
G1 X110.608 Y135.264 E4.15817
G1 X110.265 Y135.127 E4.16554
G1 X109.532 Y134.801 E4.18155
G1 X108.826 Y134.455 E4.19724
G1 X108.126 Y134.079 E4.21309
G1 X107.562 Y133.748 E4.22614
G1 X106.974 Y133.376 E4.24003
G1 X106.563 Y133.097 E4.24994
G1 X105.973 Y132.667 E4.26451
G1 X105.481 Y132.281 E4.27699
G1 X104.924 Y131.812 E4.29152
G1 X104.536 Y131.462 E4.30195
G1 X104.025 Y130.969 E4.31612
G1 X103.583 Y130.513 E4.32879
G1 X103.106 Y129.986 E4.34298
G1 X102.735 Y129.548 E4.35443
G1 X102.239 Y128.916 E4.37047
G1 X101.771 Y128.27 E4.38639
G1 X101.266 Y127.505 E4.40468
G1 X101.032 Y127.115 E4.41375
G1 X100.637 Y126.396 E4.43013
G1 X100.287 Y125.695 E4.44576
G1 X99.964 Y124.984 E4.46135
G1 X99.669 Y124.265 E4.47685
G1 X99.383 Y123.481 E4.49351
G1 X99.253 Y123.076 E4.502
G1 X99.009 Y122.182 E4.52049
G1 X98.785 Y121.195 E4.54069
G1 X98.624 Y120.313 E4.55858
G1 X98.571 Y119.933 E4.56624
G1 X98.49 Y119.137 E4.5822
G1 X98.438 Y118.313 E4.59868
G1 X98.418 Y117.524 E4.61443
G1 X98.424 Y116.997 E4.62495
G1 X98.455 Y116.294 E4.63899
G1 X98.513 Y115.55 E4.65388
G1 X98.593 Y114.839 E4.66816
G1 X98.653 Y114.429 E4.67643
G1 X98.77 Y113.773 E4.68973
G1 X98.883 Y113.238 E4.70064
G1 X99.033 Y112.622 E4.71329
G1 X99.278 Y111.772 E4.73095
G1 X99.434 Y111.293 E4.741
G1 X99.665 Y110.654 E4.75456
G1 X99.835 Y110.227 E4.76373
G1 X100.144 Y109.525 E4.77904
G1 X100.508 Y108.774 E4.79569
G1 X100.965 Y107.932 E4.81481
G1 X101.376 Y107.249 E4.83072
G1 X101.849 Y106.529 E4.84791
G1 X102.145 Y106.117 E4.85803
G1 X102.584 Y105.544 E4.87244
G1 X102.899 Y105.164 E4.88229
G1 X103.28 Y104.725 E4.89389
G1 X103.699 Y104.269 E4.90625
G0 F6000 X103.985 Y104.549
G1 F900 X104.572 Y103.964 E4.92278
G1 X104.884 Y103.673 E4.9313
G1 X105.364 Y103.253 E4.94403
G1 X105.954 Y102.768 E4.95927
G1 X106.588 Y102.286 E4.97516
G1 X107.003 Y101.996 E4.98527
G1 X107.491 Y101.676 E4.99691
G1 X108.218 Y101.238 E5.01385
G1 X108.577 Y101.037 E5.02206
G1 X109.069 Y100.779 E5.03315
G1 X109.434 Y100.6 E5.04126
G1 X110.149 Y100.283 E5.05687
G1 X111.07 Y99.916 E5.07665
G1 X111.944 Y99.612 E5.09512
G1 X112.372 Y99.485 E5.10403
G1 X112.903 Y99.343 E5.115
G1 X113.359 Y99.234 E5.12435
G1 X114.194 Y99.064 E5.14136
G1 X115.037 Y98.939 E5.15836
G1 X115.909 Y98.847 E5.17586
G1 X116.633 Y98.797 E5.19035
G1 X117.104 Y98.781 E5.19975
G1 X117.791 Y98.781 E5.21346
G1 X118.448 Y98.803 E5.22658
G1 X119.126 Y98.848 E5.24014
G1 X119.614 Y98.897 E5.24993
G1 X120.343 Y98.997 E5.26461
G1 X121.194 Y99.145 E5.28185
G1 X122.125 Y99.352 E5.30088
G1 X122.61 Y99.484 E5.31091
G1 X123.378 Y99.726 E5.32698
G1 X124.283 Y100.051 E5.34617
G1 X125.027 Y100.352 E5.36219
G1 X125.362 Y100.503 E5.36952
G1 X125.836 Y100.731 E5.38002
G1 X126.256 Y100.947 E5.38944
G1 X126.741 Y101.213 E5.40048
G1 X127.112 Y101.43 E5.40906
G1 X127.818 Y101.884 E5.42581
G1 X128.638 Y102.459 E5.44579
G1 X129.329 Y102.988 E5.46316
G1 X129.642 Y103.25 E5.47131
G1 X130.221 Y103.774 E5.48689
G1 X130.774 Y104.314 E5.50231
G1 X131.295 Y104.862 E5.5174
G1 X131.709 Y105.331 E5.52989
G1 X132.146 Y105.861 E5.5436
G1 X132.463 Y106.273 E5.55397
G1 X132.863 Y106.831 E5.56767
G1 X133.214 Y107.357 E5.58029
G1 X133.584 Y107.954 E5.59431
G1 X133.838 Y108.398 E5.60452
G1 X134.167 Y109.023 E5.61861
G1 X134.459 Y109.627 E5.632
G1 X134.721 Y110.217 E5.64488
G1 X134.935 Y110.742 E5.6562
G1 X135.14 Y111.28 E5.66768
G1 X135.307 Y111.776 E5.67813
G1 X135.512 Y112.474 E5.69265
G1 X135.637 Y112.954 E5.70255
G1 X135.783 Y113.601 E5.71578
G1 X135.924 Y114.335 E5.7307
G1 X136.041 Y115.104 E5.74622
G1 X136.098 Y115.604 E5.75626
G1 X136.147 Y116.176 E5.76772
G1 X136.168 Y116.543 E5.77506
G1 X136.182 Y117.366 E5.79148
G1 X136.157 Y118.427 E5.81266
G1 X136.101 Y119.287 E5.82986
G1 X136.056 Y119.702 E5.83819
G1 X135.974 Y120.291 E5.85006
G1 X135.88 Y120.851 E5.86139
G1 X135.689 Y121.743 E5.87959
G1 X135.375 Y122.915 E5.90381
G1 X135.187 Y123.516 E5.91637
G1 X134.449 Y125.687 E5.96213
G1 X133.691 Y128.135 E6.01327
G1 X133.472 Y128.887 E6.0289
G1 X133.181 Y129.742 E6.04693
G1 X132.815 Y130.568 E6.06496
G1 X132.378 Y131.358 E6.08297
G1 X131.873 Y132.106 E6.10098
G1 X131.303 Y132.807 E6.11901
G1 X130.674 Y133.455 E6.13704
G1 X129.989 Y134.044 E6.15506
G1 X129.256 Y134.571 E6.17308
G1 X128.478 Y135.031 E6.19112
G1 X127.664 Y135.42 E6.20912
G1 X126.817 Y135.736 E6.22716
G1 X125.947 Y135.975 E6.24517
G1 X125.058 Y136.136 E6.2632
G1 X124.159 Y136.219 E6.28121
G1 X123.695 Y136.23 E6.29048
G1 X122.876 Y136.23 E6.30682
G1 X117.592 Y136.159 E6.41228
G1 X116.678 Y136.129 E6.43053
G1 X116.166 Y136.099 E6.44076
G1 X115.602 Y136.053 E6.45205
G1 X115.094 Y135.995 E6.46226
G1 X114.664 Y135.935 E6.47092
G1 X113.802 Y135.777 E6.48841
G1 X113.08 Y135.612 E6.50319
G1 X112.373 Y135.423 E6.51779
G1 X111.561 Y135.175 E6.53474
G1 X110.757 Y134.892 E6.55175
G1 X110.414 Y134.755 E6.55912
G1 X109.708 Y134.442 E6.57453
G1 X109.002 Y134.096 E6.59022
G1 X108.328 Y133.734 E6.60549
G1 X107.764 Y133.403 E6.61854
G1 X107.198 Y133.045 E6.6319
G1 X106.787 Y132.766 E6.64182
G1 X106.22 Y132.352 E6.65583
G1 X105.728 Y131.966 E6.66831
G1 X105.192 Y131.515 E6.68229
G1 X104.804 Y131.165 E6.69271
G1 X104.312 Y130.69 E6.70636
G1 X103.87 Y130.234 E6.71903
G1 X103.411 Y129.728 E6.73267
G1 X103.04 Y129.29 E6.74412
G1 X102.563 Y128.681 E6.75956
G1 X102.095 Y128.035 E6.77548
G1 X101.609 Y127.299 E6.79308
G1 X101.375 Y126.909 E6.80216
G1 X100.995 Y126.217 E6.81791
G1 X100.645 Y125.516 E6.83355
G1 X100.334 Y124.832 E6.84854
G1 X100.039 Y124.113 E6.86405
G1 X99.764 Y123.358 E6.88009
G1 X99.634 Y122.953 E6.88857
G1 X99.399 Y122.093 E6.90637
G1 X99.175 Y121.106 E6.92656
G1 X99.02 Y120.258 E6.94377
G1 X98.967 Y119.878 E6.95142
G1 X98.889 Y119.111 E6.96681
G1 X98.837 Y118.287 E6.98328
G1 X98.818 Y117.529 E6.99842
G1 X98.824 Y117.002 E7.00893
G1 X98.854 Y116.325 E7.02246
G1 X98.912 Y115.581 E7.03735
G1 X98.988 Y114.897 E7.05108
G1 X99.048 Y114.487 E7.05935
G1 X99.161 Y113.856 E7.07215
G1 X99.274 Y113.321 E7.08306
G1 X99.418 Y112.727 E7.09525
G1 X99.658 Y111.895 E7.11254
G1 X99.814 Y111.416 E7.12259
G1 X100.036 Y110.802 E7.13562
G1 X100.206 Y110.375 E7.14479
G1 X100.504 Y109.699 E7.15953
G1 X100.868 Y108.948 E7.17619
G1 X101.307 Y108.138 E7.19457
G1 X101.718 Y107.455 E7.21048
G1 X102.174 Y106.763 E7.22702
G1 X102.47 Y106.351 E7.23714
G1 X102.898 Y105.792 E7.25119
G1 X103.201 Y105.426 E7.26067
G1 X103.582 Y104.987 E7.27227
G1 X103.985 Y104.549 E7.28415
G1 F2700 E2.28415
;MESH:minox-supply-cap.stl
G0 F6000 X109.482 Y113.022
G0 X110.424 Y113.557
G0 X110.631 Y118.437
G0 X110.961 Y119.779
G0 X111.576 Y121.073
G0 X112.422 Y122.181
G0 X113.294 Y122.978
G0 X114.497 Y123.715
G0 X115.55 Y124.092
G0 X117.215 Y124.553
;TYPE:WALL-INNER
G1 F2700 E7.28415
G1 F900 X122.289 Y124.62 E7.38542
G1 X122.292 Y123.281 E7.41214
