;FLAVOR:Marlin
;TIME:3483
;Filament used: 2.06156m
;Layer height: 0.2
;MINX:50.2
;MINY:59.7
;MINZ:0.2
;MAXX:184.8
;MAXY:175.3
;MAXZ:2
;Generated with Cura_SteamEngine main
M140 S65
M105
M190 S65
M104 S240
M105
M109 S240
M82 ;absolute extrusion mode
; Ender 3 Custom Start G-code
G92 E0 ; Reset Extruder
G28 ; Home all axes
G1 Z2.0 F3000 ; Move Z Axis up little to prevent scratching of Heat Bed
G1 X0.1 Y20 Z0.3 F5000.0 ; Move to start position
G1 X0.1 Y200.0 Z0.3 F1500.0 E15 ; Draw the first line
G1 X0.4 Y200.0 Z0.3 F5000.0 ; Move to side a little
G1 X0.4 Y20 Z0.3 F1500.0 E30 ; Draw the second line
G92 E0 ; Reset Extruder
G1 Z2.0 F3000 ; Move Z Axis up little to prevent scratching of Heat Bed
G1 X5 Y20 Z0.3 F5000.0 ; Move over to prevent blob squish
G92 E0
G92 E0
G1 F2700 E-5
;LAYER_COUNT:10
;LAYER:0
M107
G0 F6000 X54.561 Y102.499 Z0.2
G0 X50.2 Y109.5
;TYPE:SKIRT
G1 F2700 E0
G1 F900 X50.24 Y108.711 E0.02628
G1 X50.359 Y107.931 E0.05252
G1 X50.557 Y107.166 E0.0788
G1 X50.831 Y106.426 E0.10505
G1 X51.179 Y105.717 E0.13132
G1 X51.597 Y105.046 E0.15761
G1 X52.08 Y104.422 E0.18385
G1 X52.623 Y103.849 E0.21011
G1 X53.222 Y103.334 E0.23638
G1 X53.87 Y102.883 E0.26264
G1 X54.561 Y102.499 E0.28894
G1 X55.286 Y102.187 E0.31519
G1 X56.039 Y101.95 E0.34144
G1 X56.813 Y101.791 E0.36773
G1 X57.598 Y101.71 E0.39397
G1 X58 Y101.7 E0.40735
G1 X159.2 Y101.7 E3.77327
G1 X159.2 Y69.5 E4.84425
G1 X159.24 Y68.711 E4.87053
G1 X159.359 Y67.931 E4.89677
G1 X159.557 Y67.166 E4.92305
G1 X159.831 Y66.426 E4.9493
G1 X160.179 Y65.717 E4.97557
G1 X160.597 Y65.046 E5.00186
G1 X161.08 Y64.422 E5.0281
G1 X161.485 Y63.985 E5.04792
G1 X163.485 Y61.985 E5.142
G1 X164.071 Y61.455 E5.16828
G1 X164.707 Y60.988 E5.19452
G1 X165.387 Y60.587 E5.22078
G1 X166.105 Y60.257 E5.24706
G1 X166.852 Y60.002 E5.27331
G1 X167.621 Y59.823 E5.29957
G1 X168.405 Y59.723 E5.32586
G1 X169 Y59.7 E5.34566
G1 X175 Y59.7 E5.54522
G1 X175.789 Y59.74 E5.5715
G1 X176.569 Y59.859 E5.59774
G1 X177.334 Y60.057 E5.62403
G1 X178.074 Y60.331 E5.65027
G1 X178.783 Y60.679 E5.67654
G1 X179.454 Y61.097 E5.70283
G1 X180.078 Y61.58 E5.72908
G1 X180.515 Y61.985 E5.7489
G1 X182.515 Y63.985 E5.84297
G1 X183.045 Y64.571 E5.86925
G1 X183.512 Y65.207 E5.89549
G1 X183.913 Y65.887 E5.92175
G1 X184.243 Y66.605 E5.94803
G1 X184.498 Y67.352 E5.97428
G1 X184.677 Y68.121 E6.00055
G1 X184.777 Y68.905 E6.02683
G1 X184.8 Y69.5 E6.04664
G1 X184.8 Y72.5 E6.14642
G1 X184.76 Y73.289 E6.17269
G1 X184.641 Y74.069 E6.19894
G1 X184.443 Y74.834 E6.22522
G1 X184.169 Y75.574 E6.25146
G1 X183.821 Y76.283 E6.27773
G1 X183.403 Y76.954 E6.30403
G1 X182.978 Y77.503 E6.32712
G1 X183.166 Y77.722 E6.33672
G1 X183.617 Y78.37 E6.36298
G1 X184.001 Y79.061 E6.38927
G1 X184.313 Y79.786 E6.41552
G1 X184.55 Y80.539 E6.44178
G1 X184.709 Y81.313 E6.46806
G1 X184.79 Y82.098 E6.49431
G1 X184.8 Y82.5 E6.50768
G1 X184.8 Y84.5 E6.5742
G1 X184.76 Y85.289 E6.60048
G1 X184.641 Y86.069 E6.62672
G1 X184.443 Y86.834 E6.653
G1 X184.169 Y87.574 E6.67925
G1 X183.8 Y88.317 E6.70684
G1 X183.8 Y146.695 E8.6485
G1 X183.913 Y146.887 E8.65591
G1 X184.243 Y147.605 E8.68219
G1 X184.498 Y148.352 E8.70845
G1 X184.677 Y149.121 E8.73471
G1 X184.777 Y149.905 E8.76099
G1 X184.8 Y150.5 E8.7808
G1 X184.8 Y152.5 E8.84732
G1 X184.76 Y153.289 E8.8736
G1 X184.641 Y154.069 E8.89984
G1 X184.443 Y154.834 E8.92612
G1 X184.169 Y155.574 E8.95237
G1 X183.821 Y156.283 E8.97864
G1 X183.403 Y156.954 E9.00493
G1 X182.978 Y157.503 E9.02802
G1 X183.166 Y157.722 E9.03762
G1 X183.617 Y158.37 E9.06388
G1 X184.001 Y159.061 E9.09017
G1 X184.313 Y159.786 E9.11642
G1 X184.55 Y160.539 E9.14268
G1 X184.709 Y161.313 E9.16896
G1 X184.79 Y162.098 E9.19521
G1 X184.8 Y162.5 E9.20858
G1 X184.8 Y165.5 E9.30836
G1 X184.76 Y166.289 E9.33464
G1 X184.641 Y167.069 E9.36088
G1 X184.443 Y167.834 E9.38717
G1 X184.169 Y168.574 E9.41341
G1 X183.821 Y169.283 E9.43968
G1 X183.403 Y169.954 E9.46597
G1 X182.92 Y170.578 E9.49222
G1 X182.515 Y171.015 E9.51204
G1 X180.515 Y173.015 E9.60611
G1 X179.929 Y173.545 E9.63239
G1 X179.293 Y174.012 E9.65863
G1 X178.613 Y174.413 E9.68489
G1 X177.895 Y174.743 E9.71117
G1 X177.148 Y174.998 E9.73743
G1 X176.379 Y175.177 E9.76369
G1 X175.595 Y175.277 E9.78997
G1 X175 Y175.3 E9.80978
G1 X169 Y175.3 E10.00934
G1 X168.211 Y175.26 E10.03561
G1 X167.431 Y175.141 E10.06186
G1 X166.666 Y174.943 E10.08814
G1 X165.926 Y174.669 E10.11439
G1 X165.217 Y174.321 E10.14065
G1 X164.546 Y173.903 E10.16695
G1 X163.922 Y173.42 E10.19319
G1 X163.485 Y173.015 E10.21301
G1 X161.485 Y171.015 E10.30708
G1 X160.955 Y170.429 E10.33336
G1 X160.488 Y169.793 E10.35961
G1 X160.087 Y169.113 E10.38586
G1 X159.757 Y168.395 E10.41215
G1 X159.502 Y167.648 E10.4384
G1 X159.323 Y166.879 E10.46466
G1 X159.223 Y166.095 E10.49095
G1 X159.2 Y165.5 E10.51075
G1 X159.2 Y133.3 E11.58173
G1 X58 Y133.3 E14.94765
G1 X57.211 Y133.26 E14.97393
G1 X56.431 Y133.141 E15.00017
G1 X55.666 Y132.943 E15.02646
G1 X54.926 Y132.669 E15.0527
G1 X54.217 Y132.321 E15.07897
G1 X53.546 Y131.903 E15.10526
G1 X52.922 Y131.42 E15.13151
G1 X52.349 Y130.877 E15.15776
G1 X51.834 Y130.278 E15.18404
G1 X51.383 Y129.63 E15.2103
G1 X50.999 Y128.939 E15.23659
G1 X50.687 Y128.214 E15.26284
G1 X50.45 Y127.461 E15.2891
G1 X50.291 Y126.687 E15.31538
G1 X50.21 Y125.902 E15.34163
G1 X50.2 Y125.5 E15.355
G1 X50.2 Y109.5 E15.88716
G0 F6000 X50.6 Y109.5
G1 F900 X50.64 Y108.732 E15.91274
G1 X50.759 Y107.972 E15.93833
G1 X50.957 Y107.229 E15.9639
G1 X51.231 Y106.51 E15.98949
G1 X51.578 Y105.824 E16.01506
G1 X51.994 Y105.177 E16.04065
G1 X52.475 Y104.577 E16.06622
G1 X53.016 Y104.03 E16.09181
G1 X53.611 Y103.542 E16.11741
G1 X54.253 Y103.119 E16.14298
G1 X54.936 Y102.764 E16.16858
G1 X55.651 Y102.483 E16.19413
G1 X56.393 Y102.277 E16.21974
G1 X57.151 Y102.149 E16.24531
G1 X58 Y102.1 E16.2736
G1 X159.6 Y102.1 E19.65283
G1 X159.6 Y69.5 E20.73711
G1 X159.64 Y68.732 E20.76269
G1 X159.759 Y67.972 E20.78827
G1 X159.957 Y67.229 E20.81385
G1 X160.231 Y66.51 E20.83944
G1 X160.578 Y65.824 E20.86501
G1 X160.994 Y65.177 E20.89059
G1 X161.475 Y64.577 E20.91617
G1 X161.767 Y64.267 E20.93033
G1 X163.767 Y62.267 E21.02441
G1 X164.339 Y61.753 E21.04998
G1 X164.961 Y61.3 E21.07558
G1 X165.626 Y60.914 E21.10115
G1 X166.328 Y60.599 E21.12674
G1 X167.059 Y60.359 E21.15233
G1 X167.81 Y60.196 E21.17789
G1 X168.575 Y60.112 E21.20349
G1 X169 Y60.1 E21.21763
G1 X175 Y60.1 E21.41719
G1 X175.768 Y60.14 E21.44277
G1 X176.528 Y60.259 E21.46836
G1 X177.271 Y60.457 E21.49393
G1 X177.99 Y60.731 E21.51952
G1 X178.676 Y61.078 E21.54509
G1 X179.323 Y61.494 E21.57067
G1 X179.923 Y61.975 E21.59625
G1 X180.233 Y62.267 E21.61042
G1 X182.233 Y64.267 E21.70449
G1 X182.747 Y64.839 E21.73007
G1 X183.2 Y65.461 E21.75566
G1 X183.586 Y66.126 E21.78123
G1 X183.901 Y66.828 E21.80683
G1 X184.141 Y67.559 E21.83242
G1 X184.304 Y68.31 E21.85798
G1 X184.388 Y69.075 E21.88357
G1 X184.4 Y69.5 E21.89771
G1 X184.4 Y72.5 E21.99749
G1 X184.36 Y73.268 E22.02307
G1 X184.241 Y74.028 E22.04866
G1 X184.043 Y74.771 E22.07423
G1 X183.769 Y75.49 E22.09983
G1 X183.422 Y76.176 E22.12539
G1 X183.006 Y76.823 E22.15098
G1 X182.458 Y77.507 E22.18013
G1 X182.958 Y78.111 E22.20621
G1 X183.381 Y78.753 E22.23178
G1 X183.736 Y79.436 E22.25738
G1 X184.017 Y80.151 E22.28293
G1 X184.223 Y80.893 E22.30855
G1 X184.351 Y81.651 E22.33411
G1 X184.4 Y82.5 E22.3624
G1 X184.4 Y84.5 E22.42892
G1 X184.36 Y85.268 E22.4545
G1 X184.241 Y86.028 E22.48008
G1 X184.043 Y86.771 E22.50566
G1 X183.769 Y87.49 E22.53125
G1 X183.4 Y88.21 E22.55816
G1 X183.4 Y146.806 E24.50707
G1 X183.586 Y147.126 E24.51938
G1 X183.901 Y147.828 E24.54497
G1 X184.141 Y148.559 E24.57056
G1 X184.304 Y149.31 E24.59612
G1 X184.388 Y150.075 E24.62172
G1 X184.4 Y150.5 E24.63586
G1 X184.4 Y152.5 E24.70238
G1 X184.36 Y153.268 E24.72796
G1 X184.241 Y154.028 E24.75354
G1 X184.043 Y154.771 E24.77912
G1 X183.769 Y155.49 E24.80471
G1 X183.422 Y156.176 E24.83028
G1 X183.006 Y156.823 E24.85586
G1 X182.458 Y157.507 E24.88501
G1 X182.958 Y158.111 E24.91109
G1 X183.381 Y158.753 E24.93666
G1 X183.736 Y159.436 E24.96227
G1 X184.017 Y160.151 E24.98782
G1 X184.223 Y160.893 E25.01343
G1 X184.351 Y161.651 E25.039
G1 X184.4 Y162.5 E25.06728
G1 X184.4 Y165.5 E25.16706
G1 X184.36 Y166.268 E25.19264
G1 X184.241 Y167.028 E25.21823
G1 X184.043 Y167.771 E25.2438
G1 X183.769 Y168.49 E25.26939
G1 X183.422 Y169.176 E25.29496
G1 X183.006 Y169.823 E25.32055
G1 X182.525 Y170.423 E25.34612
G1 X182.233 Y170.733 E25.36029
G1 X180.233 Y172.733 E25.45436
G1 X179.661 Y173.247 E25.47994
G1 X179.039 Y173.7 E25.50553
G1 X178.374 Y174.086 E25.53111
G1 X177.672 Y174.401 E25.5567
G1 X176.941 Y174.641 E25.58229
G1 X176.19 Y174.804 E25.60785
G1 X175.425 Y174.888 E25.63345
G1 X175 Y174.9 E25.64759
G1 X169 Y174.9 E25.84715
G1 X168.232 Y174.86 E25.87273
G1 X167.472 Y174.741 E25.89831
G1 X166.729 Y174.543 E25.92389
G1 X166.01 Y174.269 E25.94948
G1 X165.324 Y173.922 E25.97505
G1 X164.677 Y173.506 E26.00063
G1 X164.077 Y173.025 E26.02621
G1 X163.767 Y172.733 E26.04037
G1 X161.767 Y170.733 E26.13445
G1 X161.253 Y170.161 E26.16002
G1 X160.8 Y169.539 E26.18562
G1 X160.414 Y168.874 E26.21119
G1 X160.099 Y168.172 E26.23678
G1 X159.859 Y167.441 E26.26237
G1 X159.696 Y166.69 E26.28793
G1 X159.612 Y165.925 E26.31353
G1 X159.6 Y165.5 E26.32767
G1 X159.6 Y132.9 E27.41195
G1 X58 Y132.9 E30.79118
G1 X57.232 Y132.86 E30.81676
G1 X56.472 Y132.741 E30.84234
G1 X55.729 Y132.543 E30.86792
G1 X55.01 Y132.269 E30.89351
G1 X54.324 Y131.922 E30.91908
G1 X53.677 Y131.506 E30.94466
G1 X53.077 Y131.025 E30.97024
G1 X52.53 Y130.484 E30.99583
G1 X52.042 Y129.889 E31.02142
G1 X51.619 Y129.247 E31.04699
G1 X51.264 Y128.564 E31.0726
G1 X50.983 Y127.849 E31.09815
G1 X50.777 Y127.107 E31.12376
G1 X50.649 Y126.349 E31.14933
G1 X50.6 Y125.5 E31.17761
G1 X50.6 Y109.5 E31.70978
G0 F6000 X51 Y109.5
G1 F900 X51.04 Y108.753 E31.73466
G1 X51.159 Y108.015 E31.75952
G1 X51.357 Y107.293 E31.78442
G1 X51.63 Y106.597 E31.80929
G1 X51.977 Y105.934 E31.83418
G1 X52.392 Y105.311 E31.85907
G1 X52.871 Y104.737 E31.88394
G1 X53.408 Y104.216 E31.90882
G1 X53.998 Y103.757 E31.93369
G1 X54.634 Y103.362 E31.95859
G1 X55.308 Y103.038 E31.98346
G1 X56.013 Y102.788 E32.00834
G1 X56.741 Y102.614 E32.03323
G1 X57.483 Y102.519 E32.05812
G1 X58 Y102.5 E32.07532
G1 X160 Y102.5 E35.46786
G1 X160 Y69.5 E36.56544
G1 X160.04 Y68.753 E36.59032
G1 X160.159 Y68.015 E36.61518
G1 X160.357 Y67.293 E36.64009
G1 X160.63 Y66.597 E36.66495
G1 X160.977 Y65.934 E36.68984
G1 X161.392 Y65.311 E36.71474
G1 X162.05 Y64.55 E36.7482
G1 X164.05 Y62.55 E36.84227
G1 X164.607 Y62.05 E36.86717
G1 X165.213 Y61.613 E36.89202
G1 X165.863 Y61.242 E36.91691
G1 X166.549 Y60.943 E36.9418
G1 X167.263 Y60.719 E36.96669
G1 X167.996 Y60.572 E36.99155
G1 X169 Y60.5 E37.02503
G1 X175 Y60.5 E37.22459
G1 X175.747 Y60.54 E37.24947
G1 X176.485 Y60.659 E37.27434
G1 X177.207 Y60.857 E37.29924
G1 X177.903 Y61.13 E37.3241
G1 X178.566 Y61.477 E37.34899
G1 X179.189 Y61.892 E37.37389
G1 X179.95 Y62.55 E37.40735
G1 X181.95 Y64.55 E37.50142
G1 X182.45 Y65.107 E37.52632
G1 X182.887 Y65.713 E37.55117
G1 X183.258 Y66.363 E37.57606
G1 X183.557 Y67.049 E37.60095
G1 X183.781 Y67.763 E37.62584
G1 X183.928 Y68.496 E37.65071
G1 X184 Y69.5 E37.68418
G1 X184 Y72.5 E37.78397
G1 X183.96 Y73.247 E37.80885
G1 X183.841 Y73.985 E37.83371
G1 X183.643 Y74.707 E37.85861
G1 X183.37 Y75.403 E37.88348
G1 X183.023 Y76.066 E37.90836
G1 X182.608 Y76.689 E37.93326
G1 X182.129 Y77.263 E37.95813
G1 X181.886 Y77.498 E37.96937
G1 X182.284 Y77.908 E37.98838
G1 X182.743 Y78.498 E38.01324
G1 X183.138 Y79.134 E38.03814
G1 X183.462 Y79.808 E38.06301
G1 X183.712 Y80.513 E38.08789
G1 X183.886 Y81.241 E38.11279
G1 X183.981 Y81.983 E38.13767
G1 X184 Y82.5 E38.15487
G1 X184 Y84.5 E38.2214
G1 X183.96 Y85.247 E38.24628
G1 X183.841 Y85.985 E38.27114
G1 X183.643 Y86.707 E38.29604
G1 X183.37 Y87.403 E38.32091
G1 X183 Y88.101 E38.34718
G1 X183 Y146.911 E40.30321
G1 X183.258 Y147.363 E40.32052
G1 X183.557 Y148.049 E40.34541
G1 X183.781 Y148.763 E40.3703
G1 X183.928 Y149.496 E40.39516
G1 X184 Y150.5 E40.42864
G1 X184 Y152.5 E40.49516
G1 X183.96 Y153.247 E40.52004
G1 X183.841 Y153.985 E40.54491
G1 X183.643 Y154.707 E40.56981
G1 X183.37 Y155.403 E40.59467
G1 X183.023 Y156.066 E40.61956
G1 X182.608 Y156.689 E40.64446
G1 X182.129 Y157.263 E40.66933
G1 X181.886 Y157.498 E40.68057
G1 X182.284 Y157.908 E40.69957
G1 X182.743 Y158.498 E40.72444
G1 X183.138 Y159.134 E40.74934
G1 X183.462 Y159.808 E40.77421
G1 X183.712 Y160.513 E40.79909
G1 X183.886 Y161.241 E40.82399
G1 X183.981 Y161.983 E40.84887
G1 X184 Y162.5 E40.86607
G1 X184 Y165.5 E40.96585
G1 X183.96 Y166.247 E40.99073
G1 X183.841 Y166.985 E41.0156
G1 X183.643 Y167.707 E41.0405
G1 X183.37 Y168.403 E41.06536
G1 X183.023 Y169.066 E41.09025
G1 X182.608 Y169.689 E41.11515
G1 X181.95 Y170.45 E41.14861
G1 X179.95 Y172.45 E41.24268
G1 X179.393 Y172.95 E41.26758
G1 X178.787 Y173.387 E41.29243
G1 X178.137 Y173.758 E41.31732
G1 X177.451 Y174.057 E41.34221
G1 X176.737 Y174.281 E41.3671
G1 X176.004 Y174.428 E41.39197
G1 X175 Y174.5 E41.42544
G1 X169 Y174.5 E41.62501
G1 X168.253 Y174.46 E41.64989
G1 X167.515 Y174.341 E41.67475
G1 X166.793 Y174.143 E41.69965
G1 X166.097 Y173.87 E41.72452
G1 X165.434 Y173.523 E41.74941
G1 X164.811 Y173.108 E41.7743
G1 X164.05 Y172.45 E41.80776
G1 X162.05 Y170.45 E41.90184
G1 X161.55 Y169.893 E41.92673
G1 X161.113 Y169.287 E41.95158
G1 X160.742 Y168.637 E41.97647
G1 X160.443 Y167.951 E42.00136
G1 X160.219 Y167.237 E42.02625
G1 X160.072 Y166.504 E42.05112
G1 X160 Y165.5 E42.0846
G1 X160 Y132.5 E43.18218
G1 X58 Y132.5 E46.57472
G1 X57.253 Y132.46 E46.5996
G1 X56.515 Y132.341 E46.62446
G1 X55.793 Y132.143 E46.64936
G1 X55.097 Y131.87 E46.67423
G1 X54.434 Y131.523 E46.69912
G1 X53.811 Y131.108 E46.72401
G1 X53.237 Y130.629 E46.74888
G1 X52.716 Y130.092 E46.77376
G1 X52.257 Y129.502 E46.79863
G1 X51.862 Y128.866 E46.82353
G1 X51.538 Y128.192 E46.8484
G1 X51.288 Y127.487 E46.87328
G1 X51.114 Y126.759 E46.89817
G1 X51.019 Y126.017 E46.92306
G1 X51 Y125.5 E46.94026
G1 X51 Y109.5 E47.47242
G0 F6000 X51.4 Y109.5
G1 F900 X51.44 Y108.775 E47.49657
G1 X51.559 Y108.058 E47.52075
G1 X51.757 Y107.359 E47.54491
G1 X52.03 Y106.686 E47.56907
G1 X52.375 Y106.047 E47.59322
G1 X52.789 Y105.45 E47.61738
G1 X53.265 Y104.902 E47.64153
G1 X53.799 Y104.409 E47.6657
G1 X54.384 Y103.979 E47.68985
G1 X55.013 Y103.615 E47.71402
G1 X55.678 Y103.322 E47.73819
G1 X56.371 Y103.104 E47.76235
G1 X57.083 Y102.964 E47.78649
G1 X58 Y102.9 E47.81706
G1 X160.4 Y102.9 E51.2229
G1 X160.4 Y69.5 E52.33379
G1 X160.44 Y68.775 E52.35794
G1 X160.559 Y68.058 E52.38211
G1 X160.757 Y67.359 E52.40627
G1 X161.03 Y66.686 E52.43043
G1 X161.375 Y66.047 E52.45458
G1 X161.789 Y65.45 E52.47875
G1 X162.333 Y64.833 E52.5061
G1 X164.333 Y62.833 E52.60018
G1 X164.874 Y62.349 E52.62432
G1 X165.465 Y61.926 E52.64849
G1 X166.099 Y61.572 E52.67265
G1 X166.768 Y61.289 E52.69681
G1 X167.464 Y61.081 E52.72097
G1 X168.179 Y60.951 E52.74514
G1 X169 Y60.9 E52.7725
G1 X175 Y60.9 E52.97206
G1 X175.725 Y60.94 E52.99621
G1 X176.442 Y61.059 E53.02038
G1 X177.141 Y61.257 E53.04454
G1 X177.814 Y61.53 E53.0687
G1 X178.453 Y61.875 E53.09285
G1 X179.05 Y62.289 E53.11702
G1 X179.667 Y62.833 E53.14438
G1 X181.667 Y64.833 E53.23845
G1 X182.151 Y65.374 E53.26259
G1 X182.574 Y65.965 E53.28677
G1 X182.928 Y66.599 E53.31092
G1 X183.211 Y67.268 E53.33508
G1 X183.419 Y67.964 E53.35924
G1 X183.549 Y68.679 E53.38341
G1 X183.6 Y69.5 E53.41077
G1 X183.6 Y72.5 E53.51055
G1 X183.56 Y73.225 E53.5347
G1 X183.441 Y73.942 E53.55887
G1 X183.243 Y74.641 E53.58304
