;FLAVOR:Marlin
;TIME:882
;Filament used: 0.247105m
;Layer height: 0.2
;MINX:104.194
;MINY:102.2
;MINZ:0.2
;MAXX:130.8
;MAXY:127.3
;MAXZ:10
;Generated with Cura_SteamEngine main
M140 S65
M105
M190 S65
M104 S240
M105
M109 S240
M82 ;absolute extrusion mode
; Ender 3 Custom Start G-code
G92 E0 ; Reset Extruder
G28 ; Home all axes
G1 Z2.0 F3000 ; Move Z Axis up little to prevent scratching of Heat Bed
G1 X0.1 Y20 Z0.3 F5000.0 ; Move to start position
G1 X0.1 Y200.0 Z0.3 F1500.0 E15 ; Draw the first line
G1 X0.4 Y200.0 Z0.3 F5000.0 ; Move to side a little
G1 X0.4 Y20 Z0.3 F1500.0 E30 ; Draw the second line
G92 E0 ; Reset Extruder
G1 Z2.0 F3000 ; Move Z Axis up little to prevent scratching of Heat Bed
G1 X5 Y20 Z0.3 F5000.0 ; Move over to prevent blob squish
G92 E0
G92 E0
G1 F2700 E-5
;LAYER_COUNT:50
;LAYER:0
M107
G0 F6000 X106.485 Y105.485 Z0.2
G0 X104.194 Y112.857
;TYPE:SKIRT
G1 F2700 E0
G1 F900 X104.241 Y111.954 E0.03007
G1 X104.21 Y111.652 E0.04017
G1 X104.2 Y111 E0.06186
G1 X104.24 Y110.211 E0.08814
G1 X104.359 Y109.431 E0.11438
G1 X104.557 Y108.666 E0.14066
G1 X104.831 Y107.926 E0.16691
G1 X105.179 Y107.217 E0.19318
G1 X105.597 Y106.546 E0.21947
G1 X106.08 Y105.922 E0.24571
G1 X106.485 Y105.485 E0.26553
G1 X107.485 Y104.485 E0.31257
G1 X108.071 Y103.955 E0.33885
G1 X108.707 Y103.488 E0.36509
G1 X109.387 Y103.087 E0.39135
G1 X110.105 Y102.757 E0.41763
G1 X110.852 Y102.502 E0.44388
G1 X111.621 Y102.323 E0.47014
G1 X112.405 Y102.223 E0.49643
G1 X113 Y102.2 E0.51624
G1 X116.447 Y102.2 E0.63088
G1 X117.236 Y102.24 E0.65716
G1 X118.096 Y102.371 E0.68609
G1 X118.303 Y102.323 E0.69316
G1 X119.087 Y102.223 E0.71945
G1 X119.682 Y102.2 E0.73925
G1 X123 Y102.2 E0.84961
G1 X123.789 Y102.24 E0.87589
G1 X124.569 Y102.359 E0.90213
G1 X125.334 Y102.557 E0.92841
G1 X126.074 Y102.831 E0.95466
G1 X126.783 Y103.179 E0.98093
G1 X127.454 Y103.597 E1.00722
G1 X128.078 Y104.08 E1.03347
G1 X128.651 Y104.623 E1.05972
G1 X129.166 Y105.222 E1.086
G1 X129.617 Y105.87 E1.11225
G1 X130.001 Y106.561 E1.13855
G1 X130.313 Y107.286 E1.1648
G1 X130.55 Y108.039 E1.19105
G1 X130.709 Y108.813 E1.21734
G1 X130.79 Y109.598 E1.24358
G1 X130.8 Y110.15 E1.26195
G1 X130.76 Y110.939 E1.28822
G1 X130.641 Y111.719 E1.31447
G1 X130.568 Y112.001 E1.32415
G1 X130.672 Y112.441 E1.33919
G1 X130.775 Y113.224 E1.36546
G1 X130.8 Y114 E1.39128
G1 X130.759 Y114.796 E1.41779
G1 X130.79 Y115.098 E1.42789
G1 X130.8 Y115.65 E1.44625
G1 X130.76 Y116.439 E1.47253
G1 X130.641 Y117.219 E1.49877
G1 X130.568 Y117.501 E1.50846
G1 X130.672 Y117.941 E1.5235
G1 X130.775 Y118.724 E1.54976
G1 X130.8 Y119.5 E1.57559
G1 X130.76 Y120.289 E1.60186
G1 X130.641 Y121.069 E1.62811
G1 X130.443 Y121.834 E1.65439
G1 X130.169 Y122.574 E1.68063
G1 X129.821 Y123.283 E1.7069
G1 X129.403 Y123.954 E1.7332
G1 X128.92 Y124.578 E1.75944
G1 X128.377 Y125.151 E1.7857
G1 X127.778 Y125.666 E1.81197
G1 X127.13 Y126.117 E1.83823
G1 X126.439 Y126.501 E1.86452
G1 X125.714 Y126.813 E1.89078
G1 X124.961 Y127.05 E1.91703
G1 X124.187 Y127.209 E1.94331
G1 X123.402 Y127.29 E1.96956
G1 X123 Y127.3 E1.98294
G1 X119.682 Y127.3 E2.09329
G1 X118.893 Y127.26 E2.11957
G1 X118.033 Y127.129 E2.1485
G1 X117.826 Y127.177 E2.15557
G1 X117.042 Y127.277 E2.18186
G1 X116.447 Y127.3 E2.20166
G1 X113 Y127.3 E2.31631
G1 X112.211 Y127.26 E2.34258
G1 X111.431 Y127.141 E2.36883
G1 X110.666 Y126.943 E2.39511
G1 X109.926 Y126.669 E2.42136
G1 X109.217 Y126.321 E2.44762
G1 X108.546 Y125.903 E2.47392
G1 X107.922 Y125.42 E2.50016
G1 X107.485 Y125.015 E2.51998
G1 X106.485 Y124.015 E2.56702
G1 X105.955 Y123.429 E2.5933
G1 X105.488 Y122.793 E2.61954
G1 X105.087 Y122.113 E2.6458
G1 X104.757 Y121.395 E2.67208
G1 X104.502 Y120.648 E2.69833
G1 X104.323 Y119.879 E2.72459
G1 X104.223 Y119.095 E2.75088
G1 X104.194 Y118.357 E2.77545
G1 X104.241 Y117.454 E2.80552
G1 X104.21 Y117.152 E2.81562
G1 X104.2 Y116.5 E2.83731
G1 X104.24 Y115.711 E2.86358
G1 X104.359 Y114.931 E2.88982
G1 X104.408 Y114.743 E2.89629
G1 X104.323 Y114.379 E2.90872
G1 X104.223 Y113.595 E2.93501
G1 X104.194 Y112.857 E2.95957
G0 F6000 X104.992 Y112.888
G1 F900 X105.045 Y111.971 E2.99012
G1 X105.019 Y111.767 E2.99696
G1 X104.995 Y111.102 E3.01909
G1 X105.04 Y110.253 E3.04737
G1 X105.159 Y109.515 E3.07223
G1 X105.357 Y108.793 E3.09713
G1 X105.63 Y108.097 E3.122
G1 X105.977 Y107.434 E3.14689
G1 X106.392 Y106.811 E3.17179
G1 X107.05 Y106.05 E3.20525
G1 X108.05 Y105.05 E3.25229
G1 X108.607 Y104.55 E3.27718
G1 X109.213 Y104.113 E3.30203
G1 X109.863 Y103.742 E3.32692
G1 X110.549 Y103.443 E3.35181
G1 X111.263 Y103.219 E3.3767
G1 X111.996 Y103.072 E3.40157
G1 X113 Y103 E3.43505
G1 X116.447 Y103 E3.54969
G1 X117.194 Y103.04 E3.57457
G1 X117.932 Y103.159 E3.59944
G1 X118.064 Y103.195 E3.60399
G1 X118.678 Y103.072 E3.62482
G1 X119.682 Y103 E3.65829
G1 X123 Y103 E3.76865
G1 X123.747 Y103.04 E3.79353
G1 X124.485 Y103.159 E3.8184
G1 X125.207 Y103.357 E3.8433
G1 X125.903 Y103.63 E3.86816
G1 X126.566 Y103.977 E3.89305
G1 X127.189 Y104.392 E3.91795
G1 X127.763 Y104.871 E3.94281
G1 X128.284 Y105.408 E3.9677
G1 X128.743 Y105.998 E3.99256
G1 X129.138 Y106.634 E4.01746
G1 X129.462 Y107.308 E4.04234
G1 X129.712 Y108.013 E4.06721
G1 X129.886 Y108.741 E4.09211
G1 X129.981 Y109.483 E4.11699
G1 X130 Y110.15 E4.13918
G1 X129.96 Y110.897 E4.16407
G1 X129.841 Y111.635 E4.18893
G1 X129.75 Y111.968 E4.20041
G1 X129.924 Y112.819 E4.2293
G1 X130.005 Y113.916 E4.26589
G1 X129.955 Y114.779 E4.29464
G1 X129.981 Y114.983 E4.30148
G1 X130 Y115.65 E4.32367
G1 X129.96 Y116.397 E4.34855
G1 X129.841 Y117.135 E4.37341
G1 X129.75 Y117.468 E4.3849
G1 X129.924 Y118.319 E4.41379
G1 X130.005 Y119.413 E4.45027
G1 X129.96 Y120.247 E4.47805
G1 X129.841 Y120.985 E4.50291
G1 X129.643 Y121.707 E4.52782
G1 X129.37 Y122.403 E4.55268
G1 X129.023 Y123.066 E4.57757
G1 X128.608 Y123.689 E4.60247
G1 X128.129 Y124.263 E4.62733
G1 X127.592 Y124.784 E4.65222
G1 X127.002 Y125.243 E4.67708
G1 X126.366 Y125.638 E4.70198
G1 X125.692 Y125.962 E4.72686
G1 X124.987 Y126.212 E4.75173
G1 X124.259 Y126.386 E4.77663
G1 X123.517 Y126.481 E4.80151
G1 X123 Y126.5 E4.81872
G1 X119.682 Y126.5 E4.92907
G1 X118.935 Y126.46 E4.95396
G1 X118.197 Y126.341 E4.97882
G1 X118.065 Y126.305 E4.98337
G1 X117.451 Y126.428 E5.0042
G1 X116.447 Y126.5 E5.03768
G1 X113 Y126.5 E5.15232
G1 X112.253 Y126.46 E5.1772
G1 X111.515 Y126.341 E5.20207
G1 X110.793 Y126.143 E5.22697
G1 X110.097 Y125.87 E5.25183
G1 X109.434 Y125.523 E5.27672
G1 X108.811 Y125.108 E5.30162
G1 X108.05 Y124.45 E5.33508
G1 X107.05 Y123.45 E5.38212
G1 X106.55 Y122.893 E5.40701
G1 X106.113 Y122.287 E5.43186
G1 X105.742 Y121.637 E5.45676
G1 X105.443 Y120.951 E5.48165
G1 X105.219 Y120.237 E5.50653
G1 X105.072 Y119.504 E5.5314
G1 X104.992 Y118.388 E5.56861
G1 X105.045 Y117.471 E5.59916
G1 X105.019 Y117.267 E5.606
G1 X104.995 Y116.602 E5.62814
G1 X105.04 Y115.753 E5.65641
G1 X105.159 Y115.015 E5.68128
G1 X105.228 Y114.765 E5.6899
G1 X105.072 Y114.004 E5.71574
G1 X104.992 Y112.888 E5.75295
G0 F6000 X105.793 Y112.869
G1 F900 X105.84 Y112.047 E5.78034
G1 X105.827 Y111.831 E5.78753
G1 X105.794 Y111.112 E5.81147
G1 X105.84 Y110.297 E5.83862
G1 X105.959 Y109.603 E5.86204
G1 X106.157 Y108.928 E5.88544
G1 X106.429 Y108.279 E5.90884
G1 X106.774 Y107.665 E5.93227
G1 X107.185 Y107.094 E5.95567
G1 X107.616 Y106.616 E5.97708
G1 X108.616 Y105.616 E6.02411
G1 X109.141 Y105.147 E6.04753
G1 X109.716 Y104.741 E6.07094
G1 X110.334 Y104.403 E6.09437
G1 X110.985 Y104.136 E6.11777
G1 X111.663 Y103.946 E6.14119
G1 X112.358 Y103.833 E6.16461
G1 X113 Y103.8 E6.18599
G1 X116.447 Y103.8 E6.30064
G1 X117.15 Y103.84 E6.32406
G1 X117.844 Y103.959 E6.34748
G1 X118.066 Y104.024 E6.35517
G1 X118.345 Y103.946 E6.36481
G1 X119.04 Y103.833 E6.38822
G1 X119.682 Y103.8 E6.40961
G1 X123 Y103.8 E6.51996
G1 X123.703 Y103.84 E6.54338
G1 X124.397 Y103.959 E6.5668
G1 X125.072 Y104.157 E6.5902
G1 X125.721 Y104.429 E6.6136
G1 X126.335 Y104.774 E6.63703
G1 X126.906 Y105.185 E6.66043
G1 X127.427 Y105.659 E6.68385
G1 X127.891 Y106.189 E6.70728
G1 X128.291 Y106.768 E6.73069
G1 X128.623 Y107.389 E6.75411
G1 X128.883 Y108.043 E6.77752
G1 X129.067 Y108.723 E6.80095
G1 X129.173 Y109.419 E6.82437
G1 X129.204 Y110.083 E6.84647
G1 X129.16 Y110.853 E6.87213
G1 X129.041 Y111.547 E6.89555
G1 X128.909 Y111.999 E6.91121
G1 X129.049 Y112.489 E6.92816
G1 X129.164 Y113.183 E6.95155
G1 X129.204 Y113.927 E6.97634
G1 X129.16 Y114.703 E7.00219
G1 X129.173 Y114.919 E7.00938
G1 X129.204 Y115.583 E7.03149
G1 X129.16 Y116.353 E7.05714
G1 X129.041 Y117.047 E7.08056
G1 X128.909 Y117.499 E7.09623
G1 X129.049 Y117.989 E7.11318
G1 X129.164 Y118.683 E7.13657
G1 X129.204 Y119.427 E7.16135
G1 X129.16 Y120.203 E7.18721
G1 X129.041 Y120.897 E7.21062
G1 X128.843 Y121.572 E7.23402
G1 X128.571 Y122.221 E7.25743
G1 X128.226 Y122.835 E7.28085
G1 X127.815 Y123.406 E7.30425
G1 X127.341 Y123.927 E7.32768
G1 X126.811 Y124.391 E7.35111
G1 X126.232 Y124.791 E7.37451
G1 X125.611 Y125.123 E7.39793
G1 X124.957 Y125.383 E7.42134
G1 X124.277 Y125.567 E7.44477
G1 X123.581 Y125.673 E7.46819
G1 X123 Y125.7 E7.48753
G1 X119.682 Y125.7 E7.59789
G1 X118.979 Y125.66 E7.62131
G1 X118.285 Y125.541 E7.64473
G1 X118.063 Y125.476 E7.65242
G1 X117.784 Y125.554 E7.66206
G1 X117.089 Y125.667 E7.68548
G1 X116.447 Y125.7 E7.70686
G1 X113 Y125.7 E7.82151
G1 X112.297 Y125.66 E7.84493
G1 X111.603 Y125.541 E7.86835
G1 X110.928 Y125.343 E7.89174
G1 X110.279 Y125.071 E7.91515
G1 X109.665 Y124.726 E7.93857
G1 X109.094 Y124.315 E7.96197
G1 X108.616 Y123.884 E7.98338
G1 X107.616 Y122.884 E8.03042
G1 X107.147 Y122.359 E8.05383
G1 X106.741 Y121.784 E8.07724
G1 X106.403 Y121.166 E8.10067
G1 X106.136 Y120.515 E8.12407
G1 X105.946 Y119.837 E8.14749
G1 X105.833 Y119.142 E8.17091
G1 X105.793 Y118.369 E8.19665
G1 X105.84 Y117.547 E8.22404
G1 X105.827 Y117.331 E8.23124
G1 X105.794 Y116.612 E8.25518
G1 X105.84 Y115.797 E8.28233
G1 X105.959 Y115.103 E8.30575
G1 X106.062 Y114.751 E8.31794
G1 X105.946 Y114.337 E8.33224
G1 X105.833 Y113.642 E8.35566
G1 X105.793 Y112.869 E8.38141
G0 F6000 X106.591 Y112.898
G1 F900 X106.64 Y112.094 E8.4082
G1 X106.633 Y111.843 E8.41655
G1 X106.593 Y111.119 E8.44067
G1 X106.64 Y110.344 E8.46649
G1 X106.759 Y109.698 E8.48834
G1 X106.956 Y109.071 E8.5102
G1 X107.228 Y108.473 E8.53205
G1 X107.57 Y107.912 E8.5539
G1 X108.182 Y107.182 E8.58558
G1 X109.182 Y106.182 E8.63262
G1 X109.674 Y105.746 E8.65449
G1 X110.215 Y105.374 E8.67632
G1 X110.797 Y105.07 E8.69816
G1 X111.412 Y104.839 E8.72001
G1 X112.051 Y104.684 E8.74188
G1 X113 Y104.6 E8.77357
G1 X116.447 Y104.6 E8.88822
G1 X117.103 Y104.64 E8.91008
G1 X117.749 Y104.759 E8.93192
G1 X118.053 Y104.854 E8.94252
G1 X118.733 Y104.684 E8.96583
G1 X119.682 Y104.6 E8.99752
G1 X123 Y104.6 E9.10787
G1 X123.656 Y104.64 E9.12973
G1 X124.302 Y104.759 E9.15158
G1 X124.929 Y104.956 E9.17344
G1 X125.527 Y105.228 E9.19529
G1 X126.088 Y105.57 E9.21714
G1 X126.603 Y105.978 E9.239
G1 X127.065 Y106.445 E9.26085
G1 X127.466 Y106.965 E9.28269
G1 X127.802 Y107.529 E9.30452
G1 X128.066 Y108.131 E9.32638
G1 X128.256 Y108.76 E9.34824
G1 X128.367 Y109.407 E9.37007
G1 X128.404 Y110.078 E9.39242
G1 X128.36 Y110.806 E9.41668
G1 X128.241 Y111.452 E9.43853
G1 X128.066 Y112.009 E9.45795
G1 X128.155 Y112.242 E9.46624
G1 X128.312 Y112.879 E9.48806
G1 X128.405 Y113.91 E9.52249
G1 X128.36 Y114.656 E9.54735
G1 X128.367 Y114.907 E9.5557
G1 X128.404 Y115.578 E9.57806
G1 X128.36 Y116.306 E9.60231
G1 X128.241 Y116.952 E9.62416
G1 X128.066 Y117.509 E9.64358
G1 X128.155 Y117.742 E9.65187
G1 X128.312 Y118.379 E9.6737
G1 X128.405 Y119.41 E9.70813
G1 X128.36 Y120.156 E9.73298
G1 X128.241 Y120.802 E9.75483
G1 X128.044 Y121.429 E9.77669
G1 X127.772 Y122.027 E9.79854
G1 X127.43 Y122.588 E9.82039
G1 X127.022 Y123.103 E9.84225
G1 X126.555 Y123.565 E9.86409
G1 X126.035 Y123.966 E9.88594
G1 X125.471 Y124.302 E9.90777
G1 X124.869 Y124.566 E9.92963
G1 X124.24 Y124.756 E9.95149
G1 X123.593 Y124.867 E9.97332
G1 X123 Y124.9 E9.99308
G1 X119.682 Y124.9 E10.10343
G1 X119.026 Y124.86 E10.12529
G1 X118.38 Y124.741 E10.14714
G1 X118.076 Y124.646 E10.15773
G1 X117.396 Y124.816 E10.18105
G1 X116.447 Y124.9 E10.21273
G1 X113 Y124.9 E10.32738
G1 X112.344 Y124.86 E10.34924
G1 X111.698 Y124.741 E10.37109
G1 X111.071 Y124.544 E10.39295
G1 X110.473 Y124.272 E10.4148
G1 X109.912 Y123.93 E10.43665
G1 X109.182 Y123.318 E10.46833
G1 X108.182 Y122.318 E10.51537
G1 X107.746 Y121.826 E10.53724
G1 X107.374 Y121.285 E10.55907
G1 X107.07 Y120.703 E10.58091
G1 X106.839 Y120.088 E10.60276
G1 X106.684 Y119.449 E10.62463
G1 X106.591 Y118.398 E10.65972
G1 X106.64 Y117.594 E10.68651
G1 X106.633 Y117.343 E10.69487
G1 X106.593 Y116.619 E10.71898
G1 X106.64 Y115.844 E10.74481
G1 X106.759 Y115.198 E10.76666
G1 X106.9 Y114.75 E10.78228
G1 X106.839 Y114.588 E10.78803
G1 X106.684 Y113.949 E10.8099
G1 X106.591 Y112.898 E10.845
G0 F6000 X108.189 Y112.896
G1 F900 X108.24 Y112.2 E10.86821
G1 X108.284 Y111.999 E10.87505
G1 X108.227 Y111.703 E10.88508
G1 X108.192 Y111.113 E10.90473
G1 X108.24 Y110.45 E10.92684
G1 X108.359 Y109.912 E10.94517
G1 X108.555 Y109.397 E10.9635
G1 X108.823 Y108.916 E10.98181
G1 X109.313 Y108.313 E11.00765
G1 X110.313 Y107.313 E11.05469
G1 X110.73 Y106.953 E11.07301
G1 X111.194 Y106.656 E11.09134
G1 X111.697 Y106.43 E11.10968
G1 X112.227 Y106.279 E11.12801
G1 X113 Y106.2 E11.15385
G1 X116.447 Y106.2 E11.2685
G1 X116.997 Y106.24 E11.28684
G1 X117.535 Y106.359 E11.30517
G1 X118.073 Y106.568 E11.32436
G1 X118.379 Y106.43 E11.33553
G1 X118.909 Y106.279 E11.35386
G1 X119.682 Y106.2 E11.3797
G1 X123 Y106.2 E11.49006
G1 X123.55 Y106.24 E11.5084
G1 X124.088 Y106.359 E11.52673
G1 X124.603 Y106.555 E11.54505
G1 X125.084 Y106.823 E11.56337
G1 X125.522 Y107.157 E11.58169
G1 X125.906 Y107.552 E11.60001
G1 X126.23 Y107.998 E11.61835
G1 X126.485 Y108.486 E11.63666
G1 X126.668 Y109.006 E11.655
G1 X126.773 Y109.547 E11.67332
G1 X126.805 Y110.082 E11.69115
G1 X126.76 Y110.7 E11.71176
G1 X126.641 Y111.238 E11.73009
G1 X126.445 Y111.753 E11.74841
G1 X126.315 Y111.985 E11.75726
G1 X126.564 Y112.533 E11.77728
G1 X126.717 Y113.062 E11.79559
G1 X126.806 Y113.911 E11.82399
G1 X126.76 Y114.55 E11.8453
G1 X126.716 Y114.751 E11.85214
G1 X126.773 Y115.047 E11.86216
G1 X126.805 Y115.582 E11.87999
G1 X126.76 Y116.2 E11.9006
G1 X126.641 Y116.738 E11.91893
G1 X126.445 Y117.253 E11.93725
G1 X126.315 Y117.485 E11.9461
G1 X126.564 Y118.033 E11.96612
G1 X126.717 Y118.562 E11.98443
G1 X126.806 Y119.411 E12.01283
G1 X126.76 Y120.05 E12.03414
G1 X126.641 Y120.588 E12.05246
G1 X126.445 Y121.103 E12.07079
G1 X126.177 Y121.584 E12.0891
G1 X125.843 Y122.022 E12.10742
G1 X125.448 Y122.406 E12.12575
G1 X125.002 Y122.73 E12.14408
G1 X124.514 Y122.985 E12.16239
G1 X123.994 Y123.168 E12.18073
G1 X123.453 Y123.273 E12.19906
G1 X123 Y123.3 E12.21415
G1 X119.682 Y123.3 E12.32451
G1 X119.132 Y123.26 E12.34285
G1 X118.594 Y123.141 E12.36118
G1 X118.056 Y122.932 E12.38037
G1 X117.75 Y123.07 E12.39154
G1 X117.22 Y123.221 E12.40987
G1 X116.447 Y123.3 E12.43571
G1 X113 Y123.3 E12.55036
G1 X112.45 Y123.26 E12.5687
G1 X111.912 Y123.141 E12.58703
G1 X111.397 Y122.945 E12.60536
G1 X110.916 Y122.677 E12.62367
G1 X110.313 Y122.187 E12.64951
G1 X109.313 Y121.187 E12.69655
G1 X108.953 Y120.77 E12.71487
G1 X108.656 Y120.306 E12.7332
G1 X108.43 Y119.803 E12.75154
G1 X108.279 Y119.273 E12.76987
G1 X108.189 Y118.396 E12.79919
G1 X108.24 Y117.7 E12.8224
G1 X108.284 Y117.499 E12.82924
G1 X108.227 Y117.203 E12.83927
G1 X108.192 Y116.613 E12.85893
G1 X108.24 Y115.95 E12.88104
G1 X108.359 Y115.412 E12.89936
G1 X108.555 Y114.897 E12.91769
G1 X108.634 Y114.756 E12.92307
