;FLAVOR:Marlin
;TIME:11140
;Filament used: 7.0302m
;Layer height: 0.2
;MINX:28.7
;MINY:25.7
;MINZ:0.2
;MAXX:206.3
;MAXY:209.3
;MAXZ:1
;Generated with Cura_SteamEngine main
M140 S65
M105
M190 S65
M104 S240
M105
M109 S240
M82 ;absolute extrusion mode
; Ender 3 Custom Start G-code
G92 E0 ; Reset Extruder
G28 ; Home all axes
G1 Z2.0 F3000 ; Move Z Axis up little to prevent scratching of Heat Bed
G1 X0.1 Y20 Z0.3 F5000.0 ; Move to start position
G1 X0.1 Y200.0 Z0.3 F1500.0 E15 ; Draw the first line
G1 X0.4 Y200.0 Z0.3 F5000.0 ; Move to side a little
G1 X0.4 Y20 Z0.3 F1500.0 E30 ; Draw the second line
G92 E0 ; Reset Extruder
G1 Z2.0 F3000 ; Move Z Axis up little to prevent scratching of Heat Bed
G1 X5 Y20 Z0.3 F5000.0 ; Move over to prevent blob squish
G92 E0
G92 E0
G1 F2700 E-5
;LAYER_COUNT:5
;LAYER:0
M107
G0 F6000 X30.58 Y28.422 Z0.2
G0 X28.7 Y33.5
;TYPE:SKIRT
G1 F2700 E0
G1 F900 X28.74 Y32.711 E0.02628
G1 X28.859 Y31.931 E0.05252
G1 X29.057 Y31.166 E0.0788
G1 X29.331 Y30.426 E0.10505
G1 X29.679 Y29.717 E0.13132
G1 X30.097 Y29.046 E0.15761
G1 X30.58 Y28.422 E0.18385
G1 X31.123 Y27.849 E0.21011
G1 X31.722 Y27.334 E0.23638
G1 X32.37 Y26.883 E0.26264
G1 X33.061 Y26.499 E0.28894
G1 X33.786 Y26.187 E0.31519
G1 X34.539 Y25.95 E0.34144
G1 X35.313 Y25.791 E0.36773
G1 X36.098 Y25.71 E0.39397
G1 X36.5 Y25.7 E0.40735
G1 X198.5 Y25.7 E5.79549
G1 X199.289 Y25.74 E5.82177
G1 X200.069 Y25.859 E5.84801
G1 X200.834 Y26.057 E5.87429
G1 X201.574 Y26.331 E5.90054
G1 X202.283 Y26.679 E5.92681
G1 X202.954 Y27.097 E5.9531
G1 X203.578 Y27.58 E5.97934
G1 X204.151 Y28.123 E6.0056
G1 X204.666 Y28.722 E6.03187
G1 X205.117 Y29.37 E6.05813
G1 X205.501 Y30.061 E6.08443
G1 X205.813 Y30.786 E6.11068
G1 X206.05 Y31.539 E6.13693
G1 X206.209 Y32.313 E6.16322
G1 X206.29 Y33.098 E6.18946
G1 X206.3 Y33.5 E6.20284
G1 X206.3 Y201.5 E11.79054
G1 X206.26 Y202.289 E11.81682
G1 X206.141 Y203.069 E11.84306
G1 X205.943 Y203.834 E11.86934
G1 X205.669 Y204.574 E11.89559
G1 X205.321 Y205.283 E11.92186
G1 X204.903 Y205.954 E11.94815
G1 X204.42 Y206.578 E11.9744
G1 X203.877 Y207.151 E12.00065
G1 X203.278 Y207.666 E12.02693
G1 X202.63 Y208.117 E12.05318
G1 X201.939 Y208.501 E12.07948
G1 X201.214 Y208.813 E12.10573
G1 X200.461 Y209.05 E12.13199
G1 X199.687 Y209.209 E12.15827
G1 X198.902 Y209.29 E12.18451
G1 X198.5 Y209.3 E12.19789
G1 X36.5 Y209.3 E17.58603
G1 X35.711 Y209.26 E17.61231
G1 X34.931 Y209.141 E17.63855
G1 X34.166 Y208.943 E17.66483
G1 X33.426 Y208.669 E17.69108
G1 X32.717 Y208.321 E17.71735
G1 X32.046 Y207.903 E17.74364
G1 X31.422 Y207.42 E17.76989
G1 X30.849 Y206.877 E17.79614
G1 X30.334 Y206.278 E17.82242
G1 X29.883 Y205.63 E17.84867
G1 X29.499 Y204.939 E17.87497
G1 X29.187 Y204.214 E17.90122
G1 X28.95 Y203.461 E17.92748
G1 X28.791 Y202.687 E17.95376
G1 X28.71 Y201.902 E17.98
G1 X28.7 Y201.5 E17.99338
G1 X28.7 Y33.5 E23.58108
G0 F6000 X29.1 Y33.5
G1 F900 X29.14 Y32.732 E23.60666
G1 X29.259 Y31.972 E23.63225
G1 X29.457 Y31.229 E23.65782
G1 X29.731 Y30.51 E23.68341
G1 X30.078 Y29.824 E23.70898
G1 X30.494 Y29.177 E23.73456
G1 X30.975 Y28.577 E23.76014
G1 X31.516 Y28.03 E23.78573
G1 X32.111 Y27.542 E23.81132
G1 X32.753 Y27.119 E23.8369
G1 X33.436 Y26.764 E23.8625
G1 X34.151 Y26.483 E23.88805
G1 X34.893 Y26.277 E23.91366
G1 X35.651 Y26.149 E23.93923
G1 X36.5 Y26.1 E23.96751
G1 X198.5 Y26.1 E29.35566
G1 X199.268 Y26.14 E29.38124
G1 X200.028 Y26.259 E29.40682
G1 X200.771 Y26.457 E29.4324
G1 X201.49 Y26.731 E29.45799
G1 X202.176 Y27.078 E29.48356
G1 X202.823 Y27.494 E29.50914
G1 X203.423 Y27.975 E29.53472
G1 X203.97 Y28.516 E29.56031
G1 X204.458 Y29.111 E29.5859
G1 X204.881 Y29.753 E29.61147
G1 X205.236 Y30.436 E29.63707
G1 X205.517 Y31.151 E29.66263
G1 X205.723 Y31.893 E29.68824
G1 X205.851 Y32.651 E29.71381
G1 X205.9 Y33.5 E29.74209
G1 X205.9 Y201.5 E35.32979
G1 X205.86 Y202.268 E35.35537
G1 X205.741 Y203.028 E35.38096
G1 X205.543 Y203.771 E35.40653
G1 X205.269 Y204.49 E35.43212
G1 X204.922 Y205.176 E35.45769
G1 X204.506 Y205.823 E35.48328
G1 X204.025 Y206.423 E35.50885
G1 X203.484 Y206.97 E35.53444
G1 X202.889 Y207.458 E35.56004
G1 X202.247 Y207.881 E35.58561
G1 X201.564 Y208.236 E35.61121
G1 X200.849 Y208.517 E35.63676
G1 X200.107 Y208.723 E35.66237
G1 X199.349 Y208.851 E35.68794
G1 X198.5 Y208.9 E35.71623
G1 X36.5 Y208.9 E41.10437
G1 X35.732 Y208.86 E41.12995
G1 X34.972 Y208.741 E41.15553
G1 X34.229 Y208.543 E41.18111
G1 X33.51 Y208.269 E41.2067
G1 X32.824 Y207.922 E41.23227
G1 X32.177 Y207.506 E41.25785
G1 X31.577 Y207.025 E41.28343
G1 X31.03 Y206.484 E41.30902
G1 X30.542 Y205.889 E41.33461
G1 X30.119 Y205.247 E41.36018
G1 X29.764 Y204.564 E41.38579
G1 X29.483 Y203.849 E41.41134
G1 X29.277 Y203.107 E41.43695
G1 X29.149 Y202.349 E41.46252
G1 X29.1 Y201.5 E41.4908
G1 X29.1 Y33.5 E47.07851
G0 F6000 X29.5 Y33.5
G1 F900 X29.54 Y32.753 E47.10339
G1 X29.659 Y32.015 E47.12825
G1 X29.857 Y31.293 E47.15315
G1 X30.13 Y30.597 E47.17802
G1 X30.477 Y29.934 E47.2029
G1 X30.892 Y29.311 E47.2278
G1 X31.371 Y28.737 E47.25267
G1 X31.908 Y28.216 E47.27755
G1 X32.498 Y27.757 E47.30242
G1 X33.134 Y27.362 E47.32732
G1 X33.808 Y27.038 E47.35219
G1 X34.513 Y26.788 E47.37707
G1 X35.241 Y26.614 E47.40196
G1 X35.983 Y26.519 E47.42684
G1 X36.5 Y26.5 E47.44405
G1 X198.5 Y26.5 E52.83219
G1 X199.247 Y26.54 E52.85707
G1 X199.985 Y26.659 E52.88194
G1 X200.707 Y26.857 E52.90684
G1 X201.403 Y27.13 E52.9317
G1 X202.066 Y27.477 E52.95659
G1 X202.689 Y27.892 E52.98149
G1 X203.263 Y28.371 E53.00636
G1 X203.784 Y28.908 E53.03124
G1 X204.243 Y29.498 E53.0561
G1 X204.638 Y30.134 E53.08101
G1 X204.962 Y30.808 E53.10588
G1 X205.212 Y31.513 E53.13076
G1 X205.386 Y32.241 E53.15565
G1 X205.481 Y32.983 E53.18053
G1 X205.5 Y33.5 E53.19774
G1 X205.5 Y201.5 E58.78544
G1 X205.46 Y202.247 E58.81032
G1 X205.341 Y202.985 E58.83519
G1 X205.143 Y203.707 E58.86009
G1 X204.87 Y204.403 E58.88495
G1 X204.523 Y205.066 E58.90984
G1 X204.108 Y205.689 E58.93474
G1 X203.629 Y206.263 E58.95961
G1 X203.092 Y206.784 E58.98449
G1 X202.502 Y207.243 E59.00935
G1 X201.866 Y207.638 E59.03425
G1 X201.192 Y207.962 E59.05913
G1 X200.487 Y208.212 E59.08401
G1 X199.759 Y208.386 E59.1089
G1 X199.017 Y208.481 E59.13378
G1 X198.5 Y208.5 E59.15099
G1 X36.5 Y208.5 E64.53913
G1 X35.753 Y208.46 E64.56401
G1 X35.015 Y208.341 E64.58888
G1 X34.293 Y208.143 E64.61378
G1 X33.597 Y207.87 E64.63864
G1 X32.934 Y207.523 E64.66353
G1 X32.311 Y207.108 E64.68843
G1 X31.737 Y206.629 E64.71329
G1 X31.216 Y206.092 E64.73818
G1 X30.757 Y205.502 E64.76304
G1 X30.362 Y204.866 E64.78794
G1 X30.038 Y204.192 E64.81282
G1 X29.788 Y203.487 E64.8377
G1 X29.614 Y202.759 E64.86259
G1 X29.519 Y202.017 E64.88747
G1 X29.5 Y201.5 E64.90468
G1 X29.5 Y33.5 E70.49238
G0 F6000 X29.9 Y33.5
G1 F900 X29.94 Y32.775 E70.51653
G1 X30.059 Y32.058 E70.54071
G1 X30.257 Y31.359 E70.56487
G1 X30.53 Y30.686 E70.58902
G1 X30.875 Y30.047 E70.61318
G1 X31.289 Y29.45 E70.63734
G1 X31.765 Y28.902 E70.66148
G1 X32.299 Y28.409 E70.68566
G1 X32.884 Y27.979 E70.7098
G1 X33.513 Y27.615 E70.73398
G1 X34.178 Y27.322 E70.75814
G1 X34.871 Y27.104 E70.78231
G1 X35.583 Y26.964 E70.80644
G1 X36.5 Y26.9 E70.83702
G1 X198.5 Y26.9 E76.22516
G1 X199.225 Y26.94 E76.24931
G1 X199.942 Y27.059 E76.27348
G1 X200.641 Y27.257 E76.29765
G1 X201.314 Y27.53 E76.3218
G1 X201.953 Y27.875 E76.34595
G1 X202.55 Y28.289 E76.37012
G1 X203.098 Y28.765 E76.39426
G1 X203.591 Y29.299 E76.41843
G1 X204.021 Y29.884 E76.44258
G1 X204.385 Y30.513 E76.46675
G1 X204.678 Y31.178 E76.49092
G1 X204.896 Y31.871 E76.51508
G1 X205.036 Y32.583 E76.53922
G1 X205.1 Y33.5 E76.56979
G1 X205.1 Y201.5 E82.1575
G1 X205.06 Y202.225 E82.18165
G1 X204.941 Y202.942 E82.20582
G1 X204.743 Y203.641 E82.22998
G1 X204.47 Y204.314 E82.25414
G1 X204.125 Y204.953 E82.27829
G1 X203.711 Y205.55 E82.30246
G1 X203.235 Y206.098 E82.3266
G1 X202.701 Y206.591 E82.35077
G1 X202.116 Y207.021 E82.37492
G1 X201.487 Y207.385 E82.39909
G1 X200.822 Y207.678 E82.42326
G1 X200.129 Y207.896 E82.44742
G1 X199.417 Y208.036 E82.47156
G1 X198.5 Y208.1 E82.50213
G1 X36.5 Y208.1 E87.89027
G1 X35.775 Y208.06 E87.91442
G1 X35.058 Y207.941 E87.9386
G1 X34.359 Y207.743 E87.96276
G1 X33.686 Y207.47 E87.98692
G1 X33.047 Y207.125 E88.01107
G1 X32.45 Y206.711 E88.03523
G1 X31.902 Y206.235 E88.05937
G1 X31.409 Y205.701 E88.08355
G1 X30.979 Y205.116 E88.1077
G1 X30.615 Y204.487 E88.13187
G1 X30.322 Y203.822 E88.15604
G1 X30.104 Y203.129 E88.1802
G1 X29.964 Y202.417 E88.20433
G1 X29.9 Y201.5 E88.23491
G1 X29.9 Y33.5 E93.82261
G0 F6000 X30.3 Y33.5
G1 F900 X30.34 Y32.797 E93.84603
G1 X30.459 Y32.103 E93.86945
G1 X30.657 Y31.428 E93.89285
G1 X30.929 Y30.779 E93.91625
G1 X31.274 Y30.165 E93.93968
G1 X31.685 Y29.594 E93.96307
G1 X32.159 Y29.073 E93.9865
G1 X32.689 Y28.609 E94.00993
G1 X33.268 Y28.209 E94.03334
G1 X33.889 Y27.877 E94.05676
G1 X34.543 Y27.617 E94.08017
G1 X35.223 Y27.433 E94.1036
G1 X35.919 Y27.327 E94.12701
G1 X36.5 Y27.3 E94.14636
G1 X198.5 Y27.3 E99.5345
G1 X199.203 Y27.34 E99.55792
G1 X199.897 Y27.459 E99.58134
G1 X200.572 Y27.657 E99.60473
G1 X201.221 Y27.929 E99.62814
G1 X201.835 Y28.274 E99.65156
G1 X202.406 Y28.685 E99.67496
G1 X202.927 Y29.159 E99.69839
G1 X203.391 Y29.689 E99.72182
G1 X203.791 Y30.268 E99.74523
G1 X204.123 Y30.889 E99.76865
G1 X204.383 Y31.543 E99.79206
G1 X204.567 Y32.223 E99.81549
G1 X204.673 Y32.919 E99.8389
G1 X204.7 Y33.5 E99.85825
G1 X204.7 Y201.5 E105.44595
G1 X204.66 Y202.203 E105.46937
G1 X204.541 Y202.897 E105.49279
G1 X204.343 Y203.572 E105.51618
G1 X204.071 Y204.221 E105.53959
G1 X203.726 Y204.835 E105.56301
G1 X203.315 Y205.406 E105.58641
G1 X202.841 Y205.927 E105.60984
G1 X202.311 Y206.391 E105.63327
G1 X201.732 Y206.791 E105.65668
G1 X201.111 Y207.123 E105.6801
G1 X200.457 Y207.383 E105.70351
G1 X199.777 Y207.567 E105.72694
G1 X199.081 Y207.673 E105.75035
G1 X198.5 Y207.7 E105.7697
G1 X36.5 Y207.7 E111.15784
G1 X35.797 Y207.66 E111.18126
G1 X35.103 Y207.541 E111.20468
G1 X34.428 Y207.343 E111.22807
G1 X33.779 Y207.071 E111.25148
G1 X33.165 Y206.726 E111.2749
G1 X32.594 Y206.315 E111.2983
G1 X32.073 Y205.841 E111.32173
G1 X31.609 Y205.311 E111.34516
G1 X31.209 Y204.732 E111.36857
G1 X30.877 Y204.111 E111.39199
G1 X30.617 Y203.457 E111.41539
G1 X30.433 Y202.777 E111.43882
G1 X30.327 Y202.081 E111.46224
G1 X30.3 Y201.5 E111.48159
G1 X30.3 Y33.5 E117.06929
G0 F6000 X30.7 Y33.5
G1 F900 X30.74 Y32.82 E117.09194
G1 X30.859 Y32.15 E117.11458
G1 X31.056 Y31.498 E117.13723
G1 X31.328 Y30.874 E117.15987
G1 X31.672 Y30.286 E117.18253
G1 X32.082 Y29.742 E117.20519
G1 X32.553 Y29.251 E117.22782
G1 X33.078 Y28.817 E117.25047
G1 X33.65 Y28.448 E117.27311
G1 X34.262 Y28.149 E117.29577
G1 X34.904 Y27.924 E117.31839
G1 X35.569 Y27.775 E117.34106
G1 X36.5 Y27.7 E117.37212
G1 X198.5 Y27.7 E122.76027
G1 X199.18 Y27.74 E122.78292
G1 X199.85 Y27.859 E122.80556
G1 X200.502 Y28.056 E122.82821
G1 X201.126 Y28.328 E122.85085
G1 X201.714 Y28.672 E122.87351
G1 X202.258 Y29.082 E122.89616
G1 X202.749 Y29.553 E122.91879
G1 X203.183 Y30.078 E122.94145
G1 X203.552 Y30.65 E122.96409
G1 X203.851 Y31.262 E122.98674
G1 X204.076 Y31.904 E123.00937
G1 X204.225 Y32.569 E123.03204
G1 X204.3 Y33.5 E123.0631
G1 X204.3 Y201.5 E128.65081
G1 X204.26 Y202.18 E128.67346
G1 X204.141 Y202.85 E128.69609
G1 X203.944 Y203.502 E128.71875
G1 X203.672 Y204.126 E128.74139
G1 X203.328 Y204.714 E128.76405
G1 X202.918 Y205.258 E128.7867
G1 X202.447 Y205.749 E128.80933
G1 X201.922 Y206.183 E128.83199
G1 X201.35 Y206.552 E128.85463
G1 X200.738 Y206.851 E128.87728
G1 X200.096 Y207.076 E128.89991
G1 X199.431 Y207.225 E128.92258
G1 X198.5 Y207.3 E128.95364
G1 X36.5 Y207.3 E134.34178
G1 X35.82 Y207.26 E134.36444
G1 X35.15 Y207.141 E134.38707
G1 X34.498 Y206.944 E134.40973
G1 X33.874 Y206.672 E134.43237
G1 X33.286 Y206.328 E134.45502
G1 X32.742 Y205.918 E134.47768
G1 X32.251 Y205.447 E134.50031
G1 X31.817 Y204.922 E134.52297
G1 X31.448 Y204.35 E134.54561
G1 X31.149 Y203.738 E134.56826
G1 X30.924 Y203.096 E134.59089
G1 X30.775 Y202.431 E134.61355
G1 X30.7 Y201.5 E134.64462
G1 X30.7 Y33.5 E140.23232
G0 F6000 X31.1 Y33.5
G1 F900 X31.14 Y32.844 E140.25418
G1 X31.259 Y32.198 E140.27603
G1 X31.456 Y31.571 E140.29789
G1 X31.728 Y30.973 E140.31974
G1 X32.07 Y30.412 E140.34159
G1 X32.478 Y29.897 E140.36344
G1 X32.945 Y29.435 E140.38529
G1 X33.465 Y29.034 E140.40713
G1 X34.029 Y28.698 E140.42897
G1 X34.631 Y28.434 E140.45083
G1 X35.26 Y28.244 E140.47269
G1 X35.907 Y28.133 E140.49452
G1 X36.5 Y28.1 E140.51427
G1 X198.5 Y28.1 E145.90242
G1 X199.156 Y28.14 E145.92428
G1 X199.802 Y28.259 E145.94612
G1 X200.429 Y28.456 E145.96798
G1 X201.027 Y28.728 E145.98983
G1 X201.588 Y29.07 E146.01169
G1 X202.103 Y29.478 E146.03354
G1 X202.565 Y29.945 E146.05539
G1 X202.966 Y30.465 E146.07723
G1 X203.302 Y31.029 E146.09906
G1 X203.566 Y31.631 E146.12093
G1 X203.756 Y32.26 E146.14278
G1 X203.867 Y32.907 E146.16461
G1 X203.9 Y33.5 E146.18437
G1 X203.9 Y201.5 E151.77207
G1 X203.86 Y202.156 E151.79393
G1 X203.741 Y202.802 E151.81578
G1 X203.544 Y203.429 E151.83764
G1 X203.272 Y204.027 E151.85949
G1 X202.93 Y204.588 E151.88134
G1 X202.522 Y205.103 E151.90319
G1 X202.055 Y205.565 E151.92504
G1 X201.535 Y205.966 E151.94688
G1 X200.971 Y206.302 E151.96872
G1 X200.369 Y206.566 E151.99058
G1 X199.74 Y206.756 E152.01243
G1 X199.093 Y206.867 E152.03427
G1 X198.5 Y206.9 E152.05402
G1 X36.5 Y206.9 E157.44216
G1 X35.844 Y206.86 E157.46402
G1 X35.198 Y206.741 E157.48587
G1 X34.571 Y206.544 E157.50773
G1 X33.973 Y206.272 E157.52958
G1 X33.412 Y205.93 E157.55143
G1 X32.897 Y205.522 E157.57329
G1 X32.435 Y205.055 E157.59514
G1 X32.034 Y204.535 E157.61698
G1 X31.698 Y203.971 E157.63881
G1 X31.434 Y203.369 E157.66067
G1 X31.244 Y202.74 E157.68253
G1 X31.133 Y202.093 E157.70436
G1 X31.1 Y201.5 E157.72412
G1 X31.1 Y33.5 E163.31182
G0 F6000 X31.5 Y33.5
G1 F900 X31.54 Y32.869 E163.33285
G1 X31.659 Y32.248 E163.35388
G1 X31.856 Y31.648 E163.37488
G1 X32.127 Y31.076 E163.39593
G1 X32.467 Y30.544 E163.41693
G1 X32.873 Y30.059 E163.43797
G1 X33.336 Y29.629 E163.45899
G1 X33.85 Y29.26 E163.48003
G1 X34.406 Y28.96 E163.50105
G1 X34.995 Y28.732 E163.52205
G1 X35.609 Y28.58 E163.54309
G1 X36.5 Y28.5 E163.57284
G1 X198.5 Y28.5 E168.96099
G1 X199.131 Y28.54 E168.98202
G1 X199.752 Y28.659 E169.00305
G1 X200.352 Y28.856 E169.02405
G1 X200.924 Y29.127 E169.0451
G1 X201.456 Y29.467 E169.0661
G1 X201.941 Y29.873 E169.08714
G1 X202.371 Y30.336 E169.10815
G1 X202.74 Y30.85 E169.1292
G1 X203.04 Y31.406 E169.15021
G1 X203.268 Y31.995 E169.17122
G1 X203.42 Y32.609 E169.19226
G1 X203.5 Y33.5 E169.22201
G1 X203.5 Y201.5 E174.80971
G1 X203.46 Y202.131 E174.83074
G1 X203.341 Y202.752 E174.85177
G1 X203.144 Y203.352 E174.87278
G1 X202.873 Y203.924 E174.89383
G1 X202.533 Y204.456 E174.91483
G1 X202.127 Y204.941 E174.93587
G1 X201.664 Y205.371 E174.95688
G1 X201.15 Y205.74 E174.97793
G1 X200.594 Y206.04 E174.99894
G1 X200.005 Y206.268 E175.01995
G1 X199.391 Y206.42 E175.04099
G1 X198.5 Y206.5 E175.07074
G1 X36.5 Y206.5 E180.45888
G1 X35.869 Y206.46 E180.47991
G1 X35.248 Y206.341 E180.50094
G1 X34.648 Y206.144 E180.52195
G1 X34.076 Y205.873 E180.543
G1 X33.544 Y205.533 E180.564
G1 X33.059 Y205.127 E180.58503
G1 X32.629 Y204.664 E180.60605
G1 X32.26 Y204.15 E180.62709
G1 X31.96 Y203.594 E180.64811
G1 X31.732 Y203.005 E180.66911
G1 X31.58 Y202.391 E180.69015
G1 X31.5 Y201.5 E180.71991
G1 X31.5 Y33.5 E186.30761
G0 F6000 X31.9 Y33.5
G1 F900 X31.94 Y32.895 E186.32778
G1 X32.059 Y32.301 E186.34792
G1 X32.255 Y31.727 E186.3681
G1 X32.526 Y31.184 E186.38828
G1 X32.865 Y30.681 E186.40846
G1 X33.267 Y30.228 E186.4286
G1 X33.725 Y29.831 E186.44876
