;FLAVOR:Marlin
;TIME:16086
;Filament used: 11.4309m
;Layer height: 0.2
;MINX:52.96
;MINY:46.611
;MINZ:0.2
;MAXX:182.04
;MAXY:188.04
;MAXZ:11.4
;Generated with Cura_SteamEngine main
M140 S65
M105
M190 S65
M104 S240
M105
M109 S240
M82 ;absolute extrusion mode
; Ender 3 Custom Start G-code
G92 E0 ; Reset Extruder
G28 ; Home all axes
G1 Z2.0 F3000 ; Move Z Axis up little to prevent scratching of Heat Bed
G1 X0.1 Y20 Z0.3 F5000.0 ; Move to start position
G1 X0.1 Y200.0 Z0.3 F1500.0 E15 ; Draw the first line
G1 X0.4 Y200.0 Z0.3 F5000.0 ; Move to side a little
G1 X0.4 Y20 Z0.3 F1500.0 E30 ; Draw the second line
G92 E0 ; Reset Extruder
G1 Z2.0 F3000 ; Move Z Axis up little to prevent scratching of Heat Bed
G1 X5 Y20 Z0.3 F5000.0 ; Move over to prevent blob squish
G92 E0
G92 E0
G1 F2700 E-5
;LAYER_COUNT:58
;LAYER:0
M107
G0 F6000 X55.424 Y59.368 Z0.2
G0 X52.965 Y65.061
;TYPE:SKIRT
G1 F2700 E0
G1 F900 X53.005 Y64.272 E0.02628
G1 X53.125 Y63.491 E0.05256
G1 X53.322 Y62.727 E0.0788
G1 X53.597 Y61.986 E0.10509
G1 X53.944 Y61.277 E0.13134
G1 X54.362 Y60.607 E0.15761
G1 X54.845 Y59.982 E0.18388
G1 X55.201 Y59.595 E0.20137
G1 X55.424 Y59.368 E0.21195
G1 X56.005 Y58.833 E0.23822
G1 X56.637 Y58.36 E0.26448
G1 X57.314 Y57.953 E0.29075
G1 X58.029 Y57.617 E0.31702
G1 X58.633 Y57.392 E0.33846
G1 X59.478 Y57.155 E0.36765
G1 X60.256 Y57.019 E0.39392
G1 X61.205 Y56.961 E0.42554
G1 X101.596 Y56.96 E1.76895
G1 X101.984 Y56.14 E1.79913
G1 X102.344 Y55.466 E1.82454
G1 X102.827 Y54.66 E1.85579
G1 X103.249 Y54.027 E1.8811
G1 X103.811 Y53.268 E1.91251
G1 X104.305 Y52.666 E1.93841
G1 X104.937 Y51.97 E1.96968
G1 X105.468 Y51.44 E1.99463
G1 X106.165 Y50.807 E2.02595
G1 X106.766 Y50.313 E2.05182
G1 X107.526 Y49.75 E2.08328
G1 X108.16 Y49.327 E2.10863
G1 X108.966 Y48.844 E2.13988
G1 X109.64 Y48.484 E2.1653
G1 X110.49 Y48.082 E2.19657
G1 X111.198 Y47.789 E2.22206
G1 X112.087 Y47.471 E2.25346
G1 X112.824 Y47.247 E2.27908
G1 X113.737 Y47.019 E2.31038
G1 X114.476 Y46.872 E2.33544
G1 X115.408 Y46.733 E2.36678
G1 X116.178 Y46.657 E2.39251
G1 X117.119 Y46.611 E2.42385
G1 X117.881 Y46.611 E2.44919
G1 X118.822 Y46.657 E2.48053
G1 X119.582 Y46.732 E2.50593
G1 X120.515 Y46.87 E2.5373
G1 X121.274 Y47.021 E2.56304
G1 X122.186 Y47.25 E2.59431
G1 X122.913 Y47.471 E2.61959
G1 X123.802 Y47.789 E2.65099
G1 X124.51 Y48.082 E2.67647
G1 X125.36 Y48.484 E2.70775
G1 X126.034 Y48.844 E2.73316
G1 X126.84 Y49.327 E2.76441
G1 X127.473 Y49.749 E2.78972
G1 X128.232 Y50.311 E2.82113
G1 X128.834 Y50.805 E2.84703
G1 X129.53 Y51.437 E2.8783
G1 X130.06 Y51.968 E2.90325
G1 X130.693 Y52.665 E2.93457
G1 X131.185 Y53.263 E2.96032
G1 X131.747 Y54.021 E2.99171
G1 X132.172 Y54.659 E3.01721
G1 X132.656 Y55.467 E3.04853
G1 X133.016 Y56.14 E3.07392
G1 X133.404 Y56.96 E3.10409
G1 X173.784 Y56.96 E4.44713
G1 X174.573 Y57 E4.47341
G1 X175.353 Y57.119 E4.49965
G1 X176.202 Y57.338 E4.52882
G1 X177.049 Y57.647 E4.5588
G1 X177.76 Y57.992 E4.58509
G1 X178.432 Y58.406 E4.61134
G1 X179.058 Y58.887 E4.6376
G1 X179.582 Y59.366 E4.66121
G1 X180.18 Y60.021 E4.69071
G1 X180.652 Y60.655 E4.717
G1 X181.056 Y61.333 E4.74325
G1 X181.391 Y62.048 E4.76951
G1 X181.628 Y62.707 E4.7928
G1 X181.843 Y63.467 E4.81907
G1 X181.98 Y64.244 E4.84531
G1 X182.039 Y65.204 E4.8773
G1 X182.04 Y179.784 E8.68825
G1 X182 Y180.573 E8.71453
G1 X181.881 Y181.353 E8.74077
G1 X181.662 Y182.202 E8.76993
G1 X181.353 Y183.049 E8.79992
G1 X181.008 Y183.76 E8.8262
G1 X180.594 Y184.432 E8.85246
G1 X180.113 Y185.058 E8.87871
G1 X179.647 Y185.567 E8.90167
G1 X178.997 Y186.166 E8.93106
G1 X178.365 Y186.639 E8.95732
G1 X177.689 Y187.046 E8.98356
G1 X176.974 Y187.383 E9.00986
G1 X176.128 Y187.674 E9.03961
G1 X175.869 Y187.747 E9.04856
G1 X175.099 Y187.923 E9.07483
G1 X174.315 Y188.02 E9.10111
G1 X173.753 Y188.04 E9.11981
G1 X61.062 Y188.035 E12.86793
G1 X60.273 Y187.995 E12.8942
G1 X59.492 Y187.875 E12.92049
G1 X58.728 Y187.678 E12.94673
G1 X57.987 Y187.403 E12.97302
G1 X57.278 Y187.056 E12.99927
G1 X56.608 Y186.638 E13.02554
G1 X55.983 Y186.155 E13.05181
G1 X55.621 Y185.823 E13.06814
G1 X55.393 Y185.601 E13.07873
G1 X54.855 Y185.023 E13.10499
G1 X54.38 Y184.392 E13.13126
G1 X53.97 Y183.717 E13.15753
G1 X53.63 Y183.004 E13.1838
G1 X53.341 Y182.179 E13.21288
G1 X53.267 Y181.923 E13.22174
G1 X53.086 Y181.154 E13.24801
G1 X52.984 Y180.371 E13.27428
G1 X52.96 Y179.757 E13.29471
G1 X52.965 Y65.061 E17.10952
G0 F6000 X53.365 Y65.061
G1 F900 X53.405 Y64.293 E17.1351
G1 X53.525 Y63.533 E17.16069
G1 X53.722 Y62.789 E17.18629
G1 X53.996 Y62.071 E17.21185
G1 X54.343 Y61.384 E17.23745
G1 X54.759 Y60.737 E17.26303
G1 X55.486 Y59.875 E17.30054
G1 X55.709 Y59.648 E17.31112
G1 X56.276 Y59.128 E17.33671
G1 X56.894 Y58.67 E17.36229
G1 X57.556 Y58.278 E17.38788
G1 X58.255 Y57.957 E17.41346
G1 X58.846 Y57.747 E17.43432
G1 X59.586 Y57.54 E17.45988
G1 X60.345 Y57.411 E17.48549
G1 X61.205 Y57.361 E17.51414
G1 X101.85 Y57.36 E18.866
G1 X102.346 Y56.311 E18.90459
G1 X102.687 Y55.671 E18.92871
G1 X103.17 Y54.865 E18.95996
G1 X103.571 Y54.265 E18.98397
G1 X104.133 Y53.506 E19.01538
G1 X104.602 Y52.935 E19.03995
G1 X105.234 Y52.239 E19.07122
G1 X105.737 Y51.736 E19.09488
G1 X106.434 Y51.103 E19.1262
G1 X107.004 Y50.635 E19.15073
G1 X107.764 Y50.072 E19.18219
G1 X108.365 Y49.67 E19.20624
G1 X109.171 Y49.187 E19.23749
G1 X109.811 Y48.845 E19.26162
G1 X110.661 Y48.443 E19.2929
G1 X111.333 Y48.165 E19.31708
G1 X112.222 Y47.847 E19.34849
G1 X112.921 Y47.635 E19.37278
G1 X113.834 Y47.407 E19.40408
G1 X114.535 Y47.268 E19.42785
G1 X115.467 Y47.129 E19.45919
G1 X116.198 Y47.057 E19.48362
G1 X117.139 Y47.011 E19.51496
G1 X117.861 Y47.011 E19.53897
G1 X118.802 Y47.057 E19.57031
G1 X119.524 Y47.128 E19.59444
G1 X120.457 Y47.266 E19.62581
G1 X121.176 Y47.409 E19.65019
G1 X122.088 Y47.638 E19.68146
G1 X122.778 Y47.847 E19.70544
G1 X123.667 Y48.165 E19.73685
G1 X124.339 Y48.443 E19.76103
G1 X125.189 Y48.845 E19.79231
G1 X125.829 Y49.187 E19.81644
G1 X126.635 Y49.67 E19.84769
G1 X127.235 Y50.071 E19.8717
G1 X127.994 Y50.633 E19.90311
G1 X128.565 Y51.102 E19.92768
G1 X129.261 Y51.734 E19.95895
G1 X129.764 Y52.237 E19.98261
G1 X130.397 Y52.934 E20.01393
G1 X130.863 Y53.502 E20.03837
G1 X131.425 Y54.26 E20.06975
G1 X131.829 Y54.864 E20.09392
G1 X132.313 Y55.672 E20.12525
G1 X132.655 Y56.311 E20.14935
G1 X133.151 Y57.36 E20.18794
G1 X173.784 Y57.36 E21.5394
G1 X174.552 Y57.4 E21.56498
G1 X175.312 Y57.519 E21.59057
G1 X176.088 Y57.721 E21.61724
G1 X176.911 Y58.023 E21.6464
G1 X177.602 Y58.362 E21.672
G1 X178.254 Y58.77 E21.69758
G1 X178.86 Y59.244 E21.72317
G1 X179.366 Y59.723 E21.74634
G1 X179.884 Y60.291 E21.77191
G1 X180.341 Y60.91 E21.7975
G1 X180.731 Y61.573 E21.82308
G1 X181.212 Y62.703 E21.86393
G1 X181.458 Y63.575 E21.89406
G1 X181.588 Y64.333 E21.91964
G1 X181.639 Y65.204 E21.94866
G1 X181.64 Y179.784 E25.75961
G1 X181.6 Y180.552 E25.78519
G1 X181.481 Y181.312 E25.81077
G1 X181.279 Y182.088 E25.83744
G1 X180.977 Y182.911 E25.8666
G1 X180.638 Y183.602 E25.8922
G1 X180.23 Y184.254 E25.91778
G1 X179.756 Y184.86 E25.94337
G1 X179.293 Y185.351 E25.96582
G1 X178.726 Y185.871 E25.99141
G1 X178.109 Y186.329 E26.01696
G1 X177.447 Y186.721 E26.04255
G1 X176.748 Y187.043 E26.06815
G1 X176.019 Y187.289 E26.09374
G1 X175.76 Y187.362 E26.10269
G1 X175.01 Y187.532 E26.12827
G1 X174.247 Y187.624 E26.15383
G1 X173.753 Y187.64 E26.17027
G1 X61.062 Y187.635 E29.91839
G1 X60.294 Y187.595 E29.94396
G1 X59.534 Y187.475 E29.96956
G1 X58.79 Y187.278 E29.99515
G1 X58.072 Y187.004 E30.02071
G1 X57.385 Y186.657 E30.04631
G1 X56.738 Y186.241 E30.0719
G1 X55.9 Y185.537 E30.1083
G1 X55.672 Y185.315 E30.11888
G1 X55.149 Y184.75 E30.14449
G1 X54.688 Y184.135 E30.17005
G1 X54.294 Y183.475 E30.19562
G1 X53.97 Y182.777 E30.22121
G1 X53.725 Y182.068 E30.24616
G1 X53.651 Y181.812 E30.25503
G1 X53.476 Y181.063 E30.28061
G1 X53.38 Y180.3 E30.30619
G1 X53.36 Y179.757 E30.32426
G1 X53.365 Y65.061 E34.13906
G0 F6000 X53.765 Y65.061
G1 F900 X53.805 Y64.314 E34.16395
G1 X53.924 Y63.575 E34.18884
G1 X54.122 Y62.854 E34.21371
G1 X54.396 Y62.157 E34.23862
G1 X54.742 Y61.494 E34.26349
G1 X55.157 Y60.872 E34.28836
G1 X55.771 Y60.155 E34.31976
G1 X55.994 Y59.928 E34.33034
G1 X56.546 Y59.424 E34.3552
G1 X57.149 Y58.98 E34.38011
G1 X57.796 Y58.604 E34.405
G1 X58.845 Y58.162 E34.44286
G1 X59.694 Y57.926 E34.47217
G1 X60.432 Y57.804 E34.49705
G1 X61.205 Y57.761 E34.5228
G1 X102.127 Y57.76 E35.88387
G1 X102.304 Y57.334 E35.89921
G1 X102.707 Y56.482 E35.93056
G1 X103.031 Y55.877 E35.95339
G1 X103.514 Y55.071 E35.98464
G1 X103.892 Y54.503 E36.00733
G1 X104.454 Y53.744 E36.03874
G1 X104.898 Y53.204 E36.06199
G1 X105.53 Y52.508 E36.09326
G1 X106.006 Y52.032 E36.11565
G1 X106.703 Y51.399 E36.14697
G1 X107.242 Y50.956 E36.17017
G1 X108.002 Y50.393 E36.20163
G1 X108.571 Y50.014 E36.22437
G1 X109.377 Y49.531 E36.25562
G1 X109.982 Y49.207 E36.27845
G1 X110.832 Y48.805 E36.30972
G1 X111.467 Y48.542 E36.33258
G1 X112.356 Y48.224 E36.36399
G1 X113.018 Y48.024 E36.38699
G1 X113.931 Y47.796 E36.41829
G1 X114.594 Y47.664 E36.44077
G1 X115.526 Y47.525 E36.47211
G1 X116.217 Y47.456 E36.49521
G1 X117.158 Y47.41 E36.52654
G1 X117.842 Y47.41 E36.54929
G1 X118.783 Y47.456 E36.58063
G1 X119.465 Y47.523 E36.60342
G1 X120.398 Y47.661 E36.63479
G1 X121.079 Y47.797 E36.65789
G1 X121.991 Y48.026 E36.68916
G1 X122.644 Y48.224 E36.71186
G1 X123.533 Y48.542 E36.74326
G1 X124.168 Y48.805 E36.76612
G1 X125.018 Y49.207 E36.7974
G1 X125.623 Y49.531 E36.82022
G1 X126.429 Y50.014 E36.85147
G1 X126.997 Y50.392 E36.87417
G1 X127.756 Y50.954 E36.90558
G1 X128.296 Y51.398 E36.92883
G1 X128.992 Y52.03 E36.9601
G1 X129.468 Y52.506 E36.98249
G1 X130.101 Y53.203 E37.0138
G1 X130.542 Y53.74 E37.03692
G1 X131.104 Y54.498 E37.0683
G1 X131.486 Y55.07 E37.09118
G1 X131.97 Y55.878 E37.1225
G1 X132.293 Y56.482 E37.14529
G1 X132.695 Y57.332 E37.17656
G1 X132.872 Y57.76 E37.19196
G1 X173.784 Y57.76 E38.5527
G1 X174.531 Y57.8 E38.57758
G1 X175.269 Y57.919 E38.60245
G1 X175.975 Y58.105 E38.62673
G1 X176.773 Y58.399 E38.65502
G1 X177.443 Y58.731 E38.67989
G1 X178.074 Y59.133 E38.70477
G1 X178.993 Y59.907 E38.74473
G1 X179.588 Y60.561 E38.77414
G1 X180.03 Y61.165 E38.79903
G1 X180.404 Y61.812 E38.82389
G1 X180.836 Y62.836 E38.86085
G1 X181.072 Y63.683 E38.8901
G1 X181.195 Y64.421 E38.91498
G1 X181.239 Y65.204 E38.94107
G1 X181.24 Y179.784 E42.75201
G1 X181.2 Y180.531 E42.77689
G1 X181.081 Y181.269 E42.80176
G1 X180.895 Y181.975 E42.82604
G1 X180.601 Y182.773 E42.85433
G1 X180.269 Y183.443 E42.8792
G1 X179.867 Y184.074 E42.90408
G1 X179.108 Y184.979 E42.94337
G1 X178.456 Y185.576 E42.97277
G1 X177.853 Y186.019 E42.99765
G1 X177.207 Y186.395 E43.02252
G1 X176.524 Y186.701 E43.04741
G1 X175.911 Y186.904 E43.06889
G1 X175.652 Y186.977 E43.07784
G1 X174.922 Y187.142 E43.10273
G1 X174.179 Y187.227 E43.1276
G1 X173.753 Y187.24 E43.14178
G1 X61.062 Y187.235 E46.88989
G1 X60.315 Y187.195 E46.91478
G1 X59.576 Y187.076 E46.93967
G1 X58.855 Y186.878 E46.96454
G1 X58.158 Y186.604 E46.98945
G1 X57.495 Y186.258 E47.01432
G1 X56.873 Y185.843 E47.03919
G1 X56.179 Y185.25 E47.06955
G1 X55.951 Y185.028 E47.08014
G1 X55.443 Y184.479 E47.10502
G1 X54.998 Y183.878 E47.12989
G1 X54.619 Y183.233 E47.15477
G1 X54.31 Y182.551 E47.17967
G1 X54.109 Y181.957 E47.20053
G1 X54.035 Y181.701 E47.20939
G1 X53.866 Y180.972 E47.23428
G1 X53.776 Y180.23 E47.25914
G1 X53.76 Y179.757 E47.27488
G1 X53.765 Y65.061 E51.08969
G0 F6000 X54.165 Y65.061
G1 F900 X54.205 Y64.335 E51.11387
G1 X54.324 Y63.619 E51.13801
G1 X54.522 Y62.92 E51.16218
G1 X54.795 Y62.247 E51.18633
G1 X55.14 Y61.608 E51.21049
G1 X55.554 Y61.011 E51.23465
G1 X56.057 Y60.436 E51.26006
G1 X56.28 Y60.209 E51.27064
G1 X56.817 Y59.719 E51.29482
G1 X57.404 Y59.292 E51.31896
G1 X58.035 Y58.932 E51.34313
G1 X58.977 Y58.539 E51.37707
G1 X59.801 Y58.312 E51.4055
G1 X60.518 Y58.197 E51.42965
G1 X61.205 Y58.161 E51.45253
G1 X102.398 Y58.16 E52.82262
G1 X102.666 Y57.505 E52.84616
G1 X103.069 Y56.653 E52.87751
G1 X103.374 Y56.082 E52.89904
G1 X103.857 Y55.276 E52.93029
G1 X104.214 Y54.742 E52.95165
G1 X104.776 Y53.983 E52.98307
G1 X105.194 Y53.473 E53.005
G1 X105.826 Y52.777 E53.03627
G1 X106.275 Y52.328 E53.05739
G1 X106.972 Y51.695 E53.0887
G1 X107.48 Y51.278 E53.11056
G1 X108.24 Y50.715 E53.14202
G1 X108.776 Y50.357 E53.16346
G1 X109.582 Y49.874 E53.19471
G1 X110.153 Y49.569 E53.21624
G1 X111.003 Y49.167 E53.24751
G1 X111.602 Y48.919 E53.26908
G1 X112.491 Y48.601 E53.30048
G1 X113.115 Y48.412 E53.32217
G1 X114.028 Y48.184 E53.35346
G1 X114.653 Y48.059 E53.37466
G1 X115.585 Y47.92 E53.40601
G1 X116.237 Y47.856 E53.4278
G1 X117.178 Y47.81 E53.45913
G1 X117.822 Y47.81 E53.48055
G1 X118.763 Y47.856 E53.51189
G1 X119.407 Y47.919 E53.53341
G1 X120.34 Y48.057 E53.56478
G1 X120.981 Y48.185 E53.58652
G1 X121.893 Y48.414 E53.61779
G1 X122.509 Y48.601 E53.6392
G1 X123.398 Y48.919 E53.67061
G1 X123.997 Y49.167 E53.69217
G1 X124.847 Y49.569 E53.72344
G1 X125.418 Y49.874 E53.74497
G1 X126.224 Y50.357 E53.77623
G1 X126.758 Y50.714 E53.79759
G1 X127.517 Y51.276 E53.829
G1 X128.027 Y51.694 E53.85093
G1 X128.723 Y52.326 E53.8822
G1 X129.172 Y52.775 E53.90332
G1 X129.805 Y53.472 E53.93464
G1 X130.221 Y53.978 E53.95643
G1 X130.783 Y54.736 E53.98781
G1 X131.143 Y55.275 E54.00937
G1 X131.627 Y56.083 E54.04069
G1 X131.931 Y56.653 E54.06218
G1 X132.333 Y57.503 E54.09345
G1 X132.602 Y58.16 E54.11707
G1 X173.784 Y58.16 E55.48679
G1 X174.509 Y58.2 E55.51094
G1 X175.226 Y58.319 E55.53511
G1 X175.863 Y58.489 E55.55704
G1 X176.634 Y58.775 E55.58439
G1 X177.283 Y59.1 E55.60853
G1 X177.893 Y59.495 E55.6327
G1 X178.716 Y60.195 E55.66864
G1 X179.292 Y60.83 E55.69715
G1 X179.718 Y61.419 E55.72133
G1 X180.076 Y62.05 E55.74546
G1 X180.458 Y62.97 E55.77859
G1 X180.686 Y63.791 E55.80693
G1 X180.802 Y64.508 E55.83109
G1 X180.839 Y65.204 E55.85427
G1 X180.84 Y179.784 E59.66522
G1 X180.8 Y180.509 E59.68937
G1 X180.681 Y181.226 E59.71354
G1 X180.511 Y181.863 E59.73547
G1 X180.225 Y182.634 E59.76282
G1 X179.9 Y183.283 E59.78696
G1 X179.505 Y183.893 E59.81113
G1 X178.818 Y184.702 E59.84643
G1 X178.185 Y185.28 E59.87494
G1 X177.598 Y185.708 E59.8991
G1 X176.968 Y186.068 E59.92324
G1 X176.301 Y186.357 E59.94741
G1 X175.802 Y186.519 E59.96486
G1 X175.543 Y186.592 E59.97381
G1 X174.835 Y186.751 E59.99795
G1 X173.753 Y186.84 E60.03406
G1 X61.062 Y186.835 E63.78218
G1 X60.336 Y186.795 E63.80636
G1 X59.62 Y186.676 E63.8305
G1 X58.921 Y186.478 E63.85466
G1 X58.248 Y186.205 E63.87882
G1 X57.609 Y185.86 E63.90297
G1 X57.012 Y185.446 E63.92714
G1 X56.458 Y184.964 E63.95156
G1 X56.23 Y184.742 E63.96214
G1 X55.738 Y184.207 E63.98632
G1 X55.308 Y183.622 E64.01047
G1 X54.945 Y182.993 E64.03462
G1 X54.653 Y182.327 E64.05881
G1 X54.494 Y181.846 E64.07566
G1 X54.42 Y181.59 E64.08452
G1 X54.257 Y180.882 E64.10869
G1 X54.172 Y180.16 E64.13286
G1 X54.16 Y179.757 E64.14627
G1 X54.165 Y65.061 E67.96108
G0 F6000 X54.565 Y65.061
G1 F900 X54.605 Y64.358 E67.9845
G1 X54.724 Y63.664 E68.00792
G1 X54.922 Y62.988 E68.03135
G1 X55.194 Y62.339 E68.05475
G1 X55.539 Y61.725 E68.07818
G1 X55.951 Y61.154 E68.1016
G1 X56.342 Y60.716 E68.12112
G1 X56.565 Y60.489 E68.13171
G1 X57.086 Y60.016 E68.15511
G1 X57.658 Y59.604 E68.17856
G1 X58.272 Y59.261 E68.20195
G1 X59.109 Y58.918 E68.23204
G1 X59.907 Y58.698 E68.25957
G1 X60.603 Y58.59 E68.28299
G1 X61.205 Y58.561 E68.30304
G1 X102.68 Y58.56 E69.6825
G1 X102.794 Y58.24 E69.6938
G1 X103.027 Y57.676 E69.7141
G1 X103.43 Y56.824 E69.74545
G1 X103.717 Y56.288 E69.76567
G1 X104.2 Y55.482 E69.79692
G1 X104.535 Y54.98 E69.81699
G1 X105.097 Y54.221 E69.84841
