;FLAVOR:Marlin
;TIME:2393
;Filament used: 1.40848m
;Layer height: 0.2
;MINX:51.7
;MINY:101.7
;MINZ:0.2
;MAXX:183.3
;MAXY:133.3
;MAXZ:2
;Generated with Cura_SteamEngine main
M140 S65
M105
M190 S65
M104 S240
M105
M109 S240
M82 ;absolute extrusion mode
; Ender 3 Custom Start G-code
G92 E0 ; Reset Extruder
G28 ; Home all axes
G1 Z2.0 F3000 ; Move Z Axis up little to prevent scratching of Heat Bed
G1 X0.1 Y20 Z0.3 F5000.0 ; Move to start position
G1 X0.1 Y200.0 Z0.3 F1500.0 E15 ; Draw the first line
G1 X0.4 Y200.0 Z0.3 F5000.0 ; Move to side a little
G1 X0.4 Y20 Z0.3 F1500.0 E30 ; Draw the second line
G92 E0 ; Reset Extruder
G1 Z2.0 F3000 ; Move Z Axis up little to prevent scratching of Heat Bed
G1 X5 Y20 Z0.3 F5000.0 ; Move over to prevent blob squish
G92 E0
G92 E0
G1 F2700 E-5
;LAYER_COUNT:10
;LAYER:0
M107
G0 F6000 X56.061 Y102.499 Z0.2
G0 X51.7 Y109.5
;TYPE:SKIRT
G1 F2700 E0
G1 F900 X51.74 Y108.711 E0.02628
G1 X51.859 Y107.931 E0.05252
G1 X52.057 Y107.166 E0.0788
G1 X52.331 Y106.426 E0.10505
G1 X52.679 Y105.717 E0.13132
G1 X53.097 Y105.046 E0.15761
G1 X53.58 Y104.422 E0.18385
G1 X54.123 Y103.849 E0.21011
G1 X54.722 Y103.334 E0.23638
G1 X55.37 Y102.883 E0.26264
G1 X56.061 Y102.499 E0.28894
G1 X56.786 Y102.187 E0.31519
G1 X57.539 Y101.95 E0.34144
G1 X58.313 Y101.791 E0.36773
G1 X59.098 Y101.71 E0.39397
G1 X59.5 Y101.7 E0.40735
G1 X175.5 Y101.7 E4.26552
G1 X176.289 Y101.74 E4.2918
G1 X177.069 Y101.859 E4.31804
G1 X177.834 Y102.057 E4.34433
G1 X178.574 Y102.331 E4.37057
G1 X179.283 Y102.679 E4.39684
G1 X179.954 Y103.097 E4.42313
G1 X180.578 Y103.58 E4.44938
G1 X181.151 Y104.123 E4.47563
G1 X181.666 Y104.722 E4.50191
G1 X182.117 Y105.37 E4.52817
G1 X182.501 Y106.061 E4.55446
G1 X182.813 Y106.786 E4.58071
G1 X183.05 Y107.539 E4.60697
G1 X183.209 Y108.313 E4.63325
G1 X183.29 Y109.098 E4.6595
G1 X183.3 Y109.5 E4.67287
G1 X183.3 Y125.5 E5.20503
G1 X183.26 Y126.289 E5.23131
G1 X183.141 Y127.069 E5.25755
G1 X182.943 Y127.834 E5.28384
G1 X182.669 Y128.574 E5.31008
G1 X182.321 Y129.283 E5.33635
G1 X181.903 Y129.954 E5.36264
G1 X181.42 Y130.578 E5.38889
G1 X180.877 Y131.151 E5.41514
G1 X180.278 Y131.666 E5.44142
G1 X179.63 Y132.117 E5.46768
G1 X178.939 Y132.501 E5.49397
G1 X178.214 Y132.813 E5.52022
G1 X177.461 Y133.05 E5.54648
G1 X176.687 Y133.209 E5.57276
G1 X175.902 Y133.29 E5.59901
G1 X175.5 Y133.3 E5.61238
G1 X59.5 Y133.3 E9.47056
G1 X58.711 Y133.26 E9.49683
G1 X57.931 Y133.141 E9.52308
G1 X57.166 Y132.943 E9.54936
G1 X56.426 Y132.669 E9.5756
G1 X55.717 Y132.321 E9.60187
G1 X55.046 Y131.903 E9.62817
G1 X54.422 Y131.42 E9.65441
G1 X53.849 Y130.877 E9.68067
G1 X53.334 Y130.278 E9.70694
G1 X52.883 Y129.63 E9.7332
G1 X52.499 Y128.939 E9.75949
G1 X52.187 Y128.214 E9.78575
G1 X51.95 Y127.461 E9.812
G1 X51.791 Y126.687 E9.83828
G1 X51.71 Y125.902 E9.86453
G1 X51.7 Y125.5 E9.87791
G1 X51.7 Y109.5 E10.41007
G0 F6000 X52.1 Y109.5
G1 F900 X52.14 Y108.732 E10.43565
G1 X52.259 Y107.972 E10.46123
G1 X52.457 Y107.229 E10.48681
G1 X52.731 Y106.51 E10.5124
G1 X53.078 Y105.824 E10.53797
G1 X53.494 Y105.177 E10.56355
G1 X53.975 Y104.577 E10.58913
G1 X54.516 Y104.03 E10.61472
G1 X55.111 Y103.542 E10.64031
G1 X55.753 Y103.119 E10.66588
G1 X56.436 Y102.764 E10.69148
G1 X57.151 Y102.483 E10.71704
G1 X57.893 Y102.277 E10.74265
G1 X58.651 Y102.149 E10.76822
G1 X59.5 Y102.1 E10.7965
G1 X175.5 Y102.1 E14.65468
G1 X176.268 Y102.14 E14.68026
G1 X177.028 Y102.259 E14.70584
G1 X177.771 Y102.457 E14.73142
G1 X178.49 Y102.731 E14.75701
G1 X179.176 Y103.078 E14.78258
G1 X179.823 Y103.494 E14.80816
G1 X180.423 Y103.975 E14.83374
G1 X180.97 Y104.516 E14.85933
G1 X181.458 Y105.111 E14.88492
G1 X181.881 Y105.753 E14.91049
G1 X182.236 Y106.436 E14.93609
G1 X182.517 Y107.151 E14.96165
G1 X182.723 Y107.893 E14.98726
G1 X182.851 Y108.651 E15.01283
G1 X182.9 Y109.5 E15.04111
G1 X182.9 Y125.5 E15.57327
G1 X182.86 Y126.268 E15.59885
G1 X182.741 Y127.028 E15.62444
G1 X182.543 Y127.771 E15.65001
G1 X182.269 Y128.49 E15.6756
G1 X181.922 Y129.176 E15.70117
G1 X181.506 Y129.823 E15.72676
G1 X181.025 Y130.423 E15.75233
G1 X180.484 Y130.97 E15.77792
G1 X179.889 Y131.458 E15.80352
G1 X179.247 Y131.881 E15.82909
G1 X178.564 Y132.236 E15.85469
G1 X177.849 Y132.517 E15.88024
G1 X177.107 Y132.723 E15.90585
G1 X176.349 Y132.851 E15.93142
G1 X175.5 Y132.9 E15.95971
G1 X59.5 Y132.9 E19.81788
G1 X58.732 Y132.86 E19.84346
G1 X57.972 Y132.741 E19.86905
G1 X57.229 Y132.543 E19.89462
G1 X56.51 Y132.269 E19.92021
G1 X55.824 Y131.922 E19.94578
G1 X55.177 Y131.506 E19.97137
G1 X54.577 Y131.025 E19.99694
G1 X54.03 Y130.484 E20.02253
G1 X53.542 Y129.889 E20.04813
G1 X53.119 Y129.247 E20.0737
G1 X52.764 Y128.564 E20.0993
G1 X52.483 Y127.849 E20.12485
G1 X52.277 Y127.107 E20.15046
G1 X52.149 Y126.349 E20.17603
G1 X52.1 Y125.5 E20.20432
G1 X52.1 Y109.5 E20.73648
G0 F6000 X52.5 Y109.5
G1 F900 X52.54 Y108.753 E20.76136
G1 X52.659 Y108.015 E20.78622
G1 X52.857 Y107.293 E20.81112
G1 X53.13 Y106.597 E20.83599
G1 X53.477 Y105.934 E20.86088
G1 X53.892 Y105.311 E20.88578
G1 X54.371 Y104.737 E20.91064
G1 X54.908 Y104.216 E20.93553
G1 X55.498 Y103.757 E20.96039
G1 X56.134 Y103.362 E20.98529
G1 X56.808 Y103.038 E21.01016
G1 X57.513 Y102.788 E21.03504
G1 X58.241 Y102.614 E21.05994
G1 X58.983 Y102.519 E21.08482
G1 X59.5 Y102.5 E21.10202
G1 X175.5 Y102.5 E24.9602
G1 X176.247 Y102.54 E24.98508
G1 X176.985 Y102.659 E25.00994
G1 X177.707 Y102.857 E25.03484
G1 X178.403 Y103.13 E25.05971
G1 X179.066 Y103.477 E25.0846
G1 X179.689 Y103.892 E25.1095
G1 X180.263 Y104.371 E25.13436
G1 X180.784 Y104.908 E25.15925
G1 X181.243 Y105.498 E25.18411
G1 X181.638 Y106.134 E25.20901
G1 X181.962 Y106.808 E25.23389
G1 X182.212 Y107.513 E25.25876
G1 X182.386 Y108.241 E25.28366
G1 X182.481 Y108.983 E25.30854
G1 X182.5 Y109.5 E25.32575
G1 X182.5 Y125.5 E25.85791
G1 X182.46 Y126.247 E25.88279
G1 X182.341 Y126.985 E25.90765
G1 X182.143 Y127.707 E25.93255
G1 X181.87 Y128.403 E25.95742
G1 X181.523 Y129.066 E25.98231
G1 X181.108 Y129.689 E26.00721
G1 X180.629 Y130.263 E26.03207
G1 X180.092 Y130.784 E26.05696
G1 X179.502 Y131.243 E26.08182
G1 X178.866 Y131.638 E26.10672
G1 X178.192 Y131.962 E26.13159
G1 X177.487 Y132.212 E26.15647
G1 X176.759 Y132.386 E26.18137
G1 X176.017 Y132.481 E26.20625
G1 X175.5 Y132.5 E26.22346
G1 X59.5 Y132.5 E30.08163
G1 X58.753 Y132.46 E30.10651
G1 X58.015 Y132.341 E30.13138
G1 X57.293 Y132.143 E30.15628
G1 X56.597 Y131.87 E30.18114
G1 X55.934 Y131.523 E30.20603
G1 X55.311 Y131.108 E30.23093
G1 X54.737 Y130.629 E30.25579
G1 X54.216 Y130.092 E30.28068
G1 X53.757 Y129.502 E30.30554
G1 X53.362 Y128.866 E30.33044
G1 X53.038 Y128.192 E30.35532
G1 X52.788 Y127.487 E30.3802
G1 X52.614 Y126.759 E30.40509
G1 X52.519 Y126.017 E30.42997
G1 X52.5 Y125.5 E30.44718
G1 X52.5 Y109.5 E30.97934
G0 F6000 X52.9 Y109.5
G1 F900 X52.94 Y108.775 E31.00349
G1 X53.059 Y108.058 E31.02766
G1 X53.257 Y107.359 E31.05183
G1 X53.53 Y106.686 E31.07598
G1 X53.875 Y106.047 E31.10014
G1 X54.289 Y105.45 E31.1243
G1 X54.765 Y104.902 E31.14844
G1 X55.299 Y104.409 E31.17262
G1 X55.884 Y103.979 E31.19676
G1 X56.513 Y103.615 E31.22093
G1 X57.178 Y103.322 E31.2451
G1 X57.871 Y103.104 E31.26927
G1 X58.583 Y102.964 E31.2934
G1 X59.5 Y102.9 E31.32398
G1 X175.5 Y102.9 E35.18215
G1 X176.225 Y102.94 E35.2063
G1 X176.942 Y103.059 E35.23048
G1 X177.641 Y103.257 E35.25464
G1 X178.314 Y103.53 E35.27879
G1 X178.953 Y103.875 E35.30295
G1 X179.55 Y104.289 E35.32711
G1 X180.098 Y104.765 E35.35125
G1 X180.591 Y105.299 E35.37543
G1 X181.021 Y105.884 E35.39957
G1 X181.385 Y106.513 E35.42375
G1 X181.678 Y107.178 E35.44791
G1 X181.896 Y107.871 E35.47208
G1 X182.036 Y108.583 E35.49621
G1 X182.1 Y109.5 E35.52679
G1 X182.1 Y125.5 E36.05895
G1 X182.06 Y126.225 E36.0831
G1 X181.941 Y126.942 E36.10727
G1 X181.743 Y127.641 E36.13144
G1 X181.47 Y128.314 E36.15559
G1 X181.125 Y128.953 E36.17974
G1 X180.711 Y129.55 E36.20391
G1 X180.235 Y130.098 E36.22805
G1 X179.701 Y130.591 E36.25222
G1 X179.116 Y131.021 E36.27637
G1 X178.487 Y131.385 E36.30054
G1 X177.822 Y131.678 E36.32471
G1 X177.129 Y131.896 E36.34887
G1 X176.417 Y132.036 E36.37301
G1 X175.5 Y132.1 E36.40358
G1 X59.5 Y132.1 E40.26176
G1 X58.775 Y132.06 E40.28591
G1 X58.058 Y131.941 E40.31008
G1 X57.359 Y131.743 E40.33425
G1 X56.686 Y131.47 E40.3584
G1 X56.047 Y131.125 E40.38256
G1 X55.45 Y130.711 E40.40672
G1 X54.902 Y130.235 E40.43086
G1 X54.409 Y129.701 E40.45503
G1 X53.979 Y129.116 E40.47918
G1 X53.615 Y128.487 E40.50335
G1 X53.322 Y127.822 E40.52752
G1 X53.104 Y127.129 E40.55169
G1 X52.964 Y126.417 E40.57582
G1 X52.9 Y125.5 E40.60639
G1 X52.9 Y109.5 E41.13856
G0 F6000 X53.3 Y109.5
G1 F900 X53.34 Y108.797 E41.16198
G1 X53.459 Y108.103 E41.1854
G1 X53.657 Y107.428 E41.20879
G1 X53.929 Y106.779 E41.2322
G1 X54.274 Y106.165 E41.25562
G1 X54.685 Y105.594 E41.27902
G1 X55.159 Y105.073 E41.30245
G1 X55.689 Y104.609 E41.32588
G1 X56.268 Y104.209 E41.34928
G1 X56.889 Y103.877 E41.3727
G1 X57.543 Y103.617 E41.39611
G1 X58.223 Y103.433 E41.41954
G1 X58.919 Y103.327 E41.44296
G1 X59.5 Y103.3 E41.4623
G1 X175.5 Y103.3 E45.32048
G1 X176.203 Y103.34 E45.3439
G1 X176.897 Y103.459 E45.36732
G1 X177.572 Y103.657 E45.39071
G1 X178.221 Y103.929 E45.41412
G1 X178.835 Y104.274 E45.43754
G1 X179.406 Y104.685 E45.46094
G1 X179.927 Y105.159 E45.48437
G1 X180.391 Y105.689 E45.5078
G1 X180.791 Y106.268 E45.53121
G1 X181.123 Y106.889 E45.55463
G1 X181.383 Y107.543 E45.57804
G1 X181.567 Y108.223 E45.60147
G1 X181.673 Y108.919 E45.62488
G1 X181.7 Y109.5 E45.64423
G1 X181.7 Y125.5 E46.17639
G1 X181.66 Y126.203 E46.19981
G1 X181.541 Y126.897 E46.22323
G1 X181.343 Y127.572 E46.24662
G1 X181.071 Y128.221 E46.27003
G1 X180.726 Y128.835 E46.29345
G1 X180.315 Y129.406 E46.31685
G1 X179.841 Y129.927 E46.34028
G1 X179.311 Y130.391 E46.36371
G1 X178.732 Y130.791 E46.38712
G1 X178.111 Y131.123 E46.41054
G1 X177.457 Y131.383 E46.43394
G1 X176.777 Y131.567 E46.45737
G1 X176.081 Y131.673 E46.48079
G1 X175.5 Y131.7 E46.50014
G1 X59.5 Y131.7 E50.35831
G1 X58.797 Y131.66 E50.38173
G1 X58.103 Y131.541 E50.40515
G1 X57.428 Y131.343 E50.42855
G1 X56.779 Y131.071 E50.45195
G1 X56.165 Y130.726 E50.47538
G1 X55.594 Y130.315 E50.49878
G1 X55.073 Y129.841 E50.5222
G1 X54.609 Y129.311 E50.54563
G1 X54.209 Y128.732 E50.56904
G1 X53.877 Y128.111 E50.59246
G1 X53.617 Y127.457 E50.61587
G1 X53.433 Y126.777 E50.6393
G1 X53.327 Y126.081 E50.66271
G1 X53.3 Y125.5 E50.68206
G1 X53.3 Y109.5 E51.21422
G0 F6000 X53.7 Y109.5
G1 F900 X53.74 Y108.82 E51.23688
G1 X53.859 Y108.15 E51.25951
G1 X54.056 Y107.498 E51.28216
G1 X54.328 Y106.874 E51.3048
G1 X54.672 Y106.286 E51.32746
G1 X55.082 Y105.742 E51.35012
G1 X55.553 Y105.251 E51.37275
G1 X56.078 Y104.817 E51.3954
G1 X56.65 Y104.448 E51.41804
G1 X57.262 Y104.149 E51.4407
G1 X57.904 Y103.924 E51.46333
G1 X58.569 Y103.775 E51.48599
G1 X59.5 Y103.7 E51.51706
G1 X175.5 Y103.7 E55.37523
G1 X176.18 Y103.74 E55.39789
G1 X176.85 Y103.859 E55.42052
G1 X177.502 Y104.056 E55.44318
G1 X178.126 Y104.328 E55.46582
G1 X178.714 Y104.672 E55.48847
G1 X179.258 Y105.082 E55.51113
G1 X179.749 Y105.553 E55.53376
G1 X180.183 Y106.078 E55.55642
G1 X180.552 Y106.65 E55.57906
G1 X180.851 Y107.262 E55.60171
G1 X181.076 Y107.904 E55.62434
G1 X181.225 Y108.569 E55.647
G1 X181.3 Y109.5 E55.67807
G1 X181.3 Y125.5 E56.21023
G1 X181.26 Y126.18 E56.23289
G1 X181.141 Y126.85 E56.25552
G1 X180.944 Y127.502 E56.27817
G1 X180.672 Y128.126 E56.30081
G1 X180.328 Y128.714 E56.32347
G1 X179.918 Y129.258 E56.34613
G1 X179.447 Y129.749 E56.36876
G1 X178.922 Y130.183 E56.39141
G1 X178.35 Y130.552 E56.41405
G1 X177.738 Y130.851 E56.43671
G1 X177.096 Y131.076 E56.45934
G1 X176.431 Y131.225 E56.482
G1 X175.5 Y131.3 E56.51307
G1 X59.5 Y131.3 E60.37124
G1 X58.82 Y131.26 E60.3939
G1 X58.15 Y131.141 E60.41653
G1 X57.498 Y130.944 E60.43919
G1 X56.874 Y130.672 E60.46183
G1 X56.286 Y130.328 E60.48448
G1 X55.742 Y129.918 E60.50714
G1 X55.251 Y129.447 E60.52977
G1 X54.817 Y128.922 E60.55243
G1 X54.448 Y128.35 E60.57507
G1 X54.149 Y127.738 E60.59772
G1 X53.924 Y127.096 E60.62035
G1 X53.775 Y126.431 E60.64301
G1 X53.7 Y125.5 E60.67408
G1 X53.7 Y109.5 E61.20624
G0 F6000 X54.1 Y109.5
G1 F900 X54.14 Y108.844 E61.2281
G1 X54.259 Y108.198 E61.24995
G1 X54.456 Y107.571 E61.27181
G1 X54.728 Y106.973 E61.29366
G1 X55.07 Y106.412 E61.31551
G1 X55.478 Y105.897 E61.33736
G1 X55.945 Y105.435 E61.35921
G1 X56.465 Y105.034 E61.38105
G1 X57.029 Y104.698 E61.40289
G1 X57.631 Y104.434 E61.42475
G1 X58.26 Y104.244 E61.44661
G1 X58.907 Y104.133 E61.46844
G1 X59.5 Y104.1 E61.48819
G1 X175.5 Y104.1 E65.34637
G1 X176.156 Y104.14 E65.36823
G1 X176.802 Y104.259 E65.39008
G1 X177.429 Y104.456 E65.41193
G1 X178.027 Y104.728 E65.43379
G1 X178.588 Y105.07 E65.45564
G1 X179.103 Y105.478 E65.47749
G1 X179.565 Y105.945 E65.49934
G1 X179.966 Y106.465 E65.52118
G1 X180.302 Y107.029 E65.54302
G1 X180.566 Y107.631 E65.56488
G1 X180.756 Y108.26 E65.58673
G1 X180.867 Y108.907 E65.60857
G1 X180.9 Y109.5 E65.62832
G1 X180.9 Y125.5 E66.16048
G1 X180.86 Y126.156 E66.18234
G1 X180.741 Y126.802 E66.20419
G1 X180.544 Y127.429 E66.22605
G1 X180.272 Y128.027 E66.2479
G1 X179.93 Y128.588 E66.26975
G1 X179.522 Y129.103 E66.2916
G1 X179.055 Y129.565 E66.31345
G1 X178.535 Y129.966 E66.33529
G1 X177.971 Y130.302 E66.35713
G1 X177.369 Y130.566 E66.37899
G1 X176.74 Y130.756 E66.40085
G1 X176.093 Y130.867 E66.42268
G1 X175.5 Y130.9 E66.44243
G1 X59.5 Y130.9 E70.30061
G1 X58.844 Y130.86 E70.32247
G1 X58.198 Y130.741 E70.34432
G1 X57.571 Y130.544 E70.36618
G1 X56.973 Y130.272 E70.38803
G1 X56.412 Y129.93 E70.40988
G1 X55.897 Y129.522 E70.43173
G1 X55.435 Y129.055 E70.45358
G1 X55.034 Y128.535 E70.47542
G1 X54.698 Y127.971 E70.49726
G1 X54.434 Y127.369 E70.51912
G1 X54.244 Y126.74 E70.54097
G1 X54.133 Y126.093 E70.56281
G1 X54.1 Y125.5 E70.58256
G1 X54.1 Y109.5 E71.11472
G0 F6000 X54.5 Y109.5
G1 F900 X54.54 Y108.869 E71.13575
G1 X54.659 Y108.248 E71.15678
G1 X54.856 Y107.648 E71.17779
G1 X55.127 Y107.076 E71.19884
G1 X55.467 Y106.544 E71.21984
G1 X55.873 Y106.059 E71.24088
G1 X56.336 Y105.629 E71.26189
G1 X56.85 Y105.26 E71.28294
G1 X57.406 Y104.96 E71.30395
G1 X57.995 Y104.732 E71.32496
G1 X58.609 Y104.58 E71.346
G1 X59.5 Y104.5 E71.37575
G1 X175.5 Y104.5 E75.23393
G1 X176.131 Y104.54 E75.25495
G1 X176.752 Y104.659 E75.27599
G1 X177.352 Y104.856 E75.29699
G1 X177.924 Y105.127 E75.31804
G1 X178.456 Y105.467 E75.33904
G1 X178.941 Y105.873 E75.36008
G1 X179.371 Y106.336 E75.38109
G1 X179.74 Y106.85 E75.40214
G1 X180.04 Y107.406 E75.42315
G1 X180.268 Y107.995 E75.44416
G1 X180.42 Y108.609 E75.4652
G1 X180.5 Y109.5 E75.49495
G1 X180.5 Y125.5 E76.02711
G1 X180.46 Y126.131 E76.04814
G1 X180.341 Y126.752 E76.06917
G1 X180.144 Y127.352 E76.09018
G1 X179.873 Y127.924 E76.11123
G1 X179.533 Y128.456 E76.13223
G1 X179.127 Y128.941 E76.15327
G1 X178.664 Y129.371 E76.17428
G1 X178.15 Y129.74 E76.19533
G1 X177.594 Y130.04 E76.21634
G1 X177.005 Y130.268 E76.23735
G1 X176.391 Y130.42 E76.25838
G1 X175.5 Y130.5 E76.28814
G1 X59.5 Y130.5 E80.14631
G1 X58.869 Y130.46 E80.16734
G1 X58.248 Y130.341 E80.18837
G1 X57.648 Y130.144 E80.20938
G1 X57.076 Y129.873 E80.23043
G1 X56.544 Y129.533 E80.25143
G1 X56.059 Y129.127 E80.27247
G1 X55.629 Y128.664 E80.29348
G1 X55.26 Y128.15 E80.31453
G1 X54.96 Y127.594 E80.33554
G1 X54.732 Y127.005 E80.35655
G1 X54.58 Y126.391 E80.37759
G1 X54.5 Y125.5 E80.40734
G1 X54.5 Y109.5 E80.9395
G0 F6000 X54.9 Y109.5
G1 F900 X54.94 Y108.895 E80.95967
G1 X55.059 Y108.301 E80.97982
G1 X55.255 Y107.727 E80.99999
G1 X55.526 Y107.184 E81.02018
G1 X55.865 Y106.681 E81.04035
G1 X56.267 Y106.228 E81.06049
