;FLAVOR:Marlin
;TIME:11191
;Filament used: 7.14544m
;Layer height: 0.2
;MINX:28.7
;MINY:29.2
;MINZ:0.2
;MAXX:206.3
;MAXY:205.8
;MAXZ:1
;Generated with Cura_SteamEngine main
M140 S65
M105
M190 S65
M104 S240
M105
M109 S240
M82 ;absolute extrusion mode
; Ender 3 Custom Start G-code
G92 E0 ; Reset Extruder
G28 ; Home all axes
G1 Z2.0 F3000 ; Move Z Axis up little to prevent scratching of Heat Bed
G1 X0.1 Y20 Z0.3 F5000.0 ; Move to start position
G1 X0.1 Y200.0 Z0.3 F1500.0 E15 ; Draw the first line
G1 X0.4 Y200.0 Z0.3 F5000.0 ; Move to side a little
G1 X0.4 Y20 Z0.3 F1500.0 E30 ; Draw the second line
G92 E0 ; Reset Extruder
G1 Z2.0 F3000 ; Move Z Axis up little to prevent scratching of Heat Bed
G1 X5 Y20 Z0.3 F5000.0 ; Move over to prevent blob squish
G92 E0
G92 E0
G1 F2700 E-5
;LAYER_COUNT:5
;LAYER:0
M107
G0 F6000 X31.123 Y31.349 Z0.2
G0 X28.7 Y37
;TYPE:SKIRT
G1 F2700 E0
G1 F900 X28.74 Y36.211 E0.02628
G1 X28.859 Y35.431 E0.05252
G1 X29.057 Y34.666 E0.0788
G1 X29.331 Y33.926 E0.10505
G1 X29.679 Y33.217 E0.13132
G1 X30.097 Y32.546 E0.15761
G1 X30.58 Y31.922 E0.18385
G1 X31.123 Y31.349 E0.21011
G1 X31.722 Y30.834 E0.23638
G1 X32.37 Y30.383 E0.26264
G1 X33.061 Y29.999 E0.28894
G1 X33.786 Y29.687 E0.31519
G1 X34.539 Y29.45 E0.34144
G1 X35.313 Y29.291 E0.36773
G1 X36.098 Y29.21 E0.39397
G1 X36.5 Y29.2 E0.40735
G1 X198.5 Y29.2 E5.79549
G1 X199.289 Y29.24 E5.82177
G1 X200.069 Y29.359 E5.84801
G1 X200.834 Y29.557 E5.87429
G1 X201.574 Y29.831 E5.90054
G1 X202.283 Y30.179 E5.92681
G1 X202.954 Y30.597 E5.9531
G1 X203.578 Y31.08 E5.97934
G1 X204.151 Y31.623 E6.0056
G1 X204.666 Y32.222 E6.03187
G1 X205.117 Y32.87 E6.05813
G1 X205.501 Y33.561 E6.08443
G1 X205.813 Y34.286 E6.11068
G1 X206.05 Y35.039 E6.13693
G1 X206.209 Y35.813 E6.16322
G1 X206.29 Y36.598 E6.18946
G1 X206.3 Y37 E6.20284
G1 X206.3 Y198 E11.55772
G1 X206.26 Y198.789 E11.584
G1 X206.141 Y199.569 E11.61024
G1 X205.943 Y200.334 E11.63652
G1 X205.669 Y201.074 E11.66277
G1 X205.321 Y201.783 E11.68904
G1 X204.903 Y202.454 E11.71533
G1 X204.42 Y203.078 E11.74157
G1 X203.877 Y203.651 E11.76783
G1 X203.278 Y204.166 E11.7941
G1 X202.63 Y204.617 E11.82036
G1 X201.939 Y205.001 E11.84666
G1 X201.214 Y205.313 E11.87291
G1 X200.461 Y205.55 E11.89916
G1 X199.687 Y205.709 E11.92545
G1 X198.902 Y205.79 E11.95169
G1 X198.5 Y205.8 E11.96507
G1 X36.5 Y205.8 E17.35321
G1 X35.711 Y205.76 E17.37949
G1 X34.931 Y205.641 E17.40573
G1 X34.166 Y205.443 E17.43201
G1 X33.426 Y205.169 E17.45826
G1 X32.717 Y204.821 E17.48453
G1 X32.046 Y204.403 E17.51082
G1 X31.422 Y203.92 E17.53706
G1 X30.849 Y203.377 E17.56332
G1 X30.334 Y202.778 E17.58959
G1 X29.883 Y202.13 E17.61585
G1 X29.499 Y201.439 E17.64215
G1 X29.187 Y200.714 E17.6684
G1 X28.95 Y199.961 E17.69465
G1 X28.791 Y199.187 E17.72093
G1 X28.71 Y198.402 E17.74718
G1 X28.7 Y198 E17.76056
G1 X28.7 Y37 E23.11544
G0 F6000 X29.1 Y37
G1 F900 X29.14 Y36.232 E23.14102
G1 X29.259 Y35.472 E23.1666
G1 X29.457 Y34.729 E23.19218
G1 X29.731 Y34.01 E23.21777
G1 X30.078 Y33.324 E23.24334
G1 X30.494 Y32.677 E23.26892
G1 X30.975 Y32.077 E23.2945
G1 X31.516 Y31.53 E23.32009
G1 X32.111 Y31.042 E23.34568
G1 X32.753 Y30.619 E23.37125
G1 X33.436 Y30.264 E23.39686
G1 X34.151 Y29.983 E23.42241
G1 X34.893 Y29.777 E23.44802
G1 X35.651 Y29.649 E23.47359
G1 X36.5 Y29.6 E23.50187
G1 X198.5 Y29.6 E28.89001
G1 X199.268 Y29.64 E28.91559
G1 X200.028 Y29.759 E28.94118
G1 X200.771 Y29.957 E28.96675
G1 X201.49 Y30.231 E28.99235
G1 X202.176 Y30.578 E29.01791
G1 X202.823 Y30.994 E29.0435
G1 X203.423 Y31.475 E29.06908
G1 X203.97 Y32.016 E29.09466
G1 X204.458 Y32.611 E29.12026
G1 X204.881 Y33.253 E29.14583
G1 X205.236 Y33.936 E29.17143
G1 X205.517 Y34.651 E29.19698
G1 X205.723 Y35.393 E29.2226
G1 X205.851 Y36.151 E29.24816
G1 X205.9 Y37 E29.27645
G1 X205.9 Y198 E34.63133
G1 X205.86 Y198.768 E34.65691
G1 X205.741 Y199.528 E34.68249
G1 X205.543 Y200.271 E34.70807
G1 X205.269 Y200.99 E34.73366
G1 X204.922 Y201.676 E34.75923
G1 X204.506 Y202.323 E34.78481
G1 X204.025 Y202.923 E34.81039
G1 X203.484 Y203.47 E34.83598
G1 X202.889 Y203.958 E34.86157
G1 X202.247 Y204.381 E34.88715
G1 X201.564 Y204.736 E34.91275
G1 X200.849 Y205.017 E34.9383
G1 X200.107 Y205.223 E34.96391
G1 X199.349 Y205.351 E34.98948
G1 X198.5 Y205.4 E35.01776
G1 X36.5 Y205.4 E40.40591
G1 X35.732 Y205.36 E40.43148
G1 X34.972 Y205.241 E40.45707
G1 X34.229 Y205.043 E40.48264
G1 X33.51 Y204.769 E40.50824
G1 X32.824 Y204.422 E40.53381
G1 X32.177 Y204.006 E40.55939
G1 X31.577 Y203.525 E40.58497
G1 X31.03 Y202.984 E40.61055
G1 X30.542 Y202.389 E40.63615
G1 X30.119 Y201.747 E40.66172
G1 X29.764 Y201.064 E40.68732
G1 X29.483 Y200.349 E40.71287
G1 X29.277 Y199.607 E40.73849
G1 X29.149 Y198.849 E40.76405
G1 X29.1 Y198 E40.79234
G1 X29.1 Y37 E46.14722
G0 F6000 X29.5 Y37
G1 F900 X29.54 Y36.253 E46.1721
G1 X29.659 Y35.515 E46.19697
G1 X29.857 Y34.793 E46.22187
G1 X30.13 Y34.097 E46.24673
G1 X30.477 Y33.434 E46.27162
G1 X30.892 Y32.811 E46.29652
G1 X31.371 Y32.237 E46.32138
G1 X31.908 Y31.716 E46.34627
G1 X32.498 Y31.257 E46.37113
G1 X33.134 Y30.862 E46.39603
G1 X33.808 Y30.538 E46.42091
G1 X34.513 Y30.288 E46.44579
G1 X35.241 Y30.114 E46.47068
G1 X35.983 Y30.019 E46.49556
G1 X36.5 Y30 E46.51277
G1 X198.5 Y30 E51.90091
G1 X199.247 Y30.04 E51.92579
G1 X199.985 Y30.159 E51.95065
G1 X200.707 Y30.357 E51.97555
G1 X201.403 Y30.63 E52.00042
G1 X202.066 Y30.977 E52.02531
G1 X202.689 Y31.392 E52.05021
G1 X203.263 Y31.871 E52.07507
G1 X203.784 Y32.408 E52.09996
G1 X204.243 Y32.998 E52.12482
G1 X204.638 Y33.634 E52.14972
G1 X204.962 Y34.308 E52.17459
G1 X205.212 Y35.013 E52.19947
G1 X205.386 Y35.741 E52.22437
G1 X205.481 Y36.483 E52.24925
G1 X205.5 Y37 E52.26646
G1 X205.5 Y198 E57.62134
G1 X205.46 Y198.747 E57.64622
G1 X205.341 Y199.485 E57.67108
G1 X205.143 Y200.207 E57.69598
G1 X204.87 Y200.903 E57.72085
G1 X204.523 Y201.566 E57.74574
G1 X204.108 Y202.189 E57.77064
G1 X203.629 Y202.763 E57.7955
G1 X203.092 Y203.284 E57.82039
G1 X202.502 Y203.743 E57.84525
G1 X201.866 Y204.138 E57.87015
G1 X201.192 Y204.462 E57.89502
G1 X200.487 Y204.712 E57.9199
G1 X199.759 Y204.886 E57.9448
G1 X199.017 Y204.981 E57.96968
G1 X198.5 Y205 E57.98689
G1 X36.5 Y205 E63.37503
G1 X35.753 Y204.96 E63.39991
G1 X35.015 Y204.841 E63.42477
G1 X34.293 Y204.643 E63.44967
G1 X33.597 Y204.37 E63.47454
G1 X32.934 Y204.023 E63.49943
G1 X32.311 Y203.608 E63.52432
G1 X31.737 Y203.129 E63.54919
G1 X31.216 Y202.592 E63.57408
G1 X30.757 Y202.002 E63.59894
G1 X30.362 Y201.366 E63.62384
G1 X30.038 Y200.692 E63.64871
G1 X29.788 Y199.987 E63.67359
G1 X29.614 Y199.259 E63.69849
G1 X29.519 Y198.517 E63.72337
G1 X29.5 Y198 E63.74057
G1 X29.5 Y37 E69.09546
G0 F6000 X29.9 Y37
G1 F900 X29.94 Y36.275 E69.11961
G1 X30.059 Y35.558 E69.14378
G1 X30.257 Y34.859 E69.16794
G1 X30.53 Y34.186 E69.1921
G1 X30.875 Y33.547 E69.21625
G1 X31.289 Y32.95 E69.24042
G1 X31.765 Y32.402 E69.26456
G1 X32.299 Y31.909 E69.28873
G1 X32.884 Y31.479 E69.31288
G1 X33.513 Y31.115 E69.33705
G1 X34.178 Y30.822 E69.36122
G1 X34.871 Y30.604 E69.38538
G1 X35.583 Y30.464 E69.40952
G1 X36.5 Y30.4 E69.44009
G1 X198.5 Y30.4 E74.82823
G1 X199.225 Y30.44 E74.85238
G1 X199.942 Y30.559 E74.87656
G1 X200.641 Y30.757 E74.90072
G1 X201.314 Y31.03 E74.92488
G1 X201.953 Y31.375 E74.94903
G1 X202.55 Y31.789 E74.97319
G1 X203.098 Y32.265 E74.99733
G1 X203.591 Y32.799 E75.02151
G1 X204.021 Y33.384 E75.04566
G1 X204.385 Y34.013 E75.06983
G1 X204.678 Y34.678 E75.094
G1 X204.896 Y35.371 E75.11816
G1 X205.036 Y36.083 E75.14229
G1 X205.1 Y37 E75.17287
G1 X205.1 Y198 E80.52775
G1 X205.06 Y198.725 E80.5519
G1 X204.941 Y199.442 E80.57607
G1 X204.743 Y200.141 E80.60024
G1 X204.47 Y200.814 E80.62439
G1 X204.125 Y201.453 E80.64855
G1 X203.711 Y202.05 E80.67271
G1 X203.235 Y202.598 E80.69685
G1 X202.701 Y203.091 E80.72102
G1 X202.116 Y203.521 E80.74517
G1 X201.487 Y203.885 E80.76934
G1 X200.822 Y204.178 E80.79351
G1 X200.129 Y204.396 E80.81768
G1 X199.417 Y204.536 E80.84181
G1 X198.5 Y204.6 E80.87238
G1 X36.5 Y204.6 E86.26053
G1 X35.775 Y204.56 E86.28468
G1 X35.058 Y204.441 E86.30885
G1 X34.359 Y204.243 E86.33301
G1 X33.686 Y203.97 E86.35717
G1 X33.047 Y203.625 E86.38132
G1 X32.45 Y203.211 E86.40549
G1 X31.902 Y202.735 E86.42963
G1 X31.409 Y202.201 E86.4538
G1 X30.979 Y201.616 E86.47795
G1 X30.615 Y200.987 E86.50212
G1 X30.322 Y200.322 E86.52629
G1 X30.104 Y199.629 E86.55045
G1 X29.964 Y198.917 E86.57459
G1 X29.9 Y198 E86.60516
G1 X29.9 Y37 E91.96004
G0 F6000 X30.3 Y37
G1 F900 X30.34 Y36.297 E91.98346
G1 X30.459 Y35.603 E92.00688
G1 X30.657 Y34.928 E92.03028
G1 X30.929 Y34.279 E92.05368
G1 X31.274 Y33.665 E92.07711
G1 X31.685 Y33.094 E92.10051
G1 X32.159 Y32.573 E92.12393
G1 X32.689 Y32.109 E92.14736
G1 X33.268 Y31.709 E92.17077
G1 X33.889 Y31.377 E92.19419
G1 X34.543 Y31.117 E92.2176
G1 X35.223 Y30.933 E92.24103
G1 X35.919 Y30.827 E92.26444
G1 X36.5 Y30.8 E92.28379
G1 X198.5 Y30.8 E97.67193
G1 X199.203 Y30.84 E97.69535
G1 X199.897 Y30.959 E97.71877
G1 X200.572 Y31.157 E97.74217
G1 X201.221 Y31.429 E97.76557
G1 X201.835 Y31.774 E97.789
G1 X202.406 Y32.185 E97.8124
G1 X202.927 Y32.659 E97.83582
G1 X203.391 Y33.189 E97.85925
G1 X203.791 Y33.768 E97.88266
G1 X204.123 Y34.389 E97.90608
G1 X204.383 Y35.043 E97.92949
G1 X204.567 Y35.723 E97.95292
G1 X204.673 Y36.419 E97.97633
G1 X204.7 Y37 E97.99568
G1 X204.7 Y198 E103.35056
G1 X204.66 Y198.703 E103.37398
G1 X204.541 Y199.397 E103.3974
G1 X204.343 Y200.072 E103.4208
G1 X204.071 Y200.721 E103.4442
G1 X203.726 Y201.335 E103.46763
G1 X203.315 Y201.906 E103.49103
G1 X202.841 Y202.427 E103.51445
G1 X202.311 Y202.891 E103.53788
G1 X201.732 Y203.291 E103.56129
G1 X201.111 Y203.623 E103.58471
G1 X200.457 Y203.883 E103.60812
G1 X199.777 Y204.067 E103.63155
G1 X199.081 Y204.173 E103.65496
G1 X198.5 Y204.2 E103.67431
G1 X36.5 Y204.2 E109.06245
G1 X35.797 Y204.16 E109.08587
G1 X35.103 Y204.041 E109.10929
G1 X34.428 Y203.843 E109.13269
G1 X33.779 Y203.571 E109.15609
G1 X33.165 Y203.226 E109.17952
G1 X32.594 Y202.815 E109.20291
G1 X32.073 Y202.341 E109.22634
G1 X31.609 Y201.811 E109.24977
G1 X31.209 Y201.232 E109.27318
G1 X30.877 Y200.611 E109.2966
G1 X30.617 Y199.957 E109.32001
G1 X30.433 Y199.277 E109.34344
G1 X30.327 Y198.581 E109.36685
G1 X30.3 Y198 E109.3862
G1 X30.3 Y37 E114.74108
G0 F6000 X30.7 Y37
G1 F900 X30.74 Y36.32 E114.76373
G1 X30.859 Y35.65 E114.78637
G1 X31.056 Y34.998 E114.80902
G1 X31.328 Y34.374 E114.83166
G1 X31.672 Y33.786 E114.85432
G1 X32.082 Y33.242 E114.87698
G1 X32.553 Y32.751 E114.89961
G1 X33.078 Y32.317 E114.92226
G1 X33.65 Y31.948 E114.9449
G1 X34.262 Y31.649 E114.96756
G1 X34.904 Y31.424 E114.99018
G1 X35.569 Y31.275 E115.01285
G1 X36.5 Y31.2 E115.04392
G1 X198.5 Y31.2 E120.43206
G1 X199.18 Y31.24 E120.45471
G1 X199.85 Y31.359 E120.47735
G1 X200.502 Y31.556 E120.5
G1 X201.126 Y31.828 E120.52264
G1 X201.714 Y32.172 E120.5453
G1 X202.258 Y32.582 E120.56795
G1 X202.749 Y33.053 E120.59058
G1 X203.183 Y33.578 E120.61324
G1 X203.552 Y34.15 E120.63588
G1 X203.851 Y34.762 E120.65853
G1 X204.076 Y35.404 E120.68116
G1 X204.225 Y36.069 E120.70383
G1 X204.3 Y37 E120.73489
G1 X204.3 Y198 E126.08977
G1 X204.26 Y198.68 E126.11243
G1 X204.141 Y199.35 E126.13506
G1 X203.944 Y200.002 E126.15772
G1 X203.672 Y200.626 E126.18036
G1 X203.328 Y201.214 E126.20302
G1 X202.918 Y201.758 E126.22567
G1 X202.447 Y202.249 E126.2483
G1 X201.922 Y202.683 E126.27096
G1 X201.35 Y203.052 E126.2936
G1 X200.738 Y203.351 E126.31625
G1 X200.096 Y203.576 E126.33888
G1 X199.431 Y203.725 E126.36155
G1 X198.5 Y203.8 E126.39261
G1 X36.5 Y203.8 E131.78075
G1 X35.82 Y203.76 E131.80341
G1 X35.15 Y203.641 E131.82604
G1 X34.498 Y203.444 E131.8487
G1 X33.874 Y203.172 E131.87134
G1 X33.286 Y202.828 E131.89399
G1 X32.742 Y202.418 E131.91665
G1 X32.251 Y201.947 E131.93928
G1 X31.817 Y201.422 E131.96194
G1 X31.448 Y200.85 E131.98458
G1 X31.149 Y200.238 E132.00723
G1 X30.924 Y199.596 E132.02986
G1 X30.775 Y198.931 E132.05252
G1 X30.7 Y198 E132.08359
G1 X30.7 Y37 E137.43847
G0 F6000 X31.1 Y37
G1 F900 X31.14 Y36.344 E137.46033
G1 X31.259 Y35.698 E137.48218
G1 X31.456 Y35.071 E137.50404
G1 X31.728 Y34.473 E137.52589
G1 X32.07 Y33.912 E137.54774
G1 X32.478 Y33.397 E137.56959
G1 X32.945 Y32.935 E137.59144
G1 X33.465 Y32.534 E137.61328
G1 X34.029 Y32.198 E137.63512
G1 X34.631 Y31.934 E137.65698
G1 X35.26 Y31.744 E137.67884
G1 X35.907 Y31.633 E137.70067
G1 X36.5 Y31.6 E137.72042
G1 X198.5 Y31.6 E143.10856
G1 X199.156 Y31.64 E143.13042
G1 X199.802 Y31.759 E143.15227
G1 X200.429 Y31.956 E143.17413
G1 X201.027 Y32.228 E143.19598
G1 X201.588 Y32.57 E143.21783
G1 X202.103 Y32.978 E143.23969
G1 X202.565 Y33.445 E143.26154
G1 X202.966 Y33.965 E143.28338
G1 X203.302 Y34.529 E143.30521
G1 X203.566 Y35.131 E143.32707
G1 X203.756 Y35.76 E143.34893
G1 X203.867 Y36.407 E143.37076
G1 X203.9 Y37 E143.39052
G1 X203.9 Y198 E148.7454
G1 X203.86 Y198.656 E148.76726
G1 X203.741 Y199.302 E148.7891
G1 X203.544 Y199.929 E148.81096
G1 X203.272 Y200.527 E148.83281
G1 X202.93 Y201.088 E148.85467
G1 X202.522 Y201.603 E148.87652
G1 X202.055 Y202.065 E148.89837
G1 X201.535 Y202.466 E148.92021
G1 X200.971 Y202.802 E148.94205
G1 X200.369 Y203.066 E148.96391
G1 X199.74 Y203.256 E148.98576
G1 X199.093 Y203.367 E149.0076
G1 X198.5 Y203.4 E149.02735
G1 X36.5 Y203.4 E154.41549
G1 X35.844 Y203.36 E154.43735
G1 X35.198 Y203.241 E154.4592
G1 X34.571 Y203.044 E154.48106
G1 X33.973 Y202.772 E154.50291
G1 X33.412 Y202.43 E154.52476
G1 X32.897 Y202.022 E154.54661
G1 X32.435 Y201.555 E154.56846
G1 X32.034 Y201.035 E154.5903
G1 X31.698 Y200.471 E154.61214
G1 X31.434 Y199.869 E154.634
G1 X31.244 Y199.24 E154.65586
G1 X31.133 Y198.593 E154.67769
G1 X31.1 Y198 E154.69744
G1 X31.1 Y37 E160.05233
G0 F6000 X31.5 Y37
G1 F900 X31.54 Y36.369 E160.07335
G1 X31.659 Y35.748 E160.09439
G1 X31.856 Y35.148 E160.11539
G1 X32.127 Y34.576 E160.13644
G1 X32.467 Y34.044 E160.15744
G1 X32.873 Y33.559 E160.17848
G1 X33.336 Y33.129 E160.19949
G1 X33.85 Y32.76 E160.22054
G1 X34.406 Y32.46 E160.24155
G1 X34.995 Y32.232 E160.26256
G1 X35.609 Y32.08 E160.2836
G1 X36.5 Y32 E160.31335
G1 X198.5 Y32 E165.70149
G1 X199.131 Y32.04 E165.72252
G1 X199.752 Y32.159 E165.74355
G1 X200.352 Y32.356 E165.76456
G1 X200.924 Y32.627 E165.78561
G1 X201.456 Y32.967 E165.80661
G1 X201.941 Y33.373 E165.82765
G1 X202.371 Y33.836 E165.84866
G1 X202.74 Y34.35 E165.86971
G1 X203.04 Y34.906 E165.89072
G1 X203.268 Y35.495 E165.91173
G1 X203.42 Y36.109 E165.93276
G1 X203.5 Y37 E165.96252
G1 X203.5 Y198 E171.3174
G1 X203.46 Y198.631 E171.33843
G1 X203.341 Y199.252 E171.35946
G1 X203.144 Y199.852 E171.38046
G1 X202.873 Y200.424 E171.40152
G1 X202.533 Y200.956 E171.42252
G1 X202.127 Y201.441 E171.44355
G1 X201.664 Y201.871 E171.46457
G1 X201.15 Y202.24 E171.48561
G1 X200.594 Y202.54 E171.50663
G1 X200.005 Y202.768 E171.52763
G1 X199.391 Y202.92 E171.54867
G1 X198.5 Y203 E171.57843
G1 X36.5 Y203 E176.96657
G1 X35.869 Y202.96 E176.9876
G1 X35.248 Y202.841 E177.00863
G1 X34.648 Y202.644 E177.02963
G1 X34.076 Y202.373 E177.05068
G1 X33.544 Y202.033 E177.07168
G1 X33.059 Y201.627 E177.09272
G1 X32.629 Y201.164 E177.11374
G1 X32.26 Y200.65 E177.13478
G1 X31.96 Y200.094 E177.15579
G1 X31.732 Y199.505 E177.1768
G1 X31.58 Y198.891 E177.19784
G1 X31.5 Y198 E177.22759
G1 X31.5 Y37 E182.58247
G0 F6000 X31.9 Y37
G1 F900 X31.94 Y36.395 E182.60264
G1 X32.059 Y35.801 E182.62279
G1 X32.255 Y35.227 E182.64296
G1 X32.526 Y34.684 E182.66315
G1 X32.865 Y34.181 E182.68332
G1 X33.267 Y33.728 E182.70347
G1 X33.725 Y33.331 E182.72363
G1 X34.232 Y32.998 E182.7438
G1 X34.778 Y32.734 E182.76397
G1 X35.354 Y32.545 E182.78414
