;FLAVOR:Marlin
;TIME:1702
;Filament used: 1.0891m
;Layer height: 0.2
;MINX:87.2
;MINY:101.45
;MINZ:0.2
;MAXX:147.8
;MAXY:133.55
;MAXZ:6
;Generated with Cura_SteamEngine main
M140 S65
M105
M190 S65
M104 S240
M105
M109 S240
M82 ;absolute extrusion mode
; Ender 3 Custom Start G-code
G92 E0 ; Reset Extruder
G28 ; Home all axes
G1 Z2.0 F3000 ; Move Z Axis up little to prevent scratching of Heat Bed
G1 X0.1 Y20 Z0.3 F5000.0 ; Move to start position
G1 X0.1 Y200.0 Z0.3 F1500.0 E15 ; Draw the first line
G1 X0.4 Y200.0 Z0.3 F5000.0 ; Move to side a little
G1 X0.4 Y20 Z0.3 F1500.0 E30 ; Draw the second line
G92 E0 ; Reset Extruder
G1 Z2.0 F3000 ; Move Z Axis up little to prevent scratching of Heat Bed
G1 X5 Y20 Z0.3 F5000.0 ; Move over to prevent blob squish
G92 E0
G92 E0
G1 F2700 E-5
;LAYER_COUNT:30
;LAYER:0
M107
G0 F6000 X89.623 Y103.599 Z0.2
G0 X87.2 Y109.25
;TYPE:SKIRT
G1 F2700 E0
G1 F900 X87.24 Y108.461 E0.02628
G1 X87.359 Y107.681 E0.05252
G1 X87.557 Y106.916 E0.0788
G1 X87.831 Y106.176 E0.10505
G1 X88.179 Y105.467 E0.13132
G1 X88.597 Y104.796 E0.15761
G1 X89.08 Y104.172 E0.18385
G1 X89.623 Y103.599 E0.21011
G1 X90.222 Y103.084 E0.23638
G1 X90.87 Y102.633 E0.26264
G1 X91.561 Y102.249 E0.28894
G1 X92.286 Y101.937 E0.31519
G1 X93.039 Y101.7 E0.34144
G1 X93.813 Y101.541 E0.36773
G1 X94.598 Y101.46 E0.39397
G1 X95 Y101.45 E0.40735
G1 X140 Y101.45 E1.90405
G1 X140.789 Y101.49 E1.93033
G1 X141.569 Y101.609 E1.95657
G1 X142.334 Y101.807 E1.98286
G1 X143.074 Y102.081 E2.0091
G1 X143.783 Y102.429 E2.03537
G1 X144.454 Y102.847 E2.06166
G1 X145.078 Y103.33 E2.08791
G1 X145.651 Y103.873 E2.11417
G1 X146.166 Y104.472 E2.14044
G1 X146.617 Y105.12 E2.1667
G1 X147.001 Y105.811 E2.19299
G1 X147.313 Y106.536 E2.21924
G1 X147.55 Y107.289 E2.2455
G1 X147.709 Y108.063 E2.27178
G1 X147.79 Y108.848 E2.29803
G1 X147.8 Y109.25 E2.3114
G1 X147.8 Y125.75 E2.86019
G1 X147.76 Y126.539 E2.88647
G1 X147.641 Y127.319 E2.91271
G1 X147.443 Y128.084 E2.939
G1 X147.169 Y128.824 E2.96524
G1 X146.821 Y129.533 E2.99151
G1 X146.403 Y130.204 E3.0178
G1 X145.92 Y130.828 E3.04405
G1 X145.377 Y131.401 E3.07031
G1 X144.778 Y131.916 E3.09658
G1 X144.13 Y132.367 E3.12284
G1 X143.439 Y132.751 E3.14913
G1 X142.714 Y133.063 E3.17538
G1 X141.961 Y133.3 E3.20164
G1 X141.187 Y133.459 E3.22792
G1 X140.402 Y133.54 E3.25417
G1 X140 Y133.55 E3.26754
G1 X95 Y133.55 E4.76425
G1 X94.211 Y133.51 E4.79052
G1 X93.431 Y133.391 E4.81677
G1 X92.666 Y133.193 E4.84305
G1 X91.926 Y132.919 E4.8693
G1 X91.217 Y132.571 E4.89556
G1 X90.546 Y132.153 E4.92186
G1 X89.922 Y131.67 E4.9481
G1 X89.349 Y131.127 E4.97436
G1 X88.834 Y130.528 E5.00063
G1 X88.383 Y129.88 E5.02689
G1 X87.999 Y129.189 E5.05319
G1 X87.687 Y128.464 E5.07944
G1 X87.45 Y127.711 E5.10569
G1 X87.291 Y126.937 E5.13197
G1 X87.21 Y126.152 E5.15822
G1 X87.2 Y125.75 E5.1716
G1 X87.2 Y109.25 E5.72039
G0 F6000 X87.6 Y109.25
G1 F900 X87.64 Y108.482 E5.74597
G1 X87.759 Y107.722 E5.77155
G1 X87.957 Y106.979 E5.79713
G1 X88.231 Y106.26 E5.82272
G1 X88.578 Y105.574 E5.84829
G1 X88.994 Y104.927 E5.87387
G1 X89.475 Y104.327 E5.89945
G1 X90.016 Y103.78 E5.92504
G1 X90.611 Y103.292 E5.95063
G1 X91.253 Y102.869 E5.9762
G1 X91.936 Y102.514 E6.00181
G1 X92.651 Y102.233 E6.02736
G1 X93.393 Y102.027 E6.05297
G1 X94.151 Y101.899 E6.07854
G1 X95 Y101.85 E6.10682
G1 X140 Y101.85 E7.60353
G1 X140.768 Y101.89 E7.62911
G1 X141.528 Y102.009 E7.65469
G1 X142.271 Y102.207 E7.68027
G1 X142.99 Y102.481 E7.70586
G1 X143.676 Y102.828 E7.73143
G1 X144.323 Y103.244 E7.75701
G1 X144.923 Y103.725 E7.78259
G1 X145.47 Y104.266 E7.80818
G1 X145.958 Y104.861 E7.83377
G1 X146.381 Y105.503 E7.85934
G1 X146.736 Y106.186 E7.88495
G1 X147.017 Y106.901 E7.9105
G1 X147.223 Y107.643 E7.93611
G1 X147.351 Y108.401 E7.96168
G1 X147.4 Y109.25 E7.98996
G1 X147.4 Y125.75 E8.53875
G1 X147.36 Y126.518 E8.56433
G1 X147.241 Y127.278 E8.58992
G1 X147.043 Y128.021 E8.61549
G1 X146.769 Y128.74 E8.64108
G1 X146.422 Y129.426 E8.66665
G1 X146.006 Y130.073 E8.69224
G1 X145.525 Y130.673 E8.71781
G1 X144.984 Y131.22 E8.7434
G1 X144.389 Y131.708 E8.769
G1 X143.747 Y132.131 E8.79457
G1 X143.064 Y132.486 E8.82017
G1 X142.349 Y132.767 E8.84572
G1 X141.607 Y132.973 E8.87134
G1 X140.849 Y133.101 E8.8969
G1 X140 Y133.15 E8.92519
G1 X95 Y133.15 E10.42189
G1 X94.232 Y133.11 E10.44747
G1 X93.472 Y132.991 E10.47306
G1 X92.729 Y132.793 E10.49863
G1 X92.01 Y132.519 E10.52422
G1 X91.324 Y132.172 E10.54979
G1 X90.677 Y131.756 E10.57538
G1 X90.077 Y131.275 E10.60095
G1 X89.53 Y130.734 E10.62654
G1 X89.042 Y130.139 E10.65214
G1 X88.619 Y129.497 E10.67771
G1 X88.264 Y128.814 E10.70331
G1 X87.983 Y128.099 E10.72886
G1 X87.777 Y127.357 E10.75447
G1 X87.649 Y126.599 E10.78004
G1 X87.6 Y125.75 E10.80833
G1 X87.6 Y109.25 E11.35712
G0 F6000 X88 Y109.25
G1 F900 X88.04 Y108.503 E11.382
G1 X88.159 Y107.765 E11.40686
G1 X88.357 Y107.043 E11.43176
G1 X88.63 Y106.347 E11.45663
G1 X88.977 Y105.684 E11.48152
G1 X89.392 Y105.061 E11.50642
G1 X89.871 Y104.487 E11.53128
G1 X90.408 Y103.966 E11.55617
G1 X90.998 Y103.507 E11.58103
G1 X91.634 Y103.112 E11.60593
G1 X92.308 Y102.788 E11.6308
G1 X93.013 Y102.538 E11.65568
G1 X93.741 Y102.364 E11.68058
G1 X94.483 Y102.269 E11.70546
G1 X95 Y102.25 E11.72267
G1 X140 Y102.25 E13.21937
G1 X140.747 Y102.29 E13.24425
G1 X141.485 Y102.409 E13.26912
G1 X142.207 Y102.607 E13.29402
G1 X142.903 Y102.88 E13.31888
G1 X143.566 Y103.227 E13.34377
G1 X144.189 Y103.642 E13.36867
G1 X144.763 Y104.121 E13.39354
G1 X145.284 Y104.658 E13.41842
G1 X145.743 Y105.248 E13.44328
G1 X146.138 Y105.884 E13.46818
G1 X146.462 Y106.558 E13.49306
G1 X146.712 Y107.263 E13.51794
G1 X146.886 Y107.991 E13.54283
G1 X146.981 Y108.733 E13.56771
G1 X147 Y109.25 E13.58492
G1 X147 Y125.75 E14.13371
G1 X146.96 Y126.497 E14.15859
G1 X146.841 Y127.235 E14.18346
G1 X146.643 Y127.957 E14.20836
G1 X146.37 Y128.653 E14.23322
G1 X146.023 Y129.316 E14.25811
G1 X145.608 Y129.939 E14.28301
G1 X145.129 Y130.513 E14.30787
G1 X144.592 Y131.034 E14.33276
G1 X144.002 Y131.493 E14.35762
G1 X143.366 Y131.888 E14.38252
G1 X142.692 Y132.212 E14.4074
G1 X141.987 Y132.462 E14.43228
G1 X141.259 Y132.636 E14.45717
G1 X140.517 Y132.731 E14.48205
G1 X140 Y132.75 E14.49926
G1 X95 Y132.75 E15.99596
G1 X94.253 Y132.71 E16.02085
G1 X93.515 Y132.591 E16.04571
G1 X92.793 Y132.393 E16.07061
G1 X92.097 Y132.12 E16.09548
G1 X91.434 Y131.773 E16.12036
G1 X90.811 Y131.358 E16.14526
G1 X90.237 Y130.879 E16.17013
G1 X89.716 Y130.342 E16.19501
G1 X89.257 Y129.752 E16.21988
G1 X88.862 Y129.116 E16.24478
G1 X88.538 Y128.442 E16.26965
G1 X88.288 Y127.737 E16.29453
G1 X88.114 Y127.009 E16.31942
G1 X88.019 Y126.267 E16.3443
G1 X88 Y125.75 E16.36151
G1 X88 Y109.25 E16.9103
G0 F6000 X88.4 Y109.25
G1 F900 X88.44 Y108.525 E16.93445
G1 X88.559 Y107.808 E16.95863
G1 X88.757 Y107.109 E16.98279
G1 X89.03 Y106.436 E17.00695
G1 X89.375 Y105.797 E17.0311
G1 X89.789 Y105.2 E17.05526
G1 X90.265 Y104.652 E17.07941
G1 X90.799 Y104.159 E17.10358
G1 X91.384 Y103.729 E17.12773
G1 X92.013 Y103.365 E17.1519
G1 X92.678 Y103.072 E17.17607
G1 X93.371 Y102.854 E17.20023
G1 X94.083 Y102.714 E17.22436
G1 X95 Y102.65 E17.25494
G1 X140 Y102.65 E18.75164
G1 X140.725 Y102.69 E18.77579
G1 X141.442 Y102.809 E18.79997
G1 X142.141 Y103.007 E18.82413
G1 X142.814 Y103.28 E18.84829
G1 X143.453 Y103.625 E18.87244
G1 X144.05 Y104.039 E18.8966
G1 X144.598 Y104.515 E18.92075
G1 X145.091 Y105.049 E18.94492
G1 X145.521 Y105.634 E18.96907
G1 X145.885 Y106.263 E18.99324
G1 X146.178 Y106.928 E19.01741
G1 X146.396 Y107.621 E19.04157
G1 X146.536 Y108.333 E19.06571
G1 X146.6 Y109.25 E19.09628
G1 X146.6 Y125.75 E19.64507
G1 X146.56 Y126.475 E19.66922
G1 X146.441 Y127.192 E19.6934
G1 X146.243 Y127.891 E19.71756
G1 X145.97 Y128.564 E19.74171
G1 X145.625 Y129.203 E19.76587
G1 X145.211 Y129.8 E19.79003
G1 X144.735 Y130.348 E19.81417
G1 X144.201 Y130.841 E19.83835
G1 X143.616 Y131.271 E19.86249
G1 X142.987 Y131.635 E19.88667
G1 X142.322 Y131.928 E19.91084
G1 X141.629 Y132.146 E19.935
G1 X140.917 Y132.286 E19.95913
G1 X140 Y132.35 E19.98971
G1 X95 Y132.35 E21.48641
G1 X94.275 Y132.31 E21.51056
G1 X93.558 Y132.191 E21.53474
G1 X92.859 Y131.993 E21.5589
G1 X92.186 Y131.72 E21.58306
G1 X91.547 Y131.375 E21.60721
G1 X90.95 Y130.961 E21.63137
G1 X90.402 Y130.485 E21.65551
G1 X89.909 Y129.951 E21.67969
G1 X89.479 Y129.366 E21.70384
G1 X89.115 Y128.737 E21.72801
G1 X88.822 Y128.072 E21.75218
G1 X88.604 Y127.379 E21.77634
G1 X88.464 Y126.667 E21.80047
G1 X88.4 Y125.75 E21.83105
G1 X88.4 Y109.25 E22.37984
G0 F6000 X88.8 Y109.25
G1 F900 X88.84 Y108.547 E22.40326
G1 X88.959 Y107.853 E22.42668
G1 X89.157 Y107.178 E22.45008
G1 X89.429 Y106.529 E22.47348
G1 X89.774 Y105.915 E22.49691
G1 X90.185 Y105.344 E22.5203
G1 X90.659 Y104.823 E22.54373
G1 X91.189 Y104.359 E22.56716
G1 X91.768 Y103.959 E22.59057
G1 X92.389 Y103.627 E22.61399
G1 X93.043 Y103.367 E22.6374
G1 X93.723 Y103.183 E22.66083
G1 X94.419 Y103.077 E22.68424
G1 X95 Y103.05 E22.70359
G1 X140 Y103.05 E24.20029
G1 X140.703 Y103.09 E24.22371
G1 X141.397 Y103.209 E24.24713
G1 X142.072 Y103.407 E24.27053
G1 X142.721 Y103.679 E24.29393
G1 X143.335 Y104.024 E24.31736
G1 X143.906 Y104.435 E24.34076
G1 X144.427 Y104.909 E24.36419
G1 X144.891 Y105.439 E24.38761
G1 X145.291 Y106.018 E24.41102
G1 X145.623 Y106.639 E24.43444
G1 X145.883 Y107.293 E24.45785
G1 X146.067 Y107.973 E24.48128
G1 X146.173 Y108.669 E24.5047
G1 X146.2 Y109.25 E24.52404
G1 X146.2 Y125.75 E25.07283
G1 X146.16 Y126.453 E25.09625
G1 X146.041 Y127.147 E25.11967
G1 X145.843 Y127.822 E25.14307
G1 X145.571 Y128.471 E25.16647
G1 X145.226 Y129.085 E25.1899
G1 X144.815 Y129.656 E25.2133
G1 X144.341 Y130.177 E25.23672
G1 X143.811 Y130.641 E25.26015
G1 X143.232 Y131.041 E25.28356
G1 X142.611 Y131.373 E25.30698
G1 X141.957 Y131.633 E25.33039
G1 X141.277 Y131.817 E25.35382
G1 X140.581 Y131.923 E25.37724
G1 X140 Y131.95 E25.39658
G1 X95 Y131.95 E26.89329
G1 X94.297 Y131.91 E26.91671
G1 X93.603 Y131.791 E26.94013
G1 X92.928 Y131.593 E26.96352
G1 X92.279 Y131.321 E26.98693
G1 X91.665 Y130.976 E27.01035
G1 X91.094 Y130.565 E27.03375
G1 X90.573 Y130.091 E27.05718
G1 X90.109 Y129.561 E27.08061
G1 X89.709 Y128.982 E27.10401
G1 X89.377 Y128.361 E27.12743
G1 X89.117 Y127.707 E27.15084
G1 X88.933 Y127.027 E27.17427
G1 X88.827 Y126.331 E27.19769
G1 X88.8 Y125.75 E27.21703
G1 X88.8 Y109.25 E27.76583
G0 F6000 X89.2 Y109.25
G1 F900 X89.24 Y108.57 E27.78848
G1 X89.359 Y107.9 E27.81111
G1 X89.556 Y107.248 E27.83377
G1 X89.828 Y106.624 E27.85641
G1 X90.172 Y106.036 E27.87907
G1 X90.582 Y105.492 E27.90172
G1 X91.053 Y105.001 E27.92435
G1 X91.578 Y104.567 E27.94701
G1 X92.15 Y104.198 E27.96965
G1 X92.762 Y103.899 E27.9923
G1 X93.404 Y103.674 E28.01493
G1 X94.069 Y103.525 E28.0376
G1 X95 Y103.45 E28.06866
G1 X140 Y103.45 E29.56537
G1 X140.68 Y103.49 E29.58802
G1 X141.35 Y103.609 E29.61066
G1 X142.002 Y103.806 E29.63331
G1 X142.626 Y104.078 E29.65595
G1 X143.214 Y104.422 E29.67861
G1 X143.758 Y104.832 E29.70127
G1 X144.249 Y105.303 E29.7239
G1 X144.683 Y105.828 E29.74655
G1 X145.052 Y106.4 E29.76919
G1 X145.351 Y107.012 E29.79185
G1 X145.576 Y107.654 E29.81447
G1 X145.725 Y108.319 E29.83714
G1 X145.8 Y109.25 E29.8682
G1 X145.8 Y125.75 E30.417
G1 X145.76 Y126.43 E30.43965
G1 X145.641 Y127.1 E30.46229
G1 X145.444 Y127.752 E30.48494
G1 X145.172 Y128.376 E30.50758
G1 X144.828 Y128.964 E30.53024
G1 X144.418 Y129.508 E30.55289
G1 X143.947 Y129.999 E30.57552
G1 X143.422 Y130.433 E30.59818
G1 X142.85 Y130.802 E30.62082
G1 X142.238 Y131.101 E30.64347
G1 X141.596 Y131.326 E30.6661
G1 X140.931 Y131.475 E30.68877
G1 X140 Y131.55 E30.71983
G1 X95 Y131.55 E32.21654
G1 X94.32 Y131.51 E32.23919
G1 X93.65 Y131.391 E32.26183
G1 X92.998 Y131.194 E32.28448
G1 X92.374 Y130.922 E32.30712
G1 X91.786 Y130.578 E32.32978
G1 X91.242 Y130.168 E32.35244
G1 X90.751 Y129.697 E32.37507
G1 X90.317 Y129.172 E32.39772
G1 X89.948 Y128.6 E32.42036
G1 X89.649 Y127.988 E32.44302
G1 X89.424 Y127.346 E32.46564
G1 X89.275 Y126.681 E32.48831
G1 X89.2 Y125.75 E32.51937
G1 X89.2 Y109.25 E33.06817
G0 F6000 X89.6 Y109.25
G1 F900 X89.64 Y108.594 E33.09003
G1 X89.759 Y107.948 E33.11187
G1 X89.956 Y107.321 E33.13373
G1 X90.228 Y106.723 E33.15558
G1 X90.57 Y106.162 E33.17744
G1 X90.978 Y105.647 E33.19929
G1 X91.445 Y105.185 E33.22114
G1 X91.965 Y104.784 E33.24298
G1 X92.529 Y104.448 E33.26481
G1 X93.131 Y104.184 E33.28668
G1 X93.76 Y103.994 E33.30853
G1 X94.407 Y103.883 E33.33037
G1 X95 Y103.85 E33.35012
G1 X140 Y103.85 E34.84682
G1 X140.656 Y103.89 E34.86868
G1 X141.302 Y104.009 E34.89053
G1 X141.929 Y104.206 E34.91239
G1 X142.527 Y104.478 E34.93424
G1 X143.088 Y104.82 E34.95609
G1 X143.603 Y105.228 E34.97795
G1 X144.065 Y105.695 E34.9998
G1 X144.466 Y106.215 E35.02164
G1 X144.802 Y106.779 E35.04347
G1 X145.066 Y107.381 E35.06534
G1 X145.256 Y108.01 E35.08719
G1 X145.367 Y108.657 E35.10902
G1 X145.4 Y109.25 E35.12878
G1 X145.4 Y125.75 E35.67757
G1 X145.36 Y126.406 E35.69943
G1 X145.241 Y127.052 E35.72128
G1 X145.044 Y127.679 E35.74314
G1 X144.772 Y128.277 E35.76499
G1 X144.43 Y128.838 E35.78684
G1 X144.022 Y129.353 E35.80869
G1 X143.555 Y129.815 E35.83054
G1 X143.035 Y130.216 E35.85238
G1 X142.471 Y130.552 E35.87422
G1 X141.869 Y130.816 E35.89608
G1 X141.24 Y131.006 E35.91793
G1 X140.593 Y131.117 E35.93977
G1 X140 Y131.15 E35.95952
G1 X95 Y131.15 E37.45623
G1 X94.344 Y131.11 E37.47809
G1 X93.698 Y130.991 E37.49993
G1 X93.071 Y130.794 E37.52179
G1 X92.473 Y130.522 E37.54364
G1 X91.912 Y130.18 E37.5655
G1 X91.397 Y129.772 E37.58735
G1 X90.935 Y129.305 E37.6092
G1 X90.534 Y128.785 E37.63104
G1 X90.198 Y128.221 E37.65287
G1 X89.934 Y127.619 E37.67474
G1 X89.744 Y126.99 E37.69659
G1 X89.633 Y126.343 E37.71843
G1 X89.6 Y125.75 E37.73818
G1 X89.6 Y109.25 E38.28697
G0 F6000 X90 Y109.25
G1 F900 X90.04 Y108.619 E38.308
G1 X90.159 Y107.998 E38.32903
G1 X90.356 Y107.398 E38.35004
G1 X90.627 Y106.826 E38.37109
G1 X90.967 Y106.294 E38.39209
G1 X91.373 Y105.809 E38.41312
G1 X91.836 Y105.379 E38.43414
G1 X92.35 Y105.01 E38.45518
G1 X92.906 Y104.71 E38.4762
G1 X93.495 Y104.482 E38.4972
G1 X94.109 Y104.33 E38.51824
G1 X95 Y104.25 E38.548
G1 X140 Y104.25 E40.0447
G1 X140.631 Y104.29 E40.06573
G1 X141.252 Y104.409 E40.08676
G1 X141.852 Y104.606 E40.10777
G1 X142.424 Y104.877 E40.12882
G1 X142.956 Y105.217 E40.14982
G1 X143.441 Y105.623 E40.17085
G1 X143.871 Y106.086 E40.19187
G1 X144.24 Y106.6 E40.21292
G1 X144.54 Y107.156 E40.23393
G1 X144.768 Y107.745 E40.25494
G1 X144.92 Y108.359 E40.27597
G1 X145 Y109.25 E40.30573
G1 X145 Y125.75 E40.85452
G1 X144.96 Y126.381 E40.87555
G1 X144.841 Y127.002 E40.89658
G1 X144.644 Y127.602 E40.91758
G1 X144.373 Y128.174 E40.93864
G1 X144.033 Y128.706 E40.95964
G1 X143.627 Y129.191 E40.98067
G1 X143.164 Y129.621 E41.00169
G1 X142.65 Y129.99 E41.02273
G1 X142.094 Y130.29 E41.04375
G1 X141.505 Y130.518 E41.06475
G1 X140.891 Y130.67 E41.08579
G1 X140 Y130.75 E41.11555
G1 X95 Y130.75 E42.61225
G1 X94.369 Y130.71 E42.63328
G1 X93.748 Y130.591 E42.65431
G1 X93.148 Y130.394 E42.67532
G1 X92.576 Y130.123 E42.69637
G1 X92.044 Y129.783 E42.71737
G1 X91.559 Y129.377 E42.7384
G1 X91.129 Y128.914 E42.75942
G1 X90.76 Y128.4 E42.78047
G1 X90.46 Y127.844 E42.80148
G1 X90.232 Y127.255 E42.82248
G1 X90.08 Y126.641 E42.84352
G1 X90 Y125.75 E42.87328
G1 X90 Y109.25 E43.42207
G0 F6000 X90.4 Y109.25
G1 F900 X90.44 Y108.645 E43.44224
G1 X90.559 Y108.051 E43.46238
G1 X90.755 Y107.477 E43.48256
G1 X91.026 Y106.934 E43.50274
G1 X91.365 Y106.431 E43.52292
G1 X91.767 Y105.978 E43.54306
G1 X92.225 Y105.581 E43.56322
G1 X92.732 Y105.248 E43.5834
