;FLAVOR:Marlin
;TIME:2152
;Filament used: 1.22973m
;Layer height: 0.2
;MINX:76.2
;MINY:98.7
;MINZ:0.2
;MAXX:158.8
;MAXY:136.3
;MAXZ:6.6
;Generated with Cura_SteamEngine main
M140 S65
M105
M190 S65
M104 S240
M105
M109 S240
M82 ;absolute extrusion mode
; Ender 3 Custom Start G-code
G92 E0 ; Reset Extruder
G28 ; Home all axes
G1 Z2.0 F3000 ; Move Z Axis up little to prevent scratching of Heat Bed
G1 X0.1 Y20 Z0.3 F5000.0 ; Move to start position
G1 X0.1 Y200.0 Z0.3 F1500.0 E15 ; Draw the first line
G1 X0.4 Y200.0 Z0.3 F5000.0 ; Move to side a little
G1 X0.4 Y20 Z0.3 F1500.0 E30 ; Draw the second line
G92 E0 ; Reset Extruder
G1 Z2.0 F3000 ; Move Z Axis up little to prevent scratching of Heat Bed
G1 X5 Y20 Z0.3 F5000.0 ; Move over to prevent blob squish
G92 E0
G92 E0
G1 F2700 E-5
;LAYER_COUNT:33
;LAYER:0
M107
G0 F6000 X79.222 Y104.334 Z0.2
G0 X76.2 Y110.5
;TYPE:SKIRT
G1 F2700 E0
G1 F900 X76.24 Y109.711 E0.02628
G1 X76.359 Y108.931 E0.05252
G1 X76.557 Y108.166 E0.0788
G1 X76.831 Y107.426 E0.10505
G1 X77.179 Y106.717 E0.13132
G1 X77.597 Y106.046 E0.15761
G1 X78.08 Y105.422 E0.18385
G1 X78.623 Y104.849 E0.21011
G1 X79.222 Y104.334 E0.23638
G1 X79.87 Y103.883 E0.26264
G1 X80.561 Y103.499 E0.28894
G1 X81.286 Y103.187 E0.31519
G1 X82.039 Y102.95 E0.34144
G1 X82.813 Y102.791 E0.36773
G1 X83.598 Y102.71 E0.39397
G1 X84 Y102.7 E0.40735
G1 X98 Y102.7 E0.87299
G1 X98.789 Y102.74 E0.89927
G1 X99.569 Y102.859 E0.92551
G1 X100.334 Y103.057 E0.95179
G1 X101.074 Y103.331 E0.97804
G1 X101.783 Y103.679 E1.00431
G1 X102.454 Y104.097 E1.0306
G1 X103.078 Y104.58 E1.05684
G1 X103.651 Y105.123 E1.0831
G1 X104.147 Y105.7 E1.10841
G1 X112.242 Y105.7 E1.37765
G1 X112.359 Y104.931 E1.40352
G1 X112.557 Y104.166 E1.4298
G1 X112.831 Y103.426 E1.45605
G1 X113.179 Y102.717 E1.48232
G1 X113.597 Y102.046 E1.50861
G1 X114.08 Y101.422 E1.53486
G1 X114.623 Y100.849 E1.56111
G1 X115.222 Y100.334 E1.58739
G1 X115.87 Y99.883 E1.61364
G1 X116.561 Y99.499 E1.63994
G1 X117.286 Y99.187 E1.66619
G1 X118.039 Y98.95 E1.69245
G1 X118.813 Y98.791 E1.71873
G1 X119.598 Y98.71 E1.74497
G1 X120 Y98.7 E1.75835
G1 X151 Y98.7 E2.78941
G1 X151.789 Y98.74 E2.81569
G1 X152.569 Y98.859 E2.84193
G1 X153.334 Y99.057 E2.86821
G1 X154.074 Y99.331 E2.89446
G1 X154.783 Y99.679 E2.92073
G1 X155.454 Y100.097 E2.94702
G1 X156.078 Y100.58 E2.97327
G1 X156.651 Y101.123 E2.99952
G1 X157.166 Y101.722 E3.0258
G1 X157.617 Y102.37 E3.05206
G1 X158.001 Y103.061 E3.07835
G1 X158.313 Y103.786 E3.1046
G1 X158.55 Y104.539 E3.13086
G1 X158.709 Y105.313 E3.15714
G1 X158.79 Y106.098 E3.18339
G1 X158.8 Y106.5 E3.19676
G1 X158.8 Y128.5 E3.92848
G1 X158.76 Y129.289 E3.95476
G1 X158.641 Y130.069 E3.981
G1 X158.443 Y130.834 E4.00729
G1 X158.169 Y131.574 E4.03353
G1 X157.821 Y132.283 E4.0598
G1 X157.403 Y132.954 E4.08609
G1 X156.92 Y133.578 E4.11234
G1 X156.377 Y134.151 E4.1386
G1 X155.778 Y134.666 E4.16487
G1 X155.13 Y135.117 E4.19113
G1 X154.439 Y135.501 E4.21742
G1 X153.714 Y135.813 E4.24367
G1 X152.961 Y136.05 E4.26993
G1 X152.187 Y136.209 E4.29621
G1 X151.402 Y136.29 E4.32246
G1 X151 Y136.3 E4.33583
G1 X84 Y136.3 E6.56426
G1 X83.211 Y136.26 E6.59054
G1 X82.431 Y136.141 E6.61678
G1 X81.666 Y135.943 E6.64306
G1 X80.926 Y135.669 E6.66931
G1 X80.217 Y135.321 E6.69558
G1 X79.546 Y134.903 E6.72187
G1 X78.922 Y134.42 E6.74812
G1 X78.349 Y133.877 E6.77437
G1 X77.834 Y133.278 E6.80065
G1 X77.383 Y132.63 E6.8269
G1 X76.999 Y131.939 E6.8532
G1 X76.687 Y131.214 E6.87945
G1 X76.45 Y130.461 E6.90571
G1 X76.291 Y129.687 E6.93199
G1 X76.21 Y128.902 E6.95823
G1 X76.2 Y128.5 E6.97161
G1 X76.2 Y110.5 E7.57029
G0 F6000 X76.6 Y110.5
G1 F900 X76.64 Y109.732 E7.59587
G1 X76.759 Y108.972 E7.62146
G1 X76.957 Y108.229 E7.64703
G1 X77.231 Y107.51 E7.67262
G1 X77.578 Y106.824 E7.69819
G1 X77.994 Y106.177 E7.72378
G1 X78.475 Y105.577 E7.74935
G1 X79.016 Y105.03 E7.77494
G1 X79.611 Y104.542 E7.80054
G1 X80.253 Y104.119 E7.82611
G1 X80.936 Y103.764 E7.85171
G1 X81.651 Y103.483 E7.87726
G1 X82.393 Y103.277 E7.90287
G1 X83.151 Y103.149 E7.92844
G1 X84 Y103.1 E7.95673
G1 X98 Y103.1 E8.42237
G1 X98.768 Y103.14 E8.44795
G1 X99.528 Y103.259 E8.47353
G1 X100.271 Y103.457 E8.49911
G1 X100.99 Y103.731 E8.5247
G1 X101.676 Y104.078 E8.55027
G1 X102.323 Y104.494 E8.57585
G1 X102.923 Y104.975 E8.60143
G1 X103.47 Y105.516 E8.62702
G1 X103.949 Y106.1 E8.65214
G1 X112.621 Y106.1 E8.94057
G1 X112.64 Y105.732 E8.95283
G1 X112.759 Y104.972 E8.97841
G1 X112.957 Y104.229 E9.00399
G1 X113.231 Y103.51 E9.02958
G1 X113.578 Y102.824 E9.05515
G1 X113.994 Y102.177 E9.08073
G1 X114.475 Y101.577 E9.10631
G1 X115.016 Y101.03 E9.1319
G1 X115.611 Y100.542 E9.15749
G1 X116.253 Y100.119 E9.18306
G1 X116.936 Y99.764 E9.20866
G1 X117.651 Y99.483 E9.23422
G1 X118.393 Y99.277 E9.25983
G1 X119.151 Y99.149 E9.2854
G1 X120 Y99.1 E9.31368
G1 X151 Y99.1 E10.34475
G1 X151.768 Y99.14 E10.37032
G1 X152.528 Y99.259 E10.39591
G1 X153.271 Y99.457 E10.42148
G1 X153.99 Y99.731 E10.44708
G1 X154.676 Y100.078 E10.47265
G1 X155.323 Y100.494 E10.49823
G1 X155.923 Y100.975 E10.52381
G1 X156.47 Y101.516 E10.54939
G1 X156.958 Y102.111 E10.57499
G1 X157.381 Y102.753 E10.60056
G1 X157.736 Y103.436 E10.62616
G1 X158.017 Y104.151 E10.65171
G1 X158.223 Y104.893 E10.67733
G1 X158.351 Y105.651 E10.70289
G1 X158.4 Y106.5 E10.73118
G1 X158.4 Y128.5 E11.4629
G1 X158.36 Y129.268 E11.48848
G1 X158.241 Y130.028 E11.51407
G1 X158.043 Y130.771 E11.53964
G1 X157.769 Y131.49 E11.56523
G1 X157.422 Y132.176 E11.5908
G1 X157.006 Y132.823 E11.61639
G1 X156.525 Y133.423 E11.64196
G1 X155.984 Y133.97 E11.66755
G1 X155.389 Y134.458 E11.69315
G1 X154.747 Y134.881 E11.71872
G1 X154.064 Y135.236 E11.74432
G1 X153.349 Y135.517 E11.76987
G1 X152.607 Y135.723 E11.79548
G1 X151.849 Y135.851 E11.82105
G1 X151 Y135.9 E11.84934
G1 X84 Y135.9 E14.07777
G1 X83.232 Y135.86 E14.10334
G1 X82.472 Y135.741 E14.12893
G1 X81.729 Y135.543 E14.1545
G1 X81.01 Y135.269 E14.1801
G1 X80.324 Y134.922 E14.20566
G1 X79.677 Y134.506 E14.23125
G1 X79.077 Y134.025 E14.25683
G1 X78.53 Y133.484 E14.28241
G1 X78.042 Y132.889 E14.30801
G1 X77.619 Y132.247 E14.33358
G1 X77.264 Y131.564 E14.35918
G1 X76.983 Y130.849 E14.38473
G1 X76.777 Y130.107 E14.41035
G1 X76.649 Y129.349 E14.43591
G1 X76.6 Y128.5 E14.4642
G1 X76.6 Y110.5 E15.06288
G0 F6000 X77 Y110.5
G1 F900 X77.04 Y109.753 E15.08776
G1 X77.159 Y109.015 E15.11263
G1 X77.357 Y108.293 E15.13753
G1 X77.63 Y107.597 E15.16239
G1 X77.977 Y106.934 E15.18728
G1 X78.392 Y106.311 E15.21218
G1 X78.871 Y105.737 E15.23704
G1 X79.408 Y105.216 E15.26193
G1 X79.998 Y104.757 E15.28679
G1 X80.634 Y104.362 E15.31169
G1 X81.308 Y104.038 E15.33657
G1 X82.013 Y103.788 E15.36144
G1 X82.741 Y103.614 E15.38634
G1 X83.483 Y103.519 E15.41122
G1 X84 Y103.5 E15.42843
G1 X98 Y103.5 E15.89407
G1 X98.747 Y103.54 E15.91895
G1 X99.485 Y103.659 E15.94381
G1 X100.207 Y103.857 E15.96871
G1 X100.903 Y104.13 E15.99358
G1 X101.566 Y104.477 E16.01847
G1 X102.189 Y104.892 E16.04337
G1 X102.763 Y105.371 E16.06823
G1 X103.284 Y105.908 E16.09312
G1 X103.744 Y106.5 E16.11805
G1 X113 Y106.5 E16.42591
G1 X113.04 Y105.753 E16.45079
G1 X113.159 Y105.015 E16.47565
G1 X113.357 Y104.293 E16.50055
G1 X113.63 Y103.597 E16.52542
G1 X113.977 Y102.934 E16.55031
G1 X114.392 Y102.311 E16.57521
G1 X114.871 Y101.737 E16.60007
G1 X115.408 Y101.216 E16.62496
G1 X115.998 Y100.757 E16.64982
G1 X116.634 Y100.362 E16.67472
G1 X117.308 Y100.038 E16.69959
G1 X118.013 Y99.788 E16.72447
G1 X118.741 Y99.614 E16.74937
G1 X119.483 Y99.519 E16.77425
G1 X120 Y99.5 E16.79146
G1 X151 Y99.5 E17.82252
G1 X151.747 Y99.54 E17.8474
G1 X152.485 Y99.659 E17.87226
G1 X153.207 Y99.857 E17.89716
G1 X153.903 Y100.13 E17.92203
G1 X154.566 Y100.477 E17.94692
G1 X155.189 Y100.892 E17.97182
G1 X155.763 Y101.371 E17.99668
G1 X156.284 Y101.908 E18.02157
G1 X156.743 Y102.498 E18.04643
G1 X157.138 Y103.134 E18.07133
G1 X157.462 Y103.808 E18.0962
G1 X157.712 Y104.513 E18.12108
G1 X157.886 Y105.241 E18.14598
G1 X157.981 Y105.983 E18.17086
G1 X158 Y106.5 E18.18807
G1 X158 Y128.5 E18.91979
G1 X157.96 Y129.247 E18.94467
G1 X157.841 Y129.985 E18.96953
G1 X157.643 Y130.707 E18.99443
G1 X157.37 Y131.403 E19.0193
G1 X157.023 Y132.066 E19.04419
G1 X156.608 Y132.689 E19.06909
G1 X156.129 Y133.263 E19.09395
G1 X155.592 Y133.784 E19.11884
G1 X155.002 Y134.243 E19.1437
G1 X154.366 Y134.638 E19.1686
G1 X153.692 Y134.962 E19.19347
G1 X152.987 Y135.212 E19.21835
G1 X152.259 Y135.386 E19.24325
G1 X151.517 Y135.481 E19.26813
G1 X151 Y135.5 E19.28534
G1 X84 Y135.5 E21.51377
G1 X83.253 Y135.46 E21.53865
G1 X82.515 Y135.341 E21.56351
G1 X81.793 Y135.143 E21.58841
G1 X81.097 Y134.87 E21.61328
G1 X80.434 Y134.523 E21.63817
G1 X79.811 Y134.108 E21.66306
G1 X79.237 Y133.629 E21.68793
G1 X78.716 Y133.092 E21.71281
G1 X78.257 Y132.502 E21.73768
G1 X77.862 Y131.866 E21.76258
G1 X77.538 Y131.192 E21.78745
G1 X77.288 Y130.487 E21.81233
G1 X77.114 Y129.759 E21.83722
G1 X77.019 Y129.017 E21.8621
G1 X77 Y128.5 E21.87931
G1 X77 Y110.5 E22.47799
G0 F6000 X77.4 Y110.5
G1 F900 X77.44 Y109.775 E22.50214
G1 X77.559 Y109.058 E22.52632
G1 X77.757 Y108.359 E22.55048
G1 X78.03 Y107.686 E22.57464
G1 X78.375 Y107.047 E22.59879
G1 X78.789 Y106.45 E22.62295
G1 X79.265 Y105.902 E22.6471
G1 X79.799 Y105.409 E22.67127
G1 X80.384 Y104.979 E22.69542
G1 X81.013 Y104.615 E22.71959
G1 X81.678 Y104.322 E22.74376
G1 X82.371 Y104.104 E22.76792
G1 X83.083 Y103.964 E22.79206
G1 X84 Y103.9 E22.82263
G1 X98 Y103.9 E23.28827
G1 X98.725 Y103.94 E23.31242
G1 X99.442 Y104.059 E23.3366
G1 X100.141 Y104.257 E23.36076
G1 X100.814 Y104.53 E23.38491
G1 X101.453 Y104.875 E23.40907
G1 X102.05 Y105.289 E23.43323
G1 X102.598 Y105.765 E23.45737
G1 X103.091 Y106.299 E23.48155
G1 X103.53 Y106.9 E23.5063
G1 X113.4 Y106.9 E23.83458
G1 X113.4 Y106.5 E23.84788
G1 X113.44 Y105.775 E23.87203
G1 X113.559 Y105.058 E23.89621
G1 X113.757 Y104.359 E23.92037
G1 X114.03 Y103.686 E23.94453
G1 X114.375 Y103.047 E23.96868
G1 X114.789 Y102.45 E23.99284
G1 X115.265 Y101.902 E24.01698
G1 X115.799 Y101.409 E24.04116
G1 X116.384 Y100.979 E24.0653
G1 X117.013 Y100.615 E24.08948
G1 X117.678 Y100.322 E24.11365
G1 X118.371 Y100.104 E24.13781
G1 X119.083 Y99.964 E24.16194
G1 X120 Y99.9 E24.19252
G1 X151 Y99.9 E25.22358
G1 X151.725 Y99.94 E25.24773
G1 X152.442 Y100.059 E25.2719
G1 X153.141 Y100.257 E25.29607
G1 X153.814 Y100.53 E25.32022
G1 X154.453 Y100.875 E25.34438
G1 X155.05 Y101.289 E25.36854
G1 X155.598 Y101.765 E25.39268
G1 X156.091 Y102.299 E25.41686
G1 X156.521 Y102.884 E25.441
G1 X156.885 Y103.513 E25.46517
G1 X157.178 Y104.178 E25.48934
G1 X157.396 Y104.871 E25.51351
G1 X157.536 Y105.583 E25.53764
G1 X157.6 Y106.5 E25.56822
G1 X157.6 Y128.5 E26.29994
G1 X157.56 Y129.225 E26.32409
G1 X157.441 Y129.942 E26.34826
G1 X157.243 Y130.641 E26.37243
G1 X156.97 Y131.314 E26.39658
G1 X156.625 Y131.953 E26.42074
G1 X156.211 Y132.55 E26.4449
G1 X155.735 Y133.098 E26.46904
G1 X155.201 Y133.591 E26.49321
G1 X154.616 Y134.021 E26.51736
G1 X153.987 Y134.385 E26.54153
G1 X153.322 Y134.678 E26.5657
G1 X152.629 Y134.896 E26.58987
G1 X151.917 Y135.036 E26.614
G1 X151 Y135.1 E26.64457
G1 X84 Y135.1 E28.873
G1 X83.275 Y135.06 E28.89715
G1 X82.558 Y134.941 E28.92133
G1 X81.859 Y134.743 E28.94549
G1 X81.186 Y134.47 E28.96965
G1 X80.547 Y134.125 E28.9938
G1 X79.95 Y133.711 E29.01796
G1 X79.402 Y133.235 E29.0421
G1 X78.909 Y132.701 E29.06628
G1 X78.479 Y132.116 E29.09043
G1 X78.115 Y131.487 E29.1146
G1 X77.822 Y130.822 E29.13877
G1 X77.604 Y130.129 E29.16293
G1 X77.464 Y129.417 E29.18706
G1 X77.4 Y128.5 E29.21764
G1 X77.4 Y110.5 E29.81632
G0 F6000 X77.8 Y110.5
G1 F900 X77.84 Y109.797 E29.83974
G1 X77.959 Y109.103 E29.86316
G1 X78.157 Y108.428 E29.88656
G1 X78.429 Y107.779 E29.90996
G1 X78.774 Y107.165 E29.93339
G1 X79.185 Y106.594 E29.95679
G1 X79.659 Y106.073 E29.98021
G1 X80.189 Y105.609 E30.00364
G1 X80.768 Y105.209 E30.02705
G1 X81.389 Y104.877 E30.05047
G1 X82.043 Y104.617 E30.07388
G1 X82.723 Y104.433 E30.09731
G1 X83.419 Y104.327 E30.12072
G1 X84 Y104.3 E30.14007
G1 X98 Y104.3 E30.60571
G1 X98.703 Y104.34 E30.62913
G1 X99.397 Y104.459 E30.65255
G1 X100.072 Y104.657 E30.67594
G1 X100.721 Y104.929 E30.69935
G1 X101.335 Y105.274 E30.72277
G1 X101.906 Y105.685 E30.74617
G1 X102.427 Y106.159 E30.7696
G1 X102.891 Y106.689 E30.79303
G1 X103.308 Y107.3 E30.81763
G1 X113.8 Y107.3 E31.1666
G1 X113.8 Y106.5 E31.19321
G1 X113.84 Y105.797 E31.21663
G1 X113.959 Y105.103 E31.24005
G1 X114.157 Y104.428 E31.26344
G1 X114.429 Y103.779 E31.28685
G1 X114.774 Y103.165 E31.31027
G1 X115.185 Y102.594 E31.33367
G1 X115.659 Y102.073 E31.3571
G1 X116.189 Y101.609 E31.38053
G1 X116.768 Y101.209 E31.40393
G1 X117.389 Y100.877 E31.42736
G1 X118.043 Y100.617 E31.45076
G1 X118.723 Y100.433 E31.47419
G1 X119.419 Y100.327 E31.49761
G1 X120 Y100.3 E31.51695
G1 X151 Y100.3 E32.54802
G1 X151.703 Y100.34 E32.57144
G1 X152.397 Y100.459 E32.59486
G1 X153.072 Y100.657 E32.61825
G1 X153.721 Y100.929 E32.64166
G1 X154.335 Y101.274 E32.66508
G1 X154.906 Y101.685 E32.68848
G1 X155.427 Y102.159 E32.71191
G1 X155.891 Y102.689 E32.73534
G1 X156.291 Y103.268 E32.75875
G1 X156.623 Y103.889 E32.78217
G1 X156.883 Y104.543 E32.80557
G1 X157.067 Y105.223 E32.82901
G1 X157.173 Y105.919 E32.85242
G1 X157.2 Y106.5 E32.87177
G1 X157.2 Y128.5 E33.60349
G1 X157.16 Y129.203 E33.62691
G1 X157.041 Y129.897 E33.65033
G1 X156.843 Y130.572 E33.67372
G1 X156.571 Y131.221 E33.69713
G1 X156.226 Y131.835 E33.72055
G1 X155.815 Y132.406 E33.74395
G1 X155.341 Y132.927 E33.76738
G1 X154.811 Y133.391 E33.79081
G1 X154.232 Y133.791 E33.81422
G1 X153.611 Y134.123 E33.83764
G1 X152.957 Y134.383 E33.86105
G1 X152.277 Y134.567 E33.88448
G1 X151.581 Y134.673 E33.90789
G1 X151 Y134.7 E33.92724
G1 X84 Y134.7 E36.15567
G1 X83.297 Y134.66 E36.17909
G1 X82.603 Y134.541 E36.2025
G1 X81.928 Y134.343 E36.2259
G1 X81.279 Y134.071 E36.24931
G1 X80.665 Y133.726 E36.27273
G1 X80.094 Y133.315 E36.29613
G1 X79.573 Y132.841 E36.31956
G1 X79.109 Y132.311 E36.34299
G1 X78.709 Y131.732 E36.36639
G1 X78.377 Y131.111 E36.38981
G1 X78.117 Y130.457 E36.41322
G1 X77.933 Y129.777 E36.43665
G1 X77.827 Y129.081 E36.46007
G1 X77.8 Y128.5 E36.47941
G1 X77.8 Y110.5 E37.0781
G0 F6000 X78.2 Y110.5
G1 F900 X78.24 Y109.82 E37.10075
G1 X78.359 Y109.15 E37.12338
G1 X78.556 Y108.498 E37.14604
G1 X78.828 Y107.874 E37.16868
G1 X79.172 Y107.286 E37.19134
G1 X79.582 Y106.742 E37.21399
G1 X80.053 Y106.251 E37.23662
G1 X80.578 Y105.817 E37.25928
G1 X81.15 Y105.448 E37.28192
G1 X81.762 Y105.149 E37.30457
G1 X82.404 Y104.924 E37.3272
G1 X83.069 Y104.775 E37.34987
G1 X84 Y104.7 E37.38093
G1 X98 Y104.7 E37.84657
G1 X98.68 Y104.74 E37.86923
G1 X99.35 Y104.859 E37.89186
G1 X100.002 Y105.056 E37.91452
G1 X100.626 Y105.328 E37.93716
G1 X101.214 Y105.672 E37.95981
G1 X101.758 Y106.082 E37.98247
G1 X102.249 Y106.553 E38.0051
G1 X102.683 Y107.078 E38.02776
G1 X103.084 Y107.7 E38.05237
G1 X114.2 Y107.7 E38.42209
G1 X114.2 Y106.5 E38.462
G1 X114.24 Y105.82 E38.48466
G1 X114.359 Y105.15 E38.50729
G1 X114.556 Y104.498 E38.52995
G1 X114.828 Y103.874 E38.55259
G1 X115.172 Y103.286 E38.57524
G1 X115.582 Y102.742 E38.5979
G1 X116.053 Y102.251 E38.62053
G1 X116.578 Y101.817 E38.64319
G1 X117.15 Y101.448 E38.66583
G1 X117.762 Y101.149 E38.68848
G1 X118.404 Y100.924 E38.71111
G1 X119.069 Y100.775 E38.73377
G1 X120 Y100.7 E38.76484
G1 X151 Y100.7 E39.7959
G1 X151.68 Y100.74 E39.81856
G1 X152.35 Y100.859 E39.84119
G1 X153.002 Y101.056 E39.86385
G1 X153.626 Y101.328 E39.88649
G1 X154.214 Y101.672 E39.90914
G1 X154.758 Y102.082 E39.9318
G1 X155.249 Y102.553 E39.95443
G1 X155.683 Y103.078 E39.97709
