;FLAVOR:Marlin
;TIME:2182
;Filament used: 1.22967m
;Layer height: 0.2
;MINX:76.2
;MINY:98.7
;MINZ:0.2
;MAXX:158.8
;MAXY:136.3
;MAXZ:6.6
;Generated with Cura_SteamEngine main
M140 S65
M105
M190 S65
M104 S240
M105
M109 S240
M82 ;absolute extrusion mode
; Ender 3 Custom Start G-code
G92 E0 ; Reset Extruder
G28 ; Home all axes
G1 Z2.0 F3000 ; Move Z Axis up little to prevent scratching of Heat Bed
G1 X0.1 Y20 Z0.3 F5000.0 ; Move to start position
G1 X0.1 Y200.0 Z0.3 F1500.0 E15 ; Draw the first line
G1 X0.4 Y200.0 Z0.3 F5000.0 ; Move to side a little
G1 X0.4 Y20 Z0.3 F1500.0 E30 ; Draw the second line
G92 E0 ; Reset Extruder
G1 Z2.0 F3000 ; Move Z Axis up little to prevent scratching of Heat Bed
G1 X5 Y20 Z0.3 F5000.0 ; Move over to prevent blob squish
G92 E0
G92 E0
G1 F2700 E-5
;LAYER_COUNT:33
;LAYER:0
M107
G0 F6000 X79.222 Y100.334 Z0.2
G0 X76.2 Y106.5
;TYPE:SKIRT
G1 F2700 E0
G1 F900 X76.24 Y105.711 E0.02628
G1 X76.359 Y104.931 E0.05252
G1 X76.557 Y104.166 E0.0788
G1 X76.831 Y103.426 E0.10505
G1 X77.179 Y102.717 E0.13132
G1 X77.597 Y102.046 E0.15761
G1 X78.08 Y101.422 E0.18385
G1 X78.623 Y100.849 E0.21011
G1 X79.222 Y100.334 E0.23638
G1 X79.87 Y99.883 E0.26264
G1 X80.561 Y99.499 E0.28894
G1 X81.286 Y99.187 E0.31519
G1 X82.039 Y98.95 E0.34144
G1 X82.813 Y98.791 E0.36773
G1 X83.598 Y98.71 E0.39397
G1 X84 Y98.7 E0.40735
G1 X151 Y98.7 E2.63578
G1 X151.789 Y98.74 E2.66205
G1 X152.569 Y98.859 E2.6883
G1 X153.334 Y99.057 E2.71458
G1 X154.074 Y99.331 E2.74082
G1 X154.783 Y99.679 E2.76709
G1 X155.454 Y100.097 E2.79339
G1 X156.078 Y100.58 E2.81963
G1 X156.651 Y101.123 E2.84589
G1 X157.166 Y101.722 E2.87216
G1 X157.617 Y102.37 E2.89842
G1 X158.001 Y103.061 E2.92471
G1 X158.313 Y103.786 E2.95097
G1 X158.55 Y104.539 E2.97722
G1 X158.709 Y105.313 E3.0035
G1 X158.79 Y106.098 E3.02975
G1 X158.8 Y106.5 E3.04313
G1 X158.8 Y128.5 E3.77485
G1 X158.76 Y129.289 E3.80112
G1 X158.641 Y130.069 E3.82737
G1 X158.443 Y130.834 E3.85365
G1 X158.169 Y131.574 E3.8799
G1 X157.821 Y132.283 E3.90616
G1 X157.403 Y132.954 E3.93246
G1 X156.92 Y133.578 E3.9587
G1 X156.377 Y134.151 E3.98496
G1 X155.778 Y134.666 E4.01123
G1 X155.13 Y135.117 E4.03749
G1 X154.439 Y135.501 E4.06378
G1 X153.714 Y135.813 E4.09004
G1 X152.961 Y136.05 E4.11629
G1 X152.187 Y136.209 E4.14257
G1 X151.402 Y136.29 E4.16882
G1 X151 Y136.3 E4.1822
G1 X120 Y136.3 E5.21326
G1 X119.211 Y136.26 E5.23954
G1 X118.431 Y136.141 E5.26578
G1 X117.666 Y135.943 E5.29206
G1 X116.926 Y135.669 E5.31831
G1 X116.217 Y135.321 E5.34458
G1 X115.546 Y134.903 E5.37087
G1 X114.922 Y134.42 E5.39712
G1 X114.349 Y133.877 E5.42337
G1 X113.834 Y133.278 E5.44965
G1 X113.383 Y132.63 E5.4759
G1 X112.999 Y131.939 E5.5022
G1 X112.687 Y131.214 E5.52845
G1 X112.45 Y130.461 E5.5547
G1 X112.291 Y129.687 E5.58099
G1 X112.251 Y129.3 E5.59393
G1 X104.135 Y129.3 E5.86387
G1 X103.92 Y129.578 E5.87555
G1 X103.377 Y130.151 E5.90181
G1 X102.778 Y130.666 E5.92808
G1 X102.13 Y131.117 E5.95434
G1 X101.439 Y131.501 E5.98064
G1 X100.714 Y131.813 E6.00689
G1 X99.961 Y132.05 E6.03314
G1 X99.187 Y132.209 E6.05942
G1 X98.402 Y132.29 E6.08567
G1 X98 Y132.3 E6.09905
G1 X84 Y132.3 E6.56469
G1 X83.211 Y132.26 E6.59097
G1 X82.431 Y132.141 E6.61721
G1 X81.666 Y131.943 E6.64349
G1 X80.926 Y131.669 E6.66974
G1 X80.217 Y131.321 E6.69601
G1 X79.546 Y130.903 E6.7223
G1 X78.922 Y130.42 E6.74854
G1 X78.349 Y129.877 E6.7748
G1 X77.834 Y129.278 E6.80107
G1 X77.383 Y128.63 E6.82733
G1 X76.999 Y127.939 E6.85363
G1 X76.687 Y127.214 E6.87988
G1 X76.45 Y126.461 E6.90613
G1 X76.291 Y125.687 E6.93241
G1 X76.21 Y124.902 E6.95866
G1 X76.2 Y124.5 E6.97204
G1 X76.2 Y106.5 E7.57072
G0 F6000 X76.6 Y106.5
G1 F900 X76.64 Y105.732 E7.5963
G1 X76.759 Y104.972 E7.62188
G1 X76.957 Y104.229 E7.64746
G1 X77.231 Y103.51 E7.67305
G1 X77.578 Y102.824 E7.69862
G1 X77.994 Y102.177 E7.7242
G1 X78.475 Y101.577 E7.74978
G1 X79.016 Y101.03 E7.77537
G1 X79.611 Y100.542 E7.80096
G1 X80.253 Y100.119 E7.82653
G1 X80.936 Y99.764 E7.85214
G1 X81.651 Y99.483 E7.87769
G1 X82.393 Y99.277 E7.9033
G1 X83.151 Y99.149 E7.92887
G1 X84 Y99.1 E7.95715
G1 X151 Y99.1 E10.18558
G1 X151.768 Y99.14 E10.21116
G1 X152.528 Y99.259 E10.23675
G1 X153.271 Y99.457 E10.26232
G1 X153.99 Y99.731 E10.28791
G1 X154.676 Y100.078 E10.31348
G1 X155.323 Y100.494 E10.33907
G1 X155.923 Y100.975 E10.36464
G1 X156.47 Y101.516 E10.39023
G1 X156.958 Y102.111 E10.41583
G1 X157.381 Y102.753 E10.4414
G1 X157.736 Y103.436 E10.467
G1 X158.017 Y104.151 E10.49255
G1 X158.223 Y104.893 E10.51816
G1 X158.351 Y105.651 E10.54373
G1 X158.4 Y106.5 E10.57202
G1 X158.4 Y128.5 E11.30374
G1 X158.36 Y129.268 E11.32932
G1 X158.241 Y130.028 E11.3549
G1 X158.043 Y130.771 E11.38048
G1 X157.769 Y131.49 E11.40607
G1 X157.422 Y132.176 E11.43164
G1 X157.006 Y132.823 E11.45722
G1 X156.525 Y133.423 E11.4828
G1 X155.984 Y133.97 E11.50839
G1 X155.389 Y134.458 E11.53398
G1 X154.747 Y134.881 E11.55955
G1 X154.064 Y135.236 E11.58516
G1 X153.349 Y135.517 E11.61071
G1 X152.607 Y135.723 E11.63632
G1 X151.849 Y135.851 E11.66189
G1 X151 Y135.9 E11.69017
G1 X120 Y135.9 E12.72124
G1 X119.232 Y135.86 E12.74682
G1 X118.472 Y135.741 E12.7724
G1 X117.729 Y135.543 E12.79798
G1 X117.01 Y135.269 E12.82357
G1 X116.324 Y134.922 E12.84914
G1 X115.677 Y134.506 E12.87472
G1 X115.077 Y134.025 E12.9003
G1 X114.53 Y133.484 E12.92589
G1 X114.042 Y132.889 E12.95148
G1 X113.619 Y132.247 E12.97705
G1 X113.264 Y131.564 E13.00265
G1 X112.983 Y130.849 E13.02821
G1 X112.777 Y130.107 E13.05382
G1 X112.649 Y129.349 E13.07939
G1 X112.623 Y128.9 E13.09434
G1 X103.944 Y128.9 E13.38301
G1 X103.525 Y129.423 E13.4053
G1 X102.984 Y129.97 E13.43089
G1 X102.389 Y130.458 E13.45648
G1 X101.747 Y130.881 E13.48205
G1 X101.064 Y131.236 E13.50765
G1 X100.349 Y131.517 E13.53321
G1 X99.607 Y131.723 E13.55882
G1 X98.849 Y131.851 E13.58439
G1 X98 Y131.9 E13.61267
G1 X84 Y131.9 E14.07831
G1 X83.232 Y131.86 E14.10389
G1 X82.472 Y131.741 E14.12948
G1 X81.729 Y131.543 E14.15505
G1 X81.01 Y131.269 E14.18064
G1 X80.324 Y130.922 E14.20621
G1 X79.677 Y130.506 E14.2318
G1 X79.077 Y130.025 E14.25737
G1 X78.53 Y129.484 E14.28296
G1 X78.042 Y128.889 E14.30856
G1 X77.619 Y128.247 E14.33413
G1 X77.264 Y127.564 E14.35973
G1 X76.983 Y126.849 E14.38528
G1 X76.777 Y126.107 E14.41089
G1 X76.649 Y125.349 E14.43646
G1 X76.6 Y124.5 E14.46475
G1 X76.6 Y106.5 E15.06343
G0 F6000 X77 Y106.5
G1 F900 X77.04 Y105.753 E15.08831
G1 X77.159 Y105.015 E15.11317
G1 X77.357 Y104.293 E15.13807
G1 X77.63 Y103.597 E15.16294
G1 X77.977 Y102.934 E15.18783
G1 X78.392 Y102.311 E15.21273
G1 X78.871 Y101.737 E15.23759
G1 X79.408 Y101.216 E15.26248
G1 X79.998 Y100.757 E15.28734
G1 X80.634 Y100.362 E15.31224
G1 X81.308 Y100.038 E15.33711
G1 X82.013 Y99.788 E15.36199
G1 X82.741 Y99.614 E15.38689
G1 X83.483 Y99.519 E15.41177
G1 X84 Y99.5 E15.42898
G1 X151 Y99.5 E17.65741
G1 X151.747 Y99.54 E17.68229
G1 X152.485 Y99.659 E17.70715
G1 X153.207 Y99.857 E17.73205
G1 X153.903 Y100.13 E17.75692
G1 X154.566 Y100.477 E17.78181
G1 X155.189 Y100.892 E17.8067
G1 X155.763 Y101.371 E17.83157
G1 X156.284 Y101.908 E17.85645
G1 X156.743 Y102.498 E17.88132
G1 X157.138 Y103.134 E17.90622
G1 X157.462 Y103.808 E17.93109
G1 X157.712 Y104.513 E17.95597
G1 X157.886 Y105.241 E17.98086
G1 X157.981 Y105.983 E18.00575
G1 X158 Y106.5 E18.02295
G1 X158 Y128.5 E18.75468
G1 X157.96 Y129.247 E18.77956
G1 X157.841 Y129.985 E18.80442
G1 X157.643 Y130.707 E18.82932
G1 X157.37 Y131.403 E18.85419
G1 X157.023 Y132.066 E18.87907
G1 X156.608 Y132.689 E18.90397
G1 X156.129 Y133.263 E18.92884
G1 X155.592 Y133.784 E18.95372
G1 X155.002 Y134.243 E18.97859
G1 X154.366 Y134.638 E19.00349
G1 X153.692 Y134.962 E19.02836
G1 X152.987 Y135.212 E19.05324
G1 X152.259 Y135.386 E19.07813
G1 X151.517 Y135.481 E19.10301
G1 X151 Y135.5 E19.12022
G1 X120 Y135.5 E20.15129
G1 X119.253 Y135.46 E20.17617
G1 X118.515 Y135.341 E20.20103
G1 X117.793 Y135.143 E20.22593
G1 X117.097 Y134.87 E20.2508
G1 X116.434 Y134.523 E20.27569
G1 X115.811 Y134.108 E20.30058
G1 X115.237 Y133.629 E20.32545
G1 X114.716 Y133.092 E20.35033
G1 X114.257 Y132.502 E20.3752
G1 X113.862 Y131.866 E20.4001
G1 X113.538 Y131.192 E20.42497
G1 X113.288 Y130.487 E20.44985
G1 X113.114 Y129.759 E20.47475
G1 X113.019 Y129.017 E20.49963
G1 X113 Y128.5 E20.51683
G1 X103.734 Y128.5 E20.82502
G1 X103.608 Y128.689 E20.83258
G1 X103.129 Y129.263 E20.85744
G1 X102.592 Y129.784 E20.88233
G1 X102.002 Y130.243 E20.90719
G1 X101.366 Y130.638 E20.93209
G1 X100.692 Y130.962 E20.95696
G1 X99.987 Y131.212 E20.98184
G1 X99.259 Y131.386 E21.00674
G1 X98.517 Y131.481 E21.03162
G1 X98 Y131.5 E21.04883
G1 X84 Y131.5 E21.51447
G1 X83.253 Y131.46 E21.53935
G1 X82.515 Y131.341 E21.56421
G1 X81.793 Y131.143 E21.58911
G1 X81.097 Y130.87 E21.61398
G1 X80.434 Y130.523 E21.63887
G1 X79.811 Y130.108 E21.66376
G1 X79.237 Y129.629 E21.68863
G1 X78.716 Y129.092 E21.71352
G1 X78.257 Y128.502 E21.73838
G1 X77.862 Y127.866 E21.76328
G1 X77.538 Y127.192 E21.78815
G1 X77.288 Y126.487 E21.81303
G1 X77.114 Y125.759 E21.83793
G1 X77.019 Y125.017 E21.86281
G1 X77 Y124.5 E21.88001
G1 X77 Y106.5 E22.4787
G0 F6000 X77.4 Y106.5
G1 F900 X77.44 Y105.775 E22.50285
G1 X77.559 Y105.058 E22.52702
G1 X77.757 Y104.359 E22.55118
G1 X78.03 Y103.686 E22.57534
G1 X78.375 Y103.047 E22.59949
G1 X78.789 Y102.45 E22.62366
G1 X79.265 Y101.902 E22.6478
G1 X79.799 Y101.409 E22.67197
G1 X80.384 Y100.979 E22.69612
G1 X81.013 Y100.615 E22.72029
G1 X81.678 Y100.322 E22.74446
G1 X82.371 Y100.104 E22.76862
G1 X83.083 Y99.964 E22.79276
G1 X84 Y99.9 E22.82333
G1 X151 Y99.9 E25.05176
G1 X151.725 Y99.94 E25.07591
G1 X152.442 Y100.059 E25.10008
G1 X153.141 Y100.257 E25.12425
G1 X153.814 Y100.53 E25.1484
G1 X154.453 Y100.875 E25.17256
G1 X155.05 Y101.289 E25.19672
G1 X155.598 Y101.765 E25.22086
G1 X156.091 Y102.299 E25.24504
G1 X156.521 Y102.884 E25.26918
G1 X156.885 Y103.513 E25.29335
G1 X157.178 Y104.178 E25.31752
G1 X157.396 Y104.871 E25.34169
G1 X157.536 Y105.583 E25.36582
G1 X157.6 Y106.5 E25.3964
G1 X157.6 Y128.5 E26.12812
G1 X157.56 Y129.225 E26.15227
G1 X157.441 Y129.942 E26.17644
G1 X157.243 Y130.641 E26.20061
G1 X156.97 Y131.314 E26.22476
G1 X156.625 Y131.953 E26.24891
G1 X156.211 Y132.55 E26.27308
G1 X155.735 Y133.098 E26.29722
G1 X155.201 Y133.591 E26.32139
G1 X154.616 Y134.021 E26.34554
G1 X153.987 Y134.385 E26.36971
G1 X153.322 Y134.678 E26.39388
G1 X152.629 Y134.896 E26.41805
G1 X151.917 Y135.036 E26.44218
G1 X151 Y135.1 E26.47275
G1 X120 Y135.1 E27.50382
G1 X119.275 Y135.06 E27.52797
G1 X118.558 Y134.941 E27.55214
G1 X117.859 Y134.743 E27.57631
G1 X117.186 Y134.47 E27.60046
G1 X116.547 Y134.125 E27.62461
G1 X115.95 Y133.711 E27.64878
G1 X115.402 Y133.235 E27.67292
G1 X114.909 Y132.701 E27.69709
G1 X114.479 Y132.116 E27.72124
G1 X114.115 Y131.487 E27.74541
G1 X113.822 Y130.822 E27.76958
G1 X113.604 Y130.129 E27.79374
G1 X113.464 Y129.417 E27.81788
G1 X113.4 Y128.5 E27.84845
G1 X113.4 Y128.1 E27.86176
G1 X103.523 Y128.1 E28.19027
G1 X103.211 Y128.55 E28.20848
G1 X102.735 Y129.098 E28.23262
G1 X102.201 Y129.591 E28.25679
G1 X101.616 Y130.021 E28.28094
G1 X100.987 Y130.385 E28.30511
G1 X100.322 Y130.678 E28.32928
G1 X99.629 Y130.896 E28.35345
G1 X98.917 Y131.036 E28.37758
G1 X98 Y131.1 E28.40815
G1 X84 Y131.1 E28.8738
G1 X83.275 Y131.06 E28.89795
G1 X82.558 Y130.941 E28.92212
G1 X81.859 Y130.743 E28.94628
G1 X81.186 Y130.47 E28.97044
G1 X80.547 Y130.125 E28.99459
G1 X79.95 Y129.711 E29.01876
G1 X79.402 Y129.235 E29.0429
G1 X78.909 Y128.701 E29.06707
G1 X78.479 Y128.116 E29.09122
G1 X78.115 Y127.487 E29.11539
G1 X77.822 Y126.822 E29.13956
G1 X77.604 Y126.129 E29.16372
G1 X77.464 Y125.417 E29.18786
G1 X77.4 Y124.5 E29.21843
G1 X77.4 Y106.5 E29.81711
G0 F6000 X77.8 Y106.5
G1 F900 X77.84 Y105.797 E29.84053
G1 X77.959 Y105.103 E29.86395
G1 X78.157 Y104.428 E29.88735
G1 X78.429 Y103.779 E29.91075
G1 X78.774 Y103.165 E29.93418
G1 X79.185 Y102.594 E29.95758
G1 X79.659 Y102.073 E29.98101
G1 X80.189 Y101.609 E30.00443
G1 X80.768 Y101.209 E30.02784
G1 X81.389 Y100.877 E30.05126
G1 X82.043 Y100.617 E30.07467
G1 X82.723 Y100.433 E30.0981
G1 X83.419 Y100.327 E30.12152
G1 X84 Y100.3 E30.14086
G1 X151 Y100.3 E32.36929
G1 X151.703 Y100.34 E32.39271
G1 X152.397 Y100.459 E32.41613
G1 X153.072 Y100.657 E32.43953
G1 X153.721 Y100.929 E32.46293
G1 X154.335 Y101.274 E32.48636
G1 X154.906 Y101.685 E32.50976
G1 X155.427 Y102.159 E32.53318
G1 X155.891 Y102.689 E32.55661
G1 X156.291 Y103.268 E32.58002
G1 X156.623 Y103.889 E32.60344
G1 X156.883 Y104.543 E32.62685
G1 X157.067 Y105.223 E32.65028
G1 X157.173 Y105.919 E32.67369
G1 X157.2 Y106.5 E32.69304
G1 X157.2 Y128.5 E33.42476
G1 X157.16 Y129.203 E33.44818
G1 X157.041 Y129.897 E33.4716
G1 X156.843 Y130.572 E33.495
G1 X156.571 Y131.221 E33.5184
G1 X156.226 Y131.835 E33.54183
G1 X155.815 Y132.406 E33.56523
G1 X155.341 Y132.927 E33.58865
G1 X154.811 Y133.391 E33.61208
G1 X154.232 Y133.791 E33.63549
G1 X153.611 Y134.123 E33.65891
G1 X152.957 Y134.383 E33.68232
G1 X152.277 Y134.567 E33.70575
G1 X151.581 Y134.673 E33.72916
G1 X151 Y134.7 E33.74851
G1 X120 Y134.7 E34.77957
G1 X119.297 Y134.66 E34.80299
G1 X118.603 Y134.541 E34.82641
G1 X117.928 Y134.343 E34.84981
G1 X117.279 Y134.071 E34.87321
G1 X116.665 Y133.726 E34.89664
G1 X116.094 Y133.315 E34.92004
G1 X115.573 Y132.841 E34.94346
G1 X115.109 Y132.311 E34.96689
G1 X114.709 Y131.732 E34.9903
G1 X114.377 Y131.111 E35.01372
G1 X114.117 Y130.457 E35.03713
G1 X113.933 Y129.777 E35.06056
G1 X113.827 Y129.081 E35.08397
G1 X113.8 Y128.5 E35.10332
G1 X113.8 Y127.7 E35.12993
G1 X103.323 Y127.7 E35.47839
G1 X102.815 Y128.406 E35.50732
G1 X102.341 Y128.927 E35.53075
G1 X101.811 Y129.391 E35.55418
G1 X101.232 Y129.791 E35.57758
G1 X100.611 Y130.123 E35.60101
G1 X99.957 Y130.383 E35.62441
G1 X99.277 Y130.567 E35.64784
G1 X98.581 Y130.673 E35.67126
G1 X98 Y130.7 E35.6906
G1 X84 Y130.7 E36.15625
G1 X83.297 Y130.66 E36.17967
G1 X82.603 Y130.541 E36.20309
G1 X81.928 Y130.343 E36.22648
G1 X81.279 Y130.071 E36.24989
G1 X80.665 Y129.726 E36.27331
G1 X80.094 Y129.315 E36.29671
G1 X79.573 Y128.841 E36.32014
G1 X79.109 Y128.311 E36.34357
G1 X78.709 Y127.732 E36.36697
G1 X78.377 Y127.111 E36.39039
G1 X78.117 Y126.457 E36.4138
G1 X77.933 Y125.777 E36.43723
G1 X77.827 Y125.081 E36.46065
G1 X77.8 Y124.5 E36.47999
G1 X77.8 Y106.5 E37.07868
G0 F6000 X78.2 Y106.5
G1 F900 X78.24 Y105.82 E37.10133
G1 X78.359 Y105.15 E37.12397
G1 X78.556 Y104.498 E37.14662
G1 X78.828 Y103.874 E37.16926
G1 X79.172 Y103.286 E37.19192
G1 X79.582 Y102.742 E37.21457
G1 X80.053 Y102.251 E37.2372
G1 X80.578 Y101.817 E37.25986
G1 X81.15 Y101.448 E37.2825
G1 X81.762 Y101.149 E37.30515
G1 X82.404 Y100.924 E37.32778
G1 X83.069 Y100.775 E37.35045
G1 X84 Y100.7 E37.38151
G1 X151 Y100.7 E39.60994
G1 X151.68 Y100.74 E39.6326
G1 X152.35 Y100.859 E39.65523
G1 X153.002 Y101.056 E39.67788
G1 X153.626 Y101.328 E39.70053
G1 X154.214 Y101.672 E39.72318
G1 X154.758 Y102.082 E39.74584
G1 X155.249 Y102.553 E39.76847
G1 X155.683 Y103.078 E39.79113
G1 X156.052 Y103.65 E39.81377
G1 X156.351 Y104.262 E39.83642
G1 X156.576 Y104.904 E39.85905
G1 X156.725 Y105.569 E39.88171
G1 X156.8 Y106.5 E39.91278
G1 X156.8 Y128.5 E40.6445
G1 X156.76 Y129.18 E40.66716
G1 X156.641 Y129.85 E40.68979
G1 X156.444 Y130.502 E40.71244
G1 X156.172 Y131.126 E40.73508
G1 X155.828 Y131.714 E40.75774
G1 X155.418 Y132.258 E40.7804
G1 X154.947 Y132.749 E40.80303
G1 X154.422 Y133.183 E40.82568
G1 X153.85 Y133.552 E40.84832
G1 X153.238 Y133.851 E40.87098
G1 X152.596 Y134.076 E40.89361
G1 X151.931 Y134.225 E40.91627
G1 X151 Y134.3 E40.94734
G1 X120 Y134.3 E41.9784
G1 X119.32 Y134.26 E42.00106
