;FLAVOR:Marlin
;TIME:6503
;Filament used: 4.25955m
;Layer height: 0.2
;MINX:26.713
;MINY:100.612
;MINZ:0.2
;MAXX:205.333
;MAXY:134.388
;MAXZ:9
;Generated with Cura_SteamEngine main
M140 S65
M105
M190 S65
M104 S240
M105
M109 S240
M82 ;absolute extrusion mode
; Ender 3 Custom Start G-code
G92 E0 ; Reset Extruder
G28 ; Home all axes
G1 Z2.0 F3000 ; Move Z Axis up little to prevent scratching of Heat Bed
G1 X0.1 Y20 Z0.3 F5000.0 ; Move to start position
G1 X0.1 Y200.0 Z0.3 F1500.0 E15 ; Draw the first line
G1 X0.4 Y200.0 Z0.3 F5000.0 ; Move to side a little
G1 X0.4 Y20 Z0.3 F1500.0 E30 ; Draw the second line
G92 E0 ; Reset Extruder
G1 Z2.0 F3000 ; Move Z Axis up little to prevent scratching of Heat Bed
G1 X5 Y20 Z0.3 F5000.0 ; Move over to prevent blob squish
G92 E0
G92 E0
G1 F2700 E-5
;LAYER_COUNT:45
;LAYER:0
M107
G0 F6000 X31.799 Y101.101 Z0.2
G0 X26.713 Y108.413
;TYPE:SKIRT
G1 F2700 E0
G1 F900 X26.753 Y107.625 E0.02624
G1 X26.872 Y106.844 E0.05252
G1 X27.07 Y106.08 E0.07877
G1 X27.344 Y105.339 E0.10505
G1 X27.692 Y104.63 E0.13131
G1 X28.109 Y103.96 E0.15756
G1 X28.592 Y103.335 E0.18383
G1 X29.136 Y102.762 E0.21011
G1 X29.735 Y102.248 E0.23637
G1 X30.383 Y101.796 E0.26264
G1 X31.073 Y101.412 E0.28891
G1 X31.799 Y101.101 E0.31518
G1 X32.552 Y100.864 E0.34143
G1 X33.325 Y100.704 E0.36769
G1 X34.111 Y100.623 E0.39397
G1 X34.513 Y100.613 E0.40734
G1 X172 Y100.613 E4.98018
G1 X172.789 Y100.653 E5.00646
G1 X173.569 Y100.772 E5.0327
G1 X174.334 Y100.97 E5.05898
G1 X175.074 Y101.244 E5.08523
G1 X175.783 Y101.592 E5.1115
G1 X176.454 Y102.01 E5.13779
G1 X177.078 Y102.493 E5.16403
G1 X177.651 Y103.036 E5.19029
G1 X178.166 Y103.635 E5.21656
G1 X178.617 Y104.283 E5.24282
G1 X179.001 Y104.974 E5.26912
G1 X179.313 Y105.699 E5.29537
G1 X179.55 Y106.452 E5.32162
G1 X179.709 Y107.226 E5.3479
G1 X179.746 Y107.584 E5.35988
G1 X179.859 Y106.843 E5.38481
G1 X180.057 Y106.078 E5.41109
G1 X180.331 Y105.338 E5.43733
G1 X180.679 Y104.629 E5.4636
G1 X181.097 Y103.958 E5.4899
G1 X181.58 Y103.334 E5.51614
G1 X182.123 Y102.761 E5.5424
G1 X182.722 Y102.246 E5.56867
G1 X183.37 Y101.795 E5.59493
G1 X184.061 Y101.411 E5.62122
G1 X184.786 Y101.099 E5.64748
G1 X185.539 Y100.862 E5.67373
G1 X186.313 Y100.703 E5.70001
G1 X187.098 Y100.622 E5.72626
G1 X187.501 Y100.612 E5.73967
G1 X197.534 Y100.613 E6.07337
G1 X198.322 Y100.653 E6.09961
G1 X199.103 Y100.773 E6.12589
G1 X199.868 Y100.971 E6.15217
G1 X200.608 Y101.245 E6.17842
G1 X201.317 Y101.592 E6.20467
G1 X201.987 Y102.01 E6.23094
G1 X202.612 Y102.493 E6.25721
G1 X203.184 Y103.037 E6.28346
G1 X203.699 Y103.636 E6.30974
G1 X204.15 Y104.284 E6.336
G1 X204.534 Y104.974 E6.36226
G1 X204.846 Y105.7 E6.38854
G1 X205.083 Y106.453 E6.4148
G1 X205.242 Y107.226 E6.44105
G1 X205.323 Y108.012 E6.46733
G1 X205.333 Y108.413 E6.48067
G1 X205.333 Y126.587 E7.08514
G1 X205.293 Y127.376 E7.11142
G1 X205.174 Y128.156 E7.13766
G1 X204.976 Y128.921 E7.16394
G1 X204.702 Y129.661 E7.19019
G1 X204.354 Y130.37 E7.21646
G1 X203.936 Y131.041 E7.24275
G1 X203.453 Y131.665 E7.269
G1 X202.91 Y132.238 E7.29525
G1 X202.311 Y132.753 E7.32153
G1 X201.663 Y133.204 E7.34778
G1 X200.972 Y133.588 E7.37408
G1 X200.247 Y133.9 E7.40033
G1 X199.494 Y134.137 E7.42658
G1 X198.72 Y134.296 E7.45287
G1 X197.935 Y134.377 E7.47911
G1 X197.534 Y134.387 E7.49246
G1 X187.501 Y134.388 E7.82615
G1 X186.712 Y134.348 E7.85243
G1 X185.932 Y134.229 E7.87867
G1 X185.167 Y134.031 E7.90496
G1 X184.426 Y133.757 E7.93123
G1 X183.717 Y133.409 E7.9575
G1 X183.047 Y132.992 E7.98375
G1 X182.422 Y132.509 E8.01002
G1 X181.85 Y131.965 E8.03628
G1 X181.335 Y131.366 E8.06255
G1 X180.883 Y130.718 E8.08883
G1 X180.5 Y130.028 E8.11508
G1 X180.188 Y129.303 E8.14133
G1 X179.951 Y128.549 E8.16761
G1 X179.791 Y127.776 E8.19387
G1 X179.754 Y127.416 E8.20591
G1 X179.641 Y128.156 E8.2308
G1 X179.443 Y128.921 E8.25709
G1 X179.169 Y129.661 E8.28333
G1 X178.821 Y130.37 E8.3096
G1 X178.403 Y131.041 E8.33589
G1 X177.92 Y131.665 E8.36214
G1 X177.377 Y132.238 E8.3884
G1 X176.778 Y132.753 E8.41467
G1 X176.13 Y133.204 E8.44093
G1 X175.439 Y133.588 E8.46722
G1 X174.714 Y133.9 E8.49347
G1 X173.961 Y134.137 E8.51973
G1 X173.187 Y134.296 E8.54601
G1 X172.402 Y134.377 E8.57226
G1 X172 Y134.387 E8.58563
G1 X34.514 Y134.388 E13.15844
G1 X33.725 Y134.348 E13.18471
G1 X32.945 Y134.229 E13.21096
G1 X32.18 Y134.031 E13.23724
G1 X31.44 Y133.757 E13.26348
G1 X30.731 Y133.409 E13.28975
G1 X30.06 Y132.992 E13.31603
G1 X29.436 Y132.508 E13.34229
G1 X28.863 Y131.965 E13.36855
G1 X28.348 Y131.366 E13.39482
G1 X27.897 Y130.718 E13.42108
G1 X27.513 Y130.028 E13.44735
G1 X27.201 Y129.302 E13.47363
G1 X26.964 Y128.549 E13.49988
G1 X26.805 Y127.775 E13.52617
G1 X26.724 Y126.99 E13.55241
G1 X26.714 Y126.588 E13.56579
G1 X26.713 Y108.413 E14.17029
G0 F6000 X27.113 Y108.413
G1 F900 X27.153 Y107.645 E14.19587
G1 X27.272 Y106.885 E14.22146
G1 X27.47 Y106.142 E14.24703
G1 X27.744 Y105.423 E14.27262
G1 X28.091 Y104.737 E14.29819
G1 X28.507 Y104.09 E14.32377
G1 X28.988 Y103.49 E14.34935
G1 X29.529 Y102.943 E14.37494
G1 X30.124 Y102.455 E14.40053
G1 X30.766 Y102.032 E14.42611
G1 X31.448 Y101.677 E14.45168
G1 X32.164 Y101.396 E14.47726
G1 X32.905 Y101.19 E14.50284
G1 X33.664 Y101.062 E14.52844
G1 X34.513 Y101.013 E14.55673
G1 X172 Y101.013 E19.12956
G1 X172.768 Y101.053 E19.15514
G1 X173.528 Y101.172 E19.18073
G1 X174.271 Y101.37 E19.2063
G1 X174.99 Y101.644 E19.23189
G1 X175.676 Y101.991 E19.25746
G1 X176.323 Y102.407 E19.28305
G1 X176.923 Y102.888 E19.30862
G1 X177.47 Y103.429 E19.33421
G1 X177.958 Y104.024 E19.35981
G1 X178.381 Y104.666 E19.38538
G1 X178.736 Y105.349 E19.41098
G1 X179.017 Y106.064 E19.43653
G1 X179.223 Y106.806 E19.46214
G1 X179.351 Y107.564 E19.48771
G1 X179.4 Y108.413 E19.516
G1 X179.4 Y126.587 E20.12047
G1 X179.36 Y127.355 E20.14605
G1 X179.241 Y128.115 E20.17163
G1 X179.043 Y128.858 E20.19721
G1 X178.769 Y129.577 E20.2228
G1 X178.422 Y130.263 E20.24837
G1 X178.006 Y130.91 E20.27395
G1 X177.525 Y131.51 E20.29953
G1 X176.984 Y132.057 E20.32512
G1 X176.389 Y132.545 E20.35071
G1 X175.747 Y132.968 E20.37628
G1 X175.064 Y133.323 E20.40188
G1 X174.349 Y133.604 E20.42744
G1 X173.607 Y133.81 E20.45305
G1 X172.849 Y133.938 E20.47862
G1 X172 Y133.987 E20.5069
G1 X34.514 Y133.988 E25.0797
G1 X33.746 Y133.948 E25.10528
G1 X32.986 Y133.829 E25.13087
G1 X32.243 Y133.631 E25.15644
G1 X31.524 Y133.357 E25.18203
G1 X30.838 Y133.01 E25.2076
G1 X30.191 Y132.594 E25.23319
G1 X29.591 Y132.113 E25.25876
G1 X29.044 Y131.572 E25.28435
G1 X28.556 Y130.977 E25.30995
G1 X28.133 Y130.335 E25.33552
G1 X27.778 Y129.652 E25.36112
G1 X27.497 Y128.937 E25.38667
G1 X27.291 Y128.196 E25.41225
G1 X27.163 Y127.437 E25.43785
G1 X27.114 Y126.588 E25.46614
G1 X27.113 Y108.413 E26.07064
G0 F6000 X27.513 Y108.413
G1 F900 X27.553 Y107.666 E26.09552
G1 X27.672 Y106.928 E26.12038
G1 X27.87 Y106.206 E26.14529
G1 X28.143 Y105.51 E26.17015
G1 X28.489 Y104.847 E26.19503
G1 X28.904 Y104.225 E26.2199
G1 X29.383 Y103.65 E26.24479
G1 X29.921 Y103.13 E26.26967
G1 X30.511 Y102.67 E26.29456
G1 X31.147 Y102.276 E26.31944
G1 X31.821 Y101.951 E26.34433
G1 X32.526 Y101.701 E26.36921
G1 X33.253 Y101.527 E26.39407
G1 X33.995 Y101.432 E26.41895
G1 X34.513 Y101.413 E26.43619
G1 X172 Y101.413 E31.00903
G1 X172.747 Y101.453 E31.03391
G1 X173.485 Y101.572 E31.05877
G1 X174.207 Y101.77 E31.08367
G1 X174.903 Y102.043 E31.10854
G1 X175.566 Y102.39 E31.13342
G1 X176.189 Y102.805 E31.15832
G1 X176.763 Y103.284 E31.18319
G1 X177.284 Y103.821 E31.20807
G1 X177.743 Y104.411 E31.23294
G1 X178.138 Y105.047 E31.25784
G1 X178.462 Y105.721 E31.28271
G1 X178.712 Y106.426 E31.30759
G1 X178.886 Y107.154 E31.33248
G1 X178.981 Y107.896 E31.35736
G1 X179 Y108.413 E31.37457
G1 X179 Y126.587 E31.97904
G1 X178.96 Y127.334 E32.00392
G1 X178.841 Y128.072 E32.02879
G1 X178.643 Y128.794 E32.05369
G1 X178.37 Y129.49 E32.07855
G1 X178.023 Y130.153 E32.10344
G1 X177.608 Y130.776 E32.12834
G1 X177.129 Y131.35 E32.1532
G1 X176.592 Y131.871 E32.17809
G1 X176.002 Y132.33 E32.20295
G1 X175.366 Y132.725 E32.22785
G1 X174.692 Y133.049 E32.25273
G1 X173.987 Y133.299 E32.27761
G1 X173.259 Y133.473 E32.3025
G1 X172.517 Y133.568 E32.32738
G1 X172 Y133.587 E32.34459
G1 X34.514 Y133.588 E36.91739
G1 X33.767 Y133.548 E36.94227
G1 X33.029 Y133.429 E36.96714
G1 X32.307 Y133.231 E36.99204
G1 X31.611 Y132.958 E37.0169
G1 X30.948 Y132.611 E37.04179
G1 X30.325 Y132.196 E37.06669
G1 X29.751 Y131.717 E37.09155
G1 X29.23 Y131.18 E37.11644
G1 X28.771 Y130.59 E37.1413
G1 X28.376 Y129.954 E37.1662
G1 X28.052 Y129.28 E37.19108
G1 X27.802 Y128.575 E37.21596
G1 X27.628 Y127.847 E37.24085
G1 X27.533 Y127.105 E37.26573
G1 X27.514 Y126.588 E37.28294
G1 X27.513 Y108.413 E37.88744
G0 F6000 X27.913 Y108.413
G1 F900 X27.953 Y107.688 E37.91159
G1 X28.072 Y106.972 E37.93573
G1 X28.27 Y106.273 E37.9599
G1 X28.543 Y105.599 E37.98408
G1 X28.888 Y104.96 E38.00824
G1 X29.302 Y104.363 E38.0324
G1 X29.778 Y103.815 E38.05654
G1 X30.312 Y103.323 E38.08069
G1 X30.897 Y102.892 E38.10486
G1 X31.525 Y102.528 E38.129
G1 X32.19 Y102.235 E38.15317
G1 X32.883 Y102.017 E38.17733
G1 X33.596 Y101.877 E38.2015
G1 X34.513 Y101.813 E38.23207
G1 X172 Y101.813 E42.80491
G1 X172.725 Y101.853 E42.82906
G1 X173.442 Y101.972 E42.85324
G1 X174.141 Y102.17 E42.8774
G1 X174.814 Y102.443 E42.90155
G1 X175.453 Y102.788 E42.92571
G1 X176.05 Y103.202 E42.94987
G1 X176.598 Y103.678 E42.97401
G1 X177.091 Y104.212 E42.99819
G1 X177.521 Y104.797 E43.02233
G1 X177.885 Y105.426 E43.04651
G1 X178.178 Y106.091 E43.07067
G1 X178.396 Y106.784 E43.09484
G1 X178.536 Y107.496 E43.11897
G1 X178.6 Y108.413 E43.14955
G1 X178.6 Y126.587 E43.75402
G1 X178.56 Y127.312 E43.77817
G1 X178.441 Y128.029 E43.80234
G1 X178.243 Y128.728 E43.8265
G1 X177.97 Y129.401 E43.85066
G1 X177.625 Y130.04 E43.87481
G1 X177.211 Y130.637 E43.89898
G1 X176.735 Y131.185 E43.92312
G1 X176.201 Y131.678 E43.94729
G1 X175.616 Y132.108 E43.97144
G1 X174.987 Y132.472 E43.99561
G1 X174.322 Y132.765 E44.01978
G1 X173.629 Y132.983 E44.04394
G1 X172.917 Y133.123 E44.06808
G1 X172 Y133.187 E44.09865
G1 X34.514 Y133.188 E48.67145
G1 X33.789 Y133.148 E48.6956
G1 X33.072 Y133.029 E48.71978
G1 X32.373 Y132.831 E48.74394
G1 X31.7 Y132.558 E48.7681
G1 X31.061 Y132.213 E48.79225
G1 X30.464 Y131.799 E48.81641
G1 X29.916 Y131.323 E48.84056
G1 X29.423 Y130.789 E48.86473
G1 X28.993 Y130.204 E48.88888
G1 X28.629 Y129.575 E48.91305
G1 X28.336 Y128.91 E48.93722
G1 X28.118 Y128.218 E48.96135
G1 X27.978 Y127.505 E48.98552
G1 X27.914 Y126.588 E49.01609
G1 X27.913 Y108.413 E49.62059
G0 F6000 X28.313 Y108.413
G1 F900 X28.353 Y107.71 E49.64401
G1 X28.472 Y107.017 E49.6674
G1 X28.67 Y106.341 E49.69083
G1 X28.942 Y105.692 E49.71423
G1 X29.286 Y105.078 E49.73764
G1 X29.698 Y104.507 E49.76106
G1 X30.172 Y103.986 E49.78449
G1 X30.702 Y103.523 E49.80789
G1 X31.281 Y103.122 E49.83132
G1 X31.902 Y102.79 E49.85474
G1 X32.556 Y102.53 E49.87815
G1 X33.235 Y102.346 E49.90155
G1 X33.931 Y102.24 E49.92496
G1 X34.513 Y102.213 E49.94434
G1 X172 Y102.213 E54.51718
G1 X172.703 Y102.253 E54.5406
G1 X173.397 Y102.372 E54.56402
G1 X174.072 Y102.57 E54.58741
G1 X174.721 Y102.842 E54.61082
G1 X175.335 Y103.187 E54.63424
G1 X175.906 Y103.598 E54.65764
G1 X176.427 Y104.072 E54.68107
G1 X176.891 Y104.602 E54.7045
G1 X177.291 Y105.181 E54.7279
G1 X177.623 Y105.802 E54.75132
G1 X177.883 Y106.456 E54.77473
G1 X178.067 Y107.136 E54.79816
G1 X178.173 Y107.832 E54.82158
G1 X178.2 Y108.413 E54.84092
G1 X178.2 Y126.587 E55.44539
G1 X178.16 Y127.29 E55.46881
G1 X178.041 Y127.984 E55.49223
G1 X177.843 Y128.659 E55.51563
G1 X177.571 Y129.308 E55.53903
G1 X177.226 Y129.922 E55.56246
G1 X176.815 Y130.493 E55.58586
G1 X176.341 Y131.014 E55.60929
G1 X175.811 Y131.478 E55.63271
G1 X175.232 Y131.878 E55.65612
G1 X174.611 Y132.21 E55.67954
G1 X173.957 Y132.47 E55.70295
G1 X173.277 Y132.654 E55.72638
G1 X172.581 Y132.76 E55.7498
G1 X172 Y132.787 E55.76914
G1 X34.514 Y132.788 E60.34194
G1 X33.811 Y132.748 E60.36536
G1 X33.117 Y132.629 E60.38878
G1 X32.442 Y132.431 E60.41218
G1 X31.793 Y132.159 E60.43558
G1 X31.179 Y131.814 E60.45901
G1 X30.608 Y131.403 E60.48241
G1 X30.087 Y130.929 E60.50584
G1 X29.623 Y130.399 E60.52926
G1 X29.223 Y129.82 E60.55267
G1 X28.891 Y129.199 E60.57609
G1 X28.631 Y128.545 E60.5995
G1 X28.447 Y127.865 E60.62293
G1 X28.341 Y127.169 E60.64635
G1 X28.314 Y126.588 E60.66569
G1 X28.313 Y108.413 E61.27019
G0 F6000 X28.713 Y108.413
G1 F900 X28.753 Y107.734 E61.29282
G1 X28.872 Y107.063 E61.31548
G1 X29.069 Y106.412 E61.3381
G1 X29.341 Y105.787 E61.36078
G1 X29.685 Y105.199 E61.38343
G1 X30.095 Y104.656 E61.40606
G1 X30.565 Y104.164 E61.42869
G1 X31.091 Y103.73 E61.45138
G1 X31.663 Y103.362 E61.474
G1 X32.274 Y103.062 E61.49664
G1 X32.917 Y102.837 E61.51929
G1 X33.581 Y102.688 E61.54193
G1 X34.513 Y102.613 E61.57303
G1 X172 Y102.613 E66.14586
G1 X172.68 Y102.653 E66.16852
G1 X173.35 Y102.772 E66.19115
G1 X174.002 Y102.969 E66.21381
G1 X174.626 Y103.241 E66.23645
G1 X175.214 Y103.585 E66.2591
G1 X175.758 Y103.995 E66.28176
G1 X176.249 Y104.466 E66.30439
G1 X176.683 Y104.991 E66.32705
G1 X177.052 Y105.563 E66.34969
G1 X177.351 Y106.175 E66.37234
G1 X177.576 Y106.817 E66.39497
G1 X177.725 Y107.482 E66.41763
G1 X177.8 Y108.413 E66.4487
G1 X177.8 Y126.587 E67.05317
G1 X177.76 Y127.267 E67.07583
G1 X177.641 Y127.937 E67.09846
G1 X177.444 Y128.589 E67.12111
G1 X177.172 Y129.213 E67.14375
G1 X176.828 Y129.801 E67.16641
G1 X176.418 Y130.345 E67.18907
G1 X175.947 Y130.836 E67.2117
G1 X175.422 Y131.27 E67.23435
G1 X174.85 Y131.639 E67.25699
G1 X174.238 Y131.938 E67.27965
G1 X173.596 Y132.163 E67.30227
G1 X172.931 Y132.312 E67.32494
G1 X172 Y132.387 E67.35601
G1 X34.514 Y132.388 E71.92881
G1 X33.834 Y132.348 E71.95146
G1 X33.164 Y132.229 E71.9741
G1 X32.512 Y132.032 E71.99675
G1 X31.888 Y131.76 E72.01939
G1 X31.3 Y131.416 E72.04205
G1 X30.756 Y131.006 E72.06471
G1 X30.265 Y130.535 E72.08734
G1 X29.831 Y130.01 E72.10999
G1 X29.462 Y129.438 E72.13263
G1 X29.163 Y128.826 E72.15529
G1 X28.938 Y128.184 E72.17791
G1 X28.789 Y127.519 E72.20058
G1 X28.714 Y126.588 E72.23164
G1 X28.713 Y108.413 E72.83615
G0 F6000 X29.113 Y108.413
G1 F900 X29.153 Y107.758 E72.85797
G1 X29.272 Y107.112 E72.87982
G1 X29.469 Y106.485 E72.90168
G1 X29.741 Y105.886 E72.92356
G1 X30.083 Y105.326 E72.94539
G1 X30.49 Y104.81 E72.96724
G1 X30.958 Y104.349 E72.98909
G1 X31.477 Y103.947 E73.01093
G1 X32.042 Y103.611 E73.03279
G1 X32.644 Y103.347 E73.05465
G1 X33.273 Y103.157 E73.07651
G1 X33.92 Y103.046 E73.09834
G1 X34.513 Y103.013 E73.1181
G1 X172 Y103.013 E77.69093
G1 X172.656 Y103.053 E77.71279
G1 X173.302 Y103.172 E77.73464
G1 X173.929 Y103.369 E77.7565
G1 X174.527 Y103.641 E77.77835
G1 X175.088 Y103.983 E77.8002
G1 X175.603 Y104.391 E77.82205
G1 X176.065 Y104.858 E77.8439
G1 X176.466 Y105.378 E77.86574
G1 X176.802 Y105.942 E77.88758
G1 X177.066 Y106.544 E77.90944
G1 X177.256 Y107.173 E77.9313
G1 X177.367 Y107.82 E77.95313
G1 X177.4 Y108.413 E77.97288
G1 X177.4 Y126.587 E78.57735
G1 X177.36 Y127.243 E78.59921
G1 X177.241 Y127.889 E78.62106
G1 X177.044 Y128.516 E78.64292
G1 X176.772 Y129.114 E78.66477
G1 X176.43 Y129.675 E78.68662
G1 X176.022 Y130.19 E78.70848
G1 X175.555 Y130.652 E78.73033
G1 X175.035 Y131.053 E78.75217
G1 X174.471 Y131.389 E78.774
G1 X173.869 Y131.653 E78.79586
G1 X173.24 Y131.843 E78.81772
G1 X172.593 Y131.954 E78.83955
G1 X172 Y131.987 E78.85931
G1 X34.514 Y131.988 E83.43211
G1 X33.858 Y131.948 E83.45397
G1 X33.212 Y131.829 E83.47582
G1 X32.585 Y131.632 E83.49767
G1 X31.987 Y131.36 E83.51953
G1 X31.426 Y131.018 E83.54138
G1 X30.911 Y130.61 E83.56323
