;FLAVOR:Marlin
;TIME:1379
;Filament used: 0.723004m
;Layer height: 0.2
;MINX:85.95
;MINY:104.7
;MINZ:0.2
;MAXX:149.046
;MAXY:130.3
;MAXZ:7
;Generated with Cura_SteamEngine main
M140 S65
M105
M190 S65
M104 S240
M105
M109 S240
M82 ;absolute extrusion mode
; Ender 3 Custom Start G-code
G92 E0 ; Reset Extruder
G28 ; Home all axes
G1 Z2.0 F3000 ; Move Z Axis up little to prevent scratching of Heat Bed
G1 X0.1 Y20 Z0.3 F5000.0 ; Move to start position
G1 X0.1 Y200.0 Z0.3 F1500.0 E15 ; Draw the first line
G1 X0.4 Y200.0 Z0.3 F5000.0 ; Move to side a little
G1 X0.4 Y20 Z0.3 F1500.0 E30 ; Draw the second line
G92 E0 ; Reset Extruder
G1 Z2.0 F3000 ; Move Z Axis up little to prevent scratching of Heat Bed
G1 X5 Y20 Z0.3 F5000.0 ; Move over to prevent blob squish
G92 E0
G92 E0
G1 F2700 E-5
;LAYER_COUNT:35
;LAYER:0
M107
G0 F6000 X89.475 Y106.754 Z0.2
G0 X87.35 Y110.033
;TYPE:SKIRT
G1 F2700 E0
G1 F900 X87.638 Y109.298 E0.02626
G1 X87.998 Y108.595 E0.05253
G1 X88.427 Y107.932 E0.07879
G1 X88.921 Y107.317 E0.10503
G1 X89.475 Y106.754 E0.1313
G1 X90.084 Y106.25 E0.15759
G1 X90.739 Y105.81 E0.18383
G1 X91.436 Y105.439 E0.2101
G1 X92.167 Y105.14 E0.23637
G1 X92.925 Y104.917 E0.26264
G1 X93.701 Y104.771 E0.28891
G1 X94.75 Y104.7 E0.32388
G1 X136.25 Y104.7 E1.70417
G1 X136.812 Y104.714 E1.72287
G1 X137.28 Y104.743 E1.73847
G1 X137.594 Y104.772 E1.74895
G1 X138.119 Y104.839 E1.76656
G1 X138.429 Y104.889 E1.777
G1 X138.897 Y104.979 E1.79285
G1 X139.204 Y105.048 E1.80332
G1 X139.666 Y105.167 E1.81919
G1 X139.966 Y105.254 E1.82957
G1 X140.416 Y105.399 E1.8453
G1 X140.713 Y105.505 E1.85579
G1 X141.197 Y105.696 E1.87309
G1 X141.485 Y105.821 E1.88354
G1 X141.897 Y106.014 E1.89867
G1 X142.178 Y106.156 E1.90914
G1 X142.647 Y106.414 E1.92694
G1 X142.916 Y106.574 E1.93735
G1 X143.318 Y106.83 E1.95321
G1 X143.578 Y107.007 E1.96367
G1 X143.964 Y107.287 E1.97953
G1 X144.212 Y107.479 E1.98996
G1 X144.58 Y107.783 E2.00583
G1 X144.816 Y107.99 E2.01628
G1 X145.188 Y108.339 E2.03324
G1 X145.41 Y108.561 E2.04368
G1 X145.759 Y108.933 E2.06065
G1 X145.966 Y109.169 E2.07109
G1 X146.27 Y109.537 E2.08697
G1 X146.462 Y109.785 E2.0974
G1 X146.738 Y110.165 E2.11302
G1 X146.916 Y110.426 E2.12353
G1 X147.176 Y110.834 E2.13962
G1 X147.336 Y111.103 E2.15003
G1 X147.594 Y111.572 E2.16783
G1 X147.736 Y111.853 E2.1783
G1 X147.929 Y112.265 E2.19343
G1 X148.054 Y112.553 E2.20388
G1 X148.242 Y113.029 E2.2209
G1 X148.348 Y113.325 E2.23136
G1 X148.498 Y113.789 E2.24757
G1 X148.585 Y114.09 E2.258
G1 X148.701 Y114.54 E2.27345
G1 X148.77 Y114.846 E2.28389
G1 X148.861 Y115.32 E2.29994
G1 X148.911 Y115.63 E2.31038
G1 X148.978 Y116.155 E2.32799
G1 X149.007 Y116.469 E2.33847
G1 X149.036 Y116.943 E2.35427
G1 X149.046 Y117.264 E2.36495
G1 X149.046 Y117.755 E2.38128
G1 X149.036 Y118.069 E2.39173
G1 X149.005 Y118.563 E2.40819
G1 X148.975 Y118.877 E2.41868
G1 X148.914 Y119.353 E2.43465
G1 X148.865 Y119.663 E2.44508
G1 X148.762 Y120.195 E2.46311
G1 X148.692 Y120.499 E2.47348
G1 X148.58 Y120.931 E2.48833
G1 X148.492 Y121.233 E2.49879
G1 X148.341 Y121.695 E2.51495
G1 X148.234 Y121.992 E2.52545
G1 X148.051 Y122.454 E2.54198
G1 X147.926 Y122.742 E2.55242
G1 X147.728 Y123.164 E2.56793
G1 X147.586 Y123.444 E2.57837
G1 X147.333 Y123.903 E2.5958
G1 X147.173 Y124.172 E2.60621
G1 X146.894 Y124.608 E2.62343
G1 X146.715 Y124.868 E2.63393
G1 X146.458 Y125.22 E2.64842
G1 X146.266 Y125.468 E2.65885
G1 X145.959 Y125.84 E2.6749
G1 X145.757 Y126.07 E2.68508
G1 X145.399 Y126.451 E2.70247
G1 X145.171 Y126.678 E2.71317
G1 X144.811 Y127.014 E2.72955
G1 X144.575 Y127.221 E2.73999
G1 X144.191 Y127.537 E2.75653
G1 X143.943 Y127.728 E2.76694
G1 X143.567 Y128 E2.78237
G1 X143.305 Y128.178 E2.79291
G1 X142.891 Y128.441 E2.80922
G1 X142.622 Y128.6 E2.81962
G1 X142.161 Y128.852 E2.83709
G1 X141.879 Y128.994 E2.84759
G1 X141.465 Y129.187 E2.86278
G1 X141.178 Y129.311 E2.87318
G1 X140.706 Y129.497 E2.89006
G1 X140.409 Y129.603 E2.90054
G1 X139.936 Y129.755 E2.91707
G1 X139.636 Y129.841 E2.92745
G1 X139.192 Y129.954 E2.94269
G1 X138.884 Y130.023 E2.95318
G1 X138.428 Y130.111 E2.96863
G1 X138.126 Y130.16 E2.97881
G1 X137.594 Y130.228 E2.99665
G1 X137.28 Y130.257 E3.00713
G1 X136.812 Y130.286 E3.02273
G1 X136.25 Y130.3 E3.04143
G1 X94.75 Y130.3 E4.42172
G1 X93.961 Y130.26 E4.448
G1 X93.181 Y130.141 E4.47424
G1 X92.416 Y129.943 E4.50052
G1 X91.676 Y129.669 E4.52677
G1 X90.967 Y129.321 E4.55304
G1 X90.296 Y128.903 E4.57933
G1 X89.672 Y128.42 E4.60558
G1 X89.099 Y127.877 E4.63183
G1 X88.584 Y127.278 E4.65811
G1 X88.133 Y126.63 E4.68437
G1 X87.749 Y125.939 E4.71066
G1 X87.35 Y124.967 E4.74561
G1 X86.35 Y121.967 E4.85078
G1 X86.139 Y121.206 E4.87705
G1 X86.005 Y120.427 E4.90334
G1 X85.95 Y119.5 E4.93423
G1 X85.95 Y115.5 E5.06727
G1 X85.99 Y114.711 E5.09354
G1 X86.109 Y113.931 E5.11979
G1 X86.35 Y113.033 E5.15071
G1 X87.35 Y110.033 E5.25589
G1 F2700 E0.25589
G0 F6000 X87.55 Y115.5
G1 F2700 E5.25589
G1 F900 X87.59 Y114.797 E5.27931
G1 X87.709 Y114.103 E5.30273
G1 X87.868 Y113.539 E5.32222
G1 X88.868 Y110.539 E5.4274
G1 X89.128 Y109.885 E5.4508
G1 X89.461 Y109.265 E5.47421
G1 X89.862 Y108.686 E5.49764
G1 X90.326 Y108.157 E5.52104
G1 X90.847 Y107.683 E5.54447
G1 X91.418 Y107.272 E5.56787
G1 X92.032 Y106.927 E5.59129
G1 X92.681 Y106.655 E5.6147
G1 X93.357 Y106.458 E5.63811
G1 X94.051 Y106.34 E5.66153
G1 X94.75 Y106.3 E5.68482
G1 X136.25 Y106.3 E7.06511
G1 X136.761 Y106.313 E7.08211
G1 X137.133 Y106.336 E7.09451
G1 X137.447 Y106.365 E7.105
G1 X137.864 Y106.418 E7.11898
G1 X138.174 Y106.468 E7.12942
G1 X138.547 Y106.54 E7.14206
G1 X138.854 Y106.609 E7.15252
G1 X139.221 Y106.703 E7.16512
G1 X139.521 Y106.79 E7.17551
G1 X140.175 Y107.012 E7.19848
G1 X140.559 Y107.164 E7.21222
G1 X141.175 Y107.442 E7.2347
G1 X141.456 Y107.584 E7.24517
G1 X141.829 Y107.789 E7.25933
G1 X142.098 Y107.949 E7.26974
G1 X142.418 Y108.153 E7.28236
G1 X142.678 Y108.33 E7.29282
G1 X143.232 Y108.745 E7.31584
G1 X143.525 Y108.986 E7.32846
G1 X143.761 Y109.193 E7.3389
G1 X144.057 Y109.47 E7.35238
G1 X144.279 Y109.692 E7.36283
G1 X144.556 Y109.988 E7.37631
G1 X144.763 Y110.224 E7.38675
G1 X145.004 Y110.517 E7.39937
G1 X145.416 Y111.067 E7.42223
G1 X145.594 Y111.328 E7.43273
G1 X145.801 Y111.652 E7.44552
G1 X145.961 Y111.921 E7.45593
G1 X146.166 Y112.294 E7.47009
G1 X146.308 Y112.575 E7.48056
G1 X146.586 Y113.191 E7.50304
G1 X146.736 Y113.569 E7.51656
G1 X146.842 Y113.865 E7.52702
G1 X146.961 Y114.233 E7.53988
G1 X147.048 Y114.534 E7.55031
G1 X147.14 Y114.892 E7.5626
G1 X147.209 Y115.198 E7.57303
G1 X147.282 Y115.575 E7.5858
G1 X147.332 Y115.885 E7.59625
G1 X147.385 Y116.302 E7.61023
G1 X147.414 Y116.616 E7.62072
G1 X147.437 Y116.993 E7.63328
G1 X147.447 Y117.314 E7.64396
G1 X147.447 Y117.704 E7.65693
G1 X147.437 Y118.018 E7.66738
G1 X147.412 Y118.411 E7.68048
G1 X147.382 Y118.725 E7.69097
G1 X147.334 Y119.103 E7.70364
G1 X147.285 Y119.413 E7.71408
G1 X147.203 Y119.836 E7.72841
G1 X147.133 Y120.14 E7.73879
G1 X146.955 Y120.785 E7.76104
G1 X146.836 Y121.152 E7.77388
G1 X146.729 Y121.449 E7.78438
G1 X146.583 Y121.816 E7.79751
G1 X146.301 Y122.44 E7.82029
G1 X146.159 Y122.72 E7.83073
G1 X145.958 Y123.085 E7.84459
G1 X145.798 Y123.354 E7.855
G1 X145.576 Y123.701 E7.8687
G1 X145.397 Y123.961 E7.8792
G1 X145 Y124.488 E7.90114
G1 X144.756 Y124.784 E7.9139
G1 X144.554 Y125.014 E7.92408
G1 X144.27 Y125.317 E7.9379
G1 X144.042 Y125.544 E7.9486
G1 X143.756 Y125.811 E7.96161
G1 X143.52 Y126.018 E7.97205
G1 X143.215 Y126.269 E7.98519
G1 X142.967 Y126.46 E7.9956
G1 X142.406 Y126.854 E8.0184
G1 X142.077 Y127.063 E8.03137
G1 X141.808 Y127.222 E8.04176
G1 X141.441 Y127.423 E8.05568
G1 X141.159 Y127.565 E8.06618
G1 X140.543 Y127.842 E8.08864
G1 X140.168 Y127.99 E8.10205
G1 X139.871 Y128.096 E8.11254
G1 X139.496 Y128.217 E8.12565
G1 X139.196 Y128.303 E8.13602
G1 X138.534 Y128.462 E8.15867
G1 X138.172 Y128.532 E8.17093
G1 X137.87 Y128.581 E8.18111
G1 X137.447 Y128.635 E8.19529
G1 X137.133 Y128.664 E8.20578
G1 X136.761 Y128.687 E8.21818
G1 X136.25 Y128.7 E8.23518
G1 X94.75 Y128.7 E9.61547
G1 X94.047 Y128.66 E9.63889
G1 X93.353 Y128.541 E9.66231
G1 X92.678 Y128.343 E9.68571
G1 X92.029 Y128.071 E9.70911
G1 X91.415 Y127.726 E9.73254
G1 X90.844 Y127.315 E9.75594
G1 X90.323 Y126.841 E9.77937
G1 X89.859 Y126.311 E9.80279
G1 X89.459 Y125.732 E9.8262
G1 X89.127 Y125.111 E9.84962
G1 X88.868 Y124.461 E9.87289
G1 X87.868 Y121.461 E9.97807
G1 X87.684 Y120.781 E10.0015
G1 X87.578 Y120.085 E10.02492
G1 X87.55 Y119.5 E10.0444
G1 X87.55 Y115.5 E10.17744
G0 F6000 X87.95 Y115.5
G1 F900 X87.99 Y114.82 E10.20009
G1 X88.109 Y114.15 E10.22273
G1 X88.248 Y113.666 E10.23948
G1 X89.248 Y110.666 E10.34465
G1 X89.5 Y110.034 E10.36728
G1 X89.826 Y109.435 E10.38996
G1 X90.219 Y108.88 E10.41258
G1 X90.674 Y108.373 E10.43524
G1 X91.186 Y107.924 E10.45789
G1 X91.747 Y107.538 E10.48054
G1 X92.349 Y107.22 E10.50318
G1 X92.984 Y106.975 E10.52582
G1 X93.644 Y106.806 E10.54848
G1 X94.319 Y106.716 E10.57113
G1 X94.75 Y106.7 E10.58548
G1 X136.25 Y106.7 E11.96577
G1 X136.748 Y106.713 E11.98234
G1 X137.41 Y106.764 E12.00442
G1 X137.801 Y106.813 E12.01753
G1 X138.111 Y106.863 E12.02798
G1 X138.459 Y106.93 E12.03976
G1 X138.766 Y106.999 E12.05023
G1 X139.109 Y107.088 E12.06201
G1 X139.744 Y107.282 E12.0841
G1 X140.041 Y107.388 E12.09459
G1 X140.4 Y107.531 E12.10744
G1 X140.995 Y107.799 E12.12914
G1 X141.276 Y107.941 E12.13962
G1 X141.625 Y108.133 E12.15286
G1 X141.894 Y108.293 E12.16327
G1 X142.453 Y108.661 E12.18553
G1 X142.74 Y108.869 E12.19732
G1 X142.988 Y109.061 E12.20775
G1 X143.262 Y109.287 E12.21957
G1 X143.498 Y109.494 E12.23001
G1 X143.774 Y109.753 E12.2426
G1 X143.996 Y109.975 E12.25304
G1 X144.255 Y110.251 E12.26563
G1 X144.462 Y110.487 E12.27607
G1 X144.688 Y110.761 E12.28788
G1 X145.086 Y111.292 E12.30995
G1 X145.264 Y111.553 E12.32046
G1 X145.457 Y111.856 E12.33241
G1 X145.617 Y112.125 E12.34282
G1 X145.809 Y112.474 E12.35607
G1 X145.951 Y112.755 E12.36654
G1 X146.219 Y113.35 E12.38824
G1 X146.359 Y113.704 E12.40091
G1 X146.465 Y114 E12.41136
G1 X146.577 Y114.345 E12.42343
G1 X146.75 Y114.98 E12.44532
G1 X146.819 Y115.286 E12.45575
G1 X146.887 Y115.638 E12.46767
G1 X146.937 Y115.948 E12.47812
G1 X146.986 Y116.339 E12.49122
G1 X147.037 Y117.005 E12.51344
G1 X147.047 Y117.326 E12.52412
G1 X147.047 Y117.692 E12.5363
G1 X147.037 Y118.006 E12.54674
G1 X147.014 Y118.373 E12.55898
G1 X146.984 Y118.687 E12.56947
G1 X146.939 Y119.041 E12.58134
G1 X146.89 Y119.351 E12.59177
G1 X146.813 Y119.746 E12.60516
G1 X146.659 Y120.372 E12.6266
G1 X146.46 Y121.017 E12.64905
G1 X146.353 Y121.314 E12.65955
G1 X146.216 Y121.657 E12.67184
G1 X145.944 Y122.259 E12.69381
G1 X145.802 Y122.539 E12.70425
G1 X145.614 Y122.881 E12.71723
G1 X145.454 Y123.15 E12.72764
G1 X145.246 Y123.474 E12.74045
G1 X144.876 Y123.996 E12.76173
G1 X144.684 Y124.244 E12.77216
G1 X144.254 Y124.75 E12.79424
G1 X143.988 Y125.033 E12.80716
G1 X143.76 Y125.26 E12.81786
G1 X143.493 Y125.51 E12.83003
G1 X143.257 Y125.717 E12.84047
G1 X142.971 Y125.952 E12.85278
G1 X142.443 Y126.346 E12.87469
G1 X142.181 Y126.524 E12.88523
G1 X141.873 Y126.719 E12.89735
G1 X141.604 Y126.878 E12.90774
G1 X141.262 Y127.065 E12.92071
G1 X140.98 Y127.207 E12.93121
G1 X140.384 Y127.475 E12.95295
G1 X140.034 Y127.614 E12.96547
G1 X139.737 Y127.72 E12.97596
G1 X139.385 Y127.832 E12.98825
G1 X138.755 Y128.003 E13.00996
G1 X138.447 Y128.072 E13.02046
G1 X137.806 Y128.186 E13.04211
G1 X137.41 Y128.236 E13.05539
G1 X136.748 Y128.287 E13.07747
G1 X136.25 Y128.3 E13.09404
G1 X94.75 Y128.3 E14.47433
G1 X94.07 Y128.26 E14.49699
G1 X93.4 Y128.141 E14.51962
G1 X92.748 Y127.944 E14.54228
G1 X92.124 Y127.672 E14.56492
G1 X91.536 Y127.328 E14.58757
G1 X90.992 Y126.918 E14.61023
G1 X90.501 Y126.447 E14.63286
G1 X90.067 Y125.922 E14.65552
G1 X89.698 Y125.35 E14.67816
G1 X89.399 Y124.738 E14.70081
G1 X89.248 Y124.334 E14.71516
G1 X88.248 Y121.334 E14.82033
G1 X88.071 Y120.677 E14.84297
G1 X87.972 Y120.003 E14.86562
G1 X87.95 Y119.5 E14.88237
G1 X87.95 Y115.5 E15.01541
G0 F6000 X88.35 Y115.5
G1 F900 X88.39 Y114.844 E15.03727
G1 X88.509 Y114.198 E15.05912
G1 X88.627 Y113.792 E15.07318
G1 X89.627 Y110.792 E15.17836
G1 X89.872 Y110.183 E15.20019
G1 X90.19 Y109.608 E15.22204
G1 X90.575 Y109.075 E15.24391
G1 X91.022 Y108.594 E15.26575
G1 X91.524 Y108.17 E15.28761
G1 X92.073 Y107.81 E15.30944
G1 X92.663 Y107.52 E15.33131
G1 X93.283 Y107.303 E15.35316
G1 X93.925 Y107.163 E15.37501
G1 X94.75 Y107.1 E15.40253
G1 X136.25 Y107.1 E16.78283
G1 X136.735 Y107.113 E16.79896
G1 X137.374 Y107.162 E16.82028
G1 X137.737 Y107.208 E16.83245
G1 X138.371 Y107.32 E16.85386
G1 X138.678 Y107.389 E16.86433
G1 X139.298 Y107.559 E16.88571
G1 X139.609 Y107.659 E16.89658
G1 X139.906 Y107.765 E16.90706
G1 X140.241 Y107.897 E16.91904
G1 X140.815 Y108.156 E16.93999
G1 X141.096 Y108.298 E16.95046
G1 X141.42 Y108.477 E16.96277
G1 X141.968 Y108.814 E16.98417
G1 X142.228 Y108.991 E16.99463
G1 X142.743 Y109.377 E17.01603
G1 X142.998 Y109.587 E17.02702
G1 X143.234 Y109.794 E17.03746
G1 X143.713 Y110.258 E17.05964
G1 X143.955 Y110.515 E17.07138
G1 X144.162 Y110.751 E17.08182
G1 X144.564 Y111.254 E17.10324
G1 X144.933 Y111.778 E17.12456
G1 X145.273 Y112.33 E17.14612
G1 X145.452 Y112.654 E17.15843
G1 X145.594 Y112.935 E17.1689
G1 X145.853 Y113.509 E17.18985
G1 X145.983 Y113.838 E17.20161
G1 X146.089 Y114.134 E17.21207
G1 X146.193 Y114.456 E17.22333
G1 X146.36 Y115.068 E17.24442
G1 X146.429 Y115.374 E17.25486
G1 X146.542 Y116.012 E17.27641
G1 X146.588 Y116.375 E17.28858
G1 X146.617 Y116.689 E17.29907
G1 X146.647 Y117.339 E17.32071
G1 X146.647 Y117.679 E17.33202
G1 X146.616 Y118.335 E17.35386
G1 X146.586 Y118.649 E17.36435
G1 X146.495 Y119.288 E17.38582
G1 X146.423 Y119.657 E17.39832
G1 X146.353 Y119.961 E17.4087
G1 X146.187 Y120.562 E17.42944
G1 X146.083 Y120.881 E17.4406
G1 X145.85 Y121.498 E17.46253
G1 X145.725 Y121.786 E17.47297
G1 X145.445 Y122.358 E17.49416
G1 X145.27 Y122.676 E17.50623
G1 X145.11 Y122.945 E17.51664
G1 X144.917 Y123.247 E17.52856
G1 X144.56 Y123.751 E17.5491
G1 X144.368 Y123.999 E17.55953
G1 X143.953 Y124.486 E17.58081
G1 X143.706 Y124.75 E17.59284
G1 X143.478 Y124.977 E17.60354
G1 X143.229 Y125.21 E17.61488
G1 X142.993 Y125.417 E17.62532
G1 X142.727 Y125.635 E17.63676
G1 X142.219 Y126.015 E17.65786
G1 X141.957 Y126.193 E17.6684
G1 X141.67 Y126.375 E17.6797
G1 X141.401 Y126.534 E17.69009
G1 X141.082 Y126.708 E17.70218
G1 X140.8 Y126.85 E17.71268
G1 X140.226 Y127.108 E17.73361
G1 X139.899 Y127.237 E17.7453
G1 X139.602 Y127.343 E17.75579
G1 X139.275 Y127.448 E17.76721
G1 X138.975 Y127.534 E17.77759
G1 X138.359 Y127.681 E17.79866
G1 X137.742 Y127.791 E17.8195
G1 X137.374 Y127.838 E17.83184
G1 X136.735 Y127.887 E17.85316
G1 X136.25 Y127.9 E17.8693
G1 X94.75 Y127.9 E19.24959
G1 X94.094 Y127.86 E19.27145
G1 X93.448 Y127.741 E19.2933
G1 X92.821 Y127.544 E19.31516
G1 X92.223 Y127.272 E19.33701
G1 X91.662 Y126.93 E19.35886
G1 X91.147 Y126.522 E19.38071
G1 X90.685 Y126.055 E19.40256
G1 X90.284 Y125.535 E19.4244
G1 X89.948 Y124.971 E19.44624
G1 X89.627 Y124.208 E19.47377
G1 X88.627 Y121.208 E19.57895
G1 X88.458 Y120.573 E19.6008
G1 X88.367 Y119.922 E19.62267
G1 X88.35 Y119.5 E19.63671
G1 X88.35 Y115.5 E19.76975
G0 F6000 X88.75 Y115.5
G1 F900 X88.79 Y114.869 E19.79078
G1 X88.909 Y114.248 E19.81181
G1 X89.007 Y113.919 E19.82323
G1 X90.007 Y110.919 E19.92841
G1 X90.244 Y110.333 E19.94943
G1 X90.553 Y109.782 E19.97044
G1 X90.93 Y109.274 E19.99148
G1 X91.368 Y108.818 E20.01251
G1 X91.859 Y108.42 E20.03354
G1 X92.397 Y108.088 E20.05456
G1 X92.972 Y107.827 E20.07557
G1 X93.576 Y107.64 E20.0966
