;FLAVOR:Marlin
;TIME:1161
;Filament used: 0.71973m
;Layer height: 0.2
;MINX:96.699
;MINY:94.413
;MINZ:0.2
;MAXX:138.3
;MAXY:140.214
;MAXZ:3
;Generated with Cura_SteamEngine main
M140 S65
M105
M190 S65
M104 S240
M105
M109 S240
M82 ;absolute extrusion mode
; Ender 3 Custom Start G-code
G92 E0 ; Reset Extruder
G28 ; Home all axes
G1 Z2.0 F3000 ; Move Z Axis up little to prevent scratching of Heat Bed
G1 X0.1 Y20 Z0.3 F5000.0 ; Move to start position
G1 X0.1 Y200.0 Z0.3 F1500.0 E15 ; Draw the first line
G1 X0.4 Y200.0 Z0.3 F5000.0 ; Move to side a little
G1 X0.4 Y20 Z0.3 F1500.0 E30 ; Draw the second line
G92 E0 ; Reset Extruder
G1 Z2.0 F3000 ; Move Z Axis up little to prevent scratching of Heat Bed
G1 X5 Y20 Z0.3 F5000.0 ; Move over to prevent blob squish
G92 E0
G92 E0
G1 F2700 E-5
;LAYER_COUNT:15
;LAYER:0
M107
G0 F6000 X99.122 Y96.562 Z0.2
G0 X96.699 Y102.213
;TYPE:SKIRT
G1 F2700 E0
G1 F900 X96.739 Y101.425 E0.02624
G1 X96.858 Y100.644 E0.05252
G1 X97.056 Y99.88 E0.07877
G1 X97.33 Y99.139 E0.10505
G1 X97.678 Y98.43 E0.13131
G1 X98.095 Y97.76 E0.15756
G1 X98.578 Y97.135 E0.18383
G1 X99.122 Y96.562 E0.21011
G1 X99.721 Y96.048 E0.23637
G1 X100.369 Y95.596 E0.26264
G1 X101.059 Y95.212 E0.28891
G1 X101.785 Y94.901 E0.31518
G1 X102.538 Y94.664 E0.34143
G1 X103.311 Y94.504 E0.36769
G1 X104.097 Y94.423 E0.39397
G1 X104.499 Y94.413 E0.40734
G1 X130.5 Y94.414 E1.27214
G1 X131.289 Y94.454 E1.29842
G1 X132.07 Y94.574 E1.3247
G1 X132.834 Y94.771 E1.35094
G1 X133.575 Y95.046 E1.37723
G1 X134.284 Y95.393 E1.40348
G1 X134.954 Y95.811 E1.42975
G1 X135.579 Y96.294 E1.45602
G1 X136.151 Y96.838 E1.48227
G1 X136.666 Y97.437 E1.50855
G1 X137.117 Y98.085 E1.53481
G1 X137.501 Y98.775 E1.56107
G1 X137.813 Y99.5 E1.58732
G1 X138.05 Y100.254 E1.61361
G1 X138.209 Y101.027 E1.63986
G1 X138.29 Y101.813 E1.66614
G1 X138.3 Y102.214 E1.67948
G1 X138.3 Y122.413 E2.3513
G1 X138.29 Y122.803 E2.36428
G1 X138.235 Y123.903 E2.40091
G1 X138.186 Y124.47 E2.41984
G1 X138.051 Y125.562 E2.45643
G1 X137.959 Y126.132 E2.47564
G1 X137.743 Y127.214 E2.51234
G1 X137.61 Y127.774 E2.53148
G1 X137.316 Y128.833 E2.56803
G1 X137.146 Y129.369 E2.58674
G1 X136.775 Y130.408 E2.62343
G1 X136.557 Y130.952 E2.64292
G1 X136.11 Y131.958 E2.67954
G1 X135.861 Y132.468 E2.69841
G1 X135.342 Y133.439 E2.73503
G1 X135.06 Y133.924 E2.75369
G1 X134.472 Y134.856 E2.79034
G1 X134.14 Y135.341 E2.80989
G1 X133.485 Y136.224 E2.84646
G1 X133.13 Y136.667 E2.86534
G1 X132.41 Y137.503 E2.90204
G1 X131.865 Y138.075 E2.92832
G1 X131.265 Y138.588 E2.95457
G1 X130.616 Y139.038 E2.98084
G1 X129.926 Y139.421 E3.00709
G1 X129.199 Y139.731 E3.03337
G1 X128.446 Y139.966 E3.05961
G1 X127.672 Y140.124 E3.08588
G1 X126.5 Y140.213 E3.12498
G1 X108.5 Y140.214 E3.72366
G1 X107.712 Y140.174 E3.7499
G1 X106.931 Y140.055 E3.77618
G1 X106.167 Y139.857 E3.80243
G1 X105.426 Y139.583 E3.82871
G1 X104.717 Y139.235 E3.85497
G1 X104.047 Y138.818 E3.88122
G1 X103.422 Y138.335 E3.90749
G1 X102.59 Y137.504 E3.9466
G1 X101.87 Y136.668 E3.9833
G1 X101.513 Y136.222 E4.0023
G1 X100.858 Y135.338 E4.0389
G1 X100.528 Y134.856 E4.05832
G1 X99.94 Y133.924 E4.09498
G1 X99.66 Y133.442 E4.11352
G1 X99.141 Y132.472 E4.15011
G1 X98.89 Y131.959 E4.1691
G1 X98.443 Y130.953 E4.20572
G1 X98.227 Y130.415 E4.225
G1 X97.855 Y129.376 E4.2617
G1 X97.68 Y128.82 E4.28109
G1 X97.388 Y127.761 E4.31763
G1 X97.259 Y127.222 E4.33606
G1 X97.042 Y126.14 E4.37276
G1 X96.949 Y125.563 E4.3922
G1 X96.814 Y124.471 E4.4288
G1 X96.765 Y123.903 E4.44776
G1 X96.71 Y122.802 E4.48443
G1 X96.7 Y122.413 E4.49737
G1 X96.699 Y102.213 E5.16922
G0 F6000 X97.099 Y102.213
G1 F900 X97.139 Y101.445 E5.1948
G1 X97.258 Y100.685 E5.22039
G1 X97.456 Y99.942 E5.24596
G1 X97.73 Y99.223 E5.27155
G1 X98.077 Y98.537 E5.29712
G1 X98.493 Y97.89 E5.32271
G1 X98.974 Y97.29 E5.34828
G1 X99.515 Y96.743 E5.37387
G1 X100.11 Y96.255 E5.39947
G1 X100.752 Y95.832 E5.42504
G1 X101.434 Y95.477 E5.45061
G1 X102.15 Y95.196 E5.47619
G1 X102.891 Y94.99 E5.50177
G1 X103.65 Y94.862 E5.52738
G1 X104.499 Y94.813 E5.55566
G1 X130.5 Y94.814 E6.42046
G1 X131.268 Y94.854 E6.44604
G1 X132.028 Y94.974 E6.47163
G1 X132.772 Y95.171 E6.49722
G1 X133.49 Y95.445 E6.52279
G1 X134.177 Y95.792 E6.54838
G1 X134.823 Y96.208 E6.57394
G1 X135.423 Y96.69 E6.59954
G1 X135.97 Y97.23 E6.6251
G1 X136.458 Y97.825 E6.6507
G1 X136.881 Y98.467 E6.67627
G1 X137.236 Y99.15 E6.70187
G1 X137.518 Y99.866 E6.72747
G1 X137.723 Y100.607 E6.75304
G1 X137.851 Y101.365 E6.7786
G1 X137.9 Y102.214 E6.80689
G1 X137.9 Y122.413 E7.47871
G1 X137.891 Y122.783 E7.49102
G1 X137.836 Y123.883 E7.52765
G1 X137.789 Y124.421 E7.54562
G1 X137.654 Y125.513 E7.58221
G1 X137.567 Y126.054 E7.60044
G1 X137.351 Y127.136 E7.63713
G1 X137.224 Y127.667 E7.65529
G1 X136.93 Y128.726 E7.69185
G1 X136.769 Y129.234 E7.70957
G1 X136.398 Y130.273 E7.74627
G1 X136.191 Y130.79 E7.76479
G1 X135.744 Y131.796 E7.8014
G1 X135.508 Y132.279 E7.81928
G1 X134.989 Y133.25 E7.8559
G1 X134.722 Y133.711 E7.87362
G1 X134.134 Y134.643 E7.91027
G1 X133.818 Y135.103 E7.92884
G1 X133.163 Y135.986 E7.9654
G1 X132.827 Y136.406 E7.98329
G1 X132.107 Y137.242 E8.01999
G1 X131.576 Y137.798 E8.04556
G1 X130.989 Y138.296 E8.07116
G1 X130.354 Y138.73 E8.09674
G1 X129.678 Y139.096 E8.12231
G1 X128.967 Y139.39 E8.1479
G1 X128.229 Y139.608 E8.1735
G1 X127.473 Y139.749 E8.19907
G1 X126.5 Y139.813 E8.23151
G1 X108.5 Y139.814 E8.83019
G1 X107.732 Y139.774 E8.85577
G1 X106.972 Y139.655 E8.88135
G1 X106.229 Y139.457 E8.90693
G1 X105.51 Y139.183 E8.93252
G1 X104.824 Y138.836 E8.95809
G1 X104.177 Y138.42 E8.98367
G1 X103.577 Y137.939 E9.00925
G1 X102.893 Y137.243 E9.04171
G1 X102.173 Y136.407 E9.0784
G1 X101.834 Y135.983 E9.09646
G1 X101.179 Y135.099 E9.13305
G1 X100.866 Y134.643 E9.15145
G1 X100.278 Y133.711 E9.1881
G1 X100.012 Y133.253 E9.20572
G1 X99.493 Y132.283 E9.24231
G1 X99.256 Y131.797 E9.26029
G1 X98.809 Y130.791 E9.2969
G1 X98.604 Y130.28 E9.31522
G1 X98.232 Y129.241 E9.35192
G1 X98.065 Y128.714 E9.37031
G1 X97.773 Y127.655 E9.40685
G1 X97.651 Y127.143 E9.42435
G1 X97.434 Y126.061 E9.46106
G1 X97.346 Y125.514 E9.47948
G1 X97.211 Y124.422 E9.51608
G1 X97.164 Y123.883 E9.53407
G1 X97.109 Y122.782 E9.57074
G1 X97.1 Y122.413 E9.58302
G1 X97.099 Y102.213 E10.25487
G0 F6000 X97.499 Y102.213
G1 F900 X97.539 Y101.466 E10.27975
G1 X97.658 Y100.728 E10.30462
G1 X97.856 Y100.006 E10.32952
G1 X98.129 Y99.31 E10.35438
G1 X98.475 Y98.647 E10.37926
G1 X98.89 Y98.024 E10.40415
G1 X99.369 Y97.45 E10.42902
G1 X99.907 Y96.93 E10.4539
G1 X100.497 Y96.47 E10.47879
G1 X101.133 Y96.076 E10.50367
G1 X101.807 Y95.751 E10.52856
G1 X102.512 Y95.501 E10.55344
G1 X103.239 Y95.327 E10.5783
G1 X103.981 Y95.232 E10.60318
G1 X104.499 Y95.213 E10.62042
G1 X130.5 Y95.214 E11.48522
G1 X131.247 Y95.254 E11.5101
G1 X131.986 Y95.373 E11.53499
G1 X132.707 Y95.571 E11.55986
G1 X133.404 Y95.845 E11.58477
G1 X134.067 Y96.191 E11.60965
G1 X134.689 Y96.606 E11.63452
G1 X135.264 Y97.085 E11.65941
G1 X135.784 Y97.622 E11.68427
G1 X136.244 Y98.213 E11.70918
G1 X136.638 Y98.848 E11.73403
G1 X136.962 Y99.522 E11.75891
G1 X137.212 Y100.227 E11.78379
G1 X137.386 Y100.955 E11.80868
G1 X137.481 Y101.697 E11.83356
G1 X137.5 Y102.214 E11.85077
G1 X137.5 Y122.413 E12.52259
G1 X137.491 Y122.763 E12.53424
G1 X137.436 Y123.863 E12.57087
G1 X137.392 Y124.372 E12.58786
G1 X137.257 Y125.464 E12.62446
G1 X137.175 Y125.975 E12.64167
G1 X136.959 Y127.057 E12.67837
G1 X136.839 Y127.56 E12.69557
G1 X136.545 Y128.619 E12.73212
G1 X136.392 Y129.1 E12.74891
G1 X136.021 Y130.139 E12.7856
G1 X135.826 Y130.627 E12.80308
G1 X135.379 Y131.633 E12.8397
G1 X135.155 Y132.091 E12.85665
G1 X134.636 Y133.062 E12.89327
G1 X134.383 Y133.497 E12.91001
G1 X133.795 Y134.429 E12.94666
G1 X133.497 Y134.864 E12.9642
G1 X132.842 Y135.747 E13.00077
G1 X132.524 Y136.145 E13.01771
G1 X131.804 Y136.981 E13.05441
G1 X131.286 Y137.521 E13.0793
G1 X130.714 Y138.003 E13.10417
G1 X130.093 Y138.42 E13.12905
G1 X129.432 Y138.769 E13.15391
G1 X128.737 Y139.046 E13.1788
G1 X128.016 Y139.247 E13.20369
G1 X127.278 Y139.37 E13.22858
G1 X126.5 Y139.413 E13.25449
G1 X108.5 Y139.414 E13.85318
G1 X107.753 Y139.374 E13.87806
G1 X107.015 Y139.255 E13.90292
G1 X106.293 Y139.057 E13.92782
G1 X105.597 Y138.784 E13.95269
G1 X104.934 Y138.438 E13.97756
G1 X104.312 Y138.023 E14.00243
G1 X103.737 Y137.544 E14.02732
G1 X103.196 Y136.982 E14.05327
G1 X102.476 Y136.146 E14.08996
G1 X102.156 Y135.745 E14.10703
G1 X101.501 Y134.861 E14.14362
G1 X101.205 Y134.429 E14.16104
G1 X100.617 Y133.497 E14.19769
G1 X100.365 Y133.064 E14.21435
G1 X99.846 Y132.094 E14.25094
G1 X99.621 Y131.634 E14.26797
G1 X99.174 Y130.628 E14.30459
G1 X98.981 Y130.146 E14.32186
G1 X98.609 Y129.107 E14.35856
G1 X98.451 Y128.608 E14.37597
G1 X98.159 Y127.549 E14.41251
G1 X98.044 Y127.064 E14.42909
G1 X97.827 Y125.982 E14.46579
G1 X97.743 Y125.465 E14.48321
G1 X97.608 Y124.373 E14.51981
G1 X97.564 Y123.863 E14.53683
G1 X97.509 Y122.762 E14.5735
G1 X97.5 Y122.413 E14.58511
G1 X97.499 Y102.213 E15.25697
G0 F6000 X97.899 Y102.213
G1 F900 X97.939 Y101.488 E15.28112
G1 X98.058 Y100.772 E15.30526
G1 X98.256 Y100.073 E15.32942
G1 X98.529 Y99.399 E15.35361
G1 X98.874 Y98.76 E15.37776
G1 X99.288 Y98.163 E15.40192
G1 X99.764 Y97.615 E15.42607
G1 X100.298 Y97.123 E15.45022
G1 X100.883 Y96.692 E15.47438
G1 X101.511 Y96.328 E15.49853
G1 X102.176 Y96.035 E15.5227
G1 X102.869 Y95.817 E15.54686
G1 X103.582 Y95.677 E15.57103
G1 X104.499 Y95.613 E15.6016
G1 X130.5 Y95.614 E16.4664
G1 X131.226 Y95.654 E16.49058
G1 X131.942 Y95.773 E16.51472
G1 X132.641 Y95.971 E16.53888
G1 X133.314 Y96.244 E16.56304
G1 X133.953 Y96.589 E16.58719
G1 X134.55 Y97.003 E16.61136
G1 X135.098 Y97.48 E16.63552
G1 X135.591 Y98.013 E16.65967
G1 X136.022 Y98.598 E16.68384
G1 X136.385 Y99.227 E16.70799
G1 X136.678 Y99.892 E16.73216
G1 X136.896 Y100.585 E16.75632
G1 X137.036 Y101.297 E16.78046
G1 X137.1 Y102.214 E16.81103
G1 X137.1 Y122.413 E17.48285
G1 X137.092 Y122.743 E17.49383
G1 X137.037 Y123.843 E17.53046
G1 X136.995 Y124.323 E17.54649
G1 X136.86 Y125.415 E17.58309
G1 X136.782 Y125.897 E17.59933
G1 X136.566 Y126.979 E17.63602
G1 X136.453 Y127.453 E17.65223
G1 X136.159 Y128.512 E17.68879
G1 X136.016 Y128.965 E17.70459
G1 X135.645 Y130.004 E17.74128
G1 X135.46 Y130.465 E17.7578
G1 X135.013 Y131.471 E17.79442
G1 X134.803 Y131.902 E17.81036
G1 X134.284 Y132.873 E17.84698
G1 X134.045 Y133.284 E17.86279
G1 X133.457 Y134.216 E17.89945
G1 X133.176 Y134.626 E17.91598
G1 X132.521 Y135.509 E17.95255
G1 X132.221 Y135.884 E17.96852
G1 X131.501 Y136.72 E18.00521
G1 X130.997 Y137.243 E18.02937
G1 X130.439 Y137.708 E18.05353
G1 X129.834 Y138.109 E18.07767
G1 X129.187 Y138.441 E18.10186
G1 X128.509 Y138.7 E18.126
G1 X127.806 Y138.883 E18.15016
G1 X127.087 Y138.987 E18.17432
G1 X126.5 Y139.013 E18.19387
G1 X108.5 Y139.014 E18.79255
G1 X107.775 Y138.974 E18.8167
G1 X107.059 Y138.855 E18.84084
G1 X106.36 Y138.657 E18.865
G1 X105.686 Y138.384 E18.88919
G1 X105.047 Y138.039 E18.91334
G1 X104.45 Y137.625 E18.93751
G1 X103.902 Y137.149 E18.96165
G1 X103.499 Y136.721 E18.9812
G1 X102.779 Y135.885 E19.0179
G1 X102.477 Y135.507 E19.03399
G1 X101.822 Y134.623 E19.07058
G1 X101.543 Y134.216 E19.08699
G1 X100.955 Y133.284 E19.12365
G1 X100.718 Y132.876 E19.13934
G1 X100.199 Y131.906 E19.17593
G1 X99.987 Y131.472 E19.192
G1 X99.54 Y130.466 E19.22861
G1 X99.357 Y130.011 E19.24492
G1 X98.985 Y128.972 E19.28163
G1 X98.836 Y128.501 E19.29806
G1 X98.544 Y127.442 E19.33459
G1 X98.436 Y126.986 E19.35018
G1 X98.219 Y125.904 E19.38688
G1 X98.14 Y125.416 E19.40333
G1 X98.005 Y124.324 E19.43992
G1 X97.963 Y123.843 E19.45598
G1 X97.908 Y122.742 E19.49265
G1 X97.9 Y122.413 E19.50359
G1 X97.899 Y102.213 E20.17545
G0 F6000 X98.299 Y102.213
G1 F900 X98.339 Y101.51 E20.19887
G1 X98.458 Y100.817 E20.22225
G1 X98.656 Y100.141 E20.24568
G1 X98.928 Y99.492 E20.26909
G1 X99.272 Y98.878 E20.2925
G1 X99.684 Y98.307 E20.31592
G1 X100.158 Y97.786 E20.33934
G1 X100.688 Y97.323 E20.36275
G1 X101.267 Y96.922 E20.38617
G1 X101.888 Y96.59 E20.4096
G1 X102.542 Y96.33 E20.433
G1 X103.221 Y96.146 E20.4564
G1 X103.917 Y96.04 E20.47982
G1 X104.499 Y96.013 E20.4992
G1 X130.5 Y96.014 E21.36399
G1 X131.203 Y96.054 E21.38741
G1 X131.897 Y96.173 E21.41083
G1 X132.573 Y96.371 E21.43426
G1 X133.222 Y96.643 E21.45766
G1 X133.836 Y96.988 E21.48109
G1 X134.407 Y97.4 E21.50451
G1 X134.927 Y97.874 E21.52791
G1 X135.391 Y98.403 E21.55131
G1 X135.791 Y98.982 E21.57472
G1 X136.123 Y99.603 E21.59814
G1 X136.383 Y100.257 E21.62155
G1 X136.567 Y100.937 E21.64498
G1 X136.673 Y101.633 E21.6684
G1 X136.7 Y102.214 E21.68774
G1 X136.7 Y122.413 E22.35956
G1 X136.692 Y122.723 E22.36988
G1 X136.637 Y123.823 E22.40651
G1 X136.598 Y124.274 E22.42157
G1 X136.463 Y125.366 E22.45816
G1 X136.39 Y125.819 E22.47342
G1 X136.174 Y126.901 E22.51012
G1 X136.068 Y127.346 E22.52534
G1 X135.774 Y128.405 E22.56189
G1 X135.639 Y128.831 E22.57675
G1 X135.268 Y129.87 E22.61345
G1 X135.095 Y130.303 E22.62896
G1 X134.648 Y131.309 E22.66557
G1 X134.45 Y131.714 E22.68056
G1 X133.931 Y132.685 E22.71718
G1 X133.707 Y133.07 E22.732
G1 X133.119 Y134.002 E22.76865
G1 X132.855 Y134.388 E22.7842
G1 X132.2 Y135.271 E22.82077
G1 X131.918 Y135.623 E22.83577
G1 X131.198 Y136.459 E22.87247
G1 X130.709 Y136.965 E22.89587
G1 X130.166 Y137.413 E22.91929
G1 X129.575 Y137.797 E22.94273
G1 X128.945 Y138.111 E22.96614
G1 X128.283 Y138.351 E22.98956
G1 X127.599 Y138.515 E23.01296
G1 X126.9 Y138.6 E23.03638
G1 X126.5 Y138.613 E23.04969
G1 X108.5 Y138.614 E23.64837
G1 X107.797 Y138.574 E23.67179
G1 X107.104 Y138.455 E23.69518
G1 X106.428 Y138.257 E23.7186
G1 X105.779 Y137.985 E23.74201
G1 X105.165 Y137.641 E23.76542
G1 X104.594 Y137.229 E23.78884
G1 X104.073 Y136.755 E23.81226
G1 X103.802 Y136.46 E23.82559
G1 X103.082 Y135.624 E23.86228
G1 X102.798 Y135.269 E23.8774
G1 X102.143 Y134.385 E23.914
G1 X101.881 Y134.002 E23.92943
G1 X101.293 Y133.07 E23.96608
G1 X101.07 Y132.687 E23.98082
G1 X100.551 Y131.717 E24.01741
G1 X100.352 Y131.31 E24.03248
G1 X99.905 Y130.304 E24.0691
G1 X99.734 Y129.876 E24.08443
G1 X99.362 Y128.837 E24.12113
G1 X99.222 Y128.395 E24.13655
G1 X98.93 Y127.336 E24.17309
G1 X98.828 Y126.907 E24.18776
G1 X98.611 Y125.825 E24.22446
G1 X98.537 Y125.367 E24.23989
G1 X98.402 Y124.275 E24.27649
G1 X98.363 Y123.823 E24.29158
G1 X98.308 Y122.722 E24.32824
G1 X98.3 Y122.413 E24.33852
G1 X98.299 Y102.213 E25.01038
G0 F6000 X98.699 Y102.213
G1 F900 X98.739 Y101.534 E25.033
G1 X98.858 Y100.863 E25.05567
G1 X99.055 Y100.211 E25.07832
G1 X99.327 Y99.587 E25.10096
G1 X99.671 Y98.999 E25.12362
G1 X100.081 Y98.456 E25.14625
G1 X100.551 Y97.964 E25.16888
G1 X101.077 Y97.53 E25.19156
G1 X101.649 Y97.162 E25.21418
G1 X102.26 Y96.862 E25.23682
G1 X102.903 Y96.637 E25.25948
G1 X103.567 Y96.488 E25.28211
G1 X104.499 Y96.413 E25.31321
G1 X130.5 Y96.414 E26.17801
G1 X131.18 Y96.454 E26.20066
G1 X131.85 Y96.573 E26.2233
G1 X132.502 Y96.77 E26.24595
G1 X133.126 Y97.043 E26.26861
G1 X133.714 Y97.386 E26.29125
G1 X134.258 Y97.796 E26.3139
G1 X134.75 Y98.267 E26.33656
G1 X135.183 Y98.792 E26.35919
G1 X135.552 Y99.364 E26.38183
G1 X135.851 Y99.976 E26.40449
G1 X136.076 Y100.618 E26.42711
G1 X136.225 Y101.283 E26.44978
G1 X136.3 Y102.214 E26.48084
G1 X136.3 Y122.413 E27.15267
G1 X136.293 Y122.703 E27.16231
G1 X136.238 Y123.803 E27.19895
G1 X136.201 Y124.225 E27.21304
G1 X136.066 Y125.317 E27.24963
G1 X135.998 Y125.74 E27.26388
G1 X135.782 Y126.822 E27.30058
G1 X135.683 Y127.239 E27.31483
G1 X135.389 Y128.298 E27.35139
G1 X135.262 Y128.696 E27.36528
G1 X134.891 Y129.735 E27.40198
