;FLAVOR:Marlin
;TIME:7061
;Filament used: 4.35506m
;Layer height: 0.2
;MINX:23.41
;MINY:96.2
;MINZ:0.2
;MAXX:211.59
;MAXY:138.8
;MAXZ:3
;Generated with Cura_SteamEngine main
M140 S65
M105
M190 S65
M104 S240
M105
M109 S240
M82 ;absolute extrusion mode
; Ender 3 Custom Start G-code
G92 E0 ; Reset Extruder
G28 ; Home all axes
G1 Z2.0 F3000 ; Move Z Axis up little to prevent scratching of Heat Bed
G1 X0.1 Y20 Z0.3 F5000.0 ; Move to start position
G1 X0.1 Y200.0 Z0.3 F1500.0 E15 ; Draw the first line
G1 X0.4 Y200.0 Z0.3 F5000.0 ; Move to side a little
G1 X0.4 Y20 Z0.3 F1500.0 E30 ; Draw the second line
G92 E0 ; Reset Extruder
G1 Z2.0 F3000 ; Move Z Axis up little to prevent scratching of Heat Bed
G1 X5 Y20 Z0.3 F5000.0 ; Move over to prevent blob squish
G92 E0
G92 E0
G1 F2700 E-5
;LAYER_COUNT:15
;LAYER:0
M107
G0 F6000 X37.617 Y96.64 Z0.2
G0 X32.8 Y101.533
;TYPE:SKIRT
G1 F2700 E0
G1 F900 X33.088 Y100.798 E0.02626
G1 X33.448 Y100.095 E0.05253
G1 X33.877 Y99.432 E0.07879
G1 X34.371 Y98.817 E0.10503
G1 X34.925 Y98.254 E0.1313
G1 X35.534 Y97.75 E0.15759
G1 X36.189 Y97.31 E0.18383
G1 X36.886 Y96.939 E0.2101
G1 X37.617 Y96.64 E0.23637
G1 X38.375 Y96.417 E0.26264
G1 X39.151 Y96.271 E0.28891
G1 X40.2 Y96.2 E0.32388
G1 X203.8 Y96.2 E5.76524
G1 X204.589 Y96.24 E5.79151
G1 X205.369 Y96.359 E5.81775
G1 X206.134 Y96.557 E5.84404
G1 X206.874 Y96.831 E5.87028
G1 X207.583 Y97.179 E5.89655
G1 X208.254 Y97.597 E5.92284
G1 X208.878 Y98.08 E5.94909
G1 X209.451 Y98.623 E5.97535
G1 X209.966 Y99.222 E6.00162
G1 X210.417 Y99.87 E6.02788
G1 X210.801 Y100.561 E6.05417
G1 X211.113 Y101.286 E6.08042
G1 X211.35 Y102.039 E6.10668
G1 X211.509 Y102.813 E6.13296
G1 X211.59 Y103.598 E6.15921
G1 X211.59 Y104.388 E6.18548
G1 X211.532 Y105.031 E6.20696
G1 X207.932 Y132.031 E7.11293
G1 X207.788 Y132.807 E7.13918
G1 X207.566 Y133.565 E7.16545
G1 X207.269 Y134.297 E7.19172
G1 X206.899 Y134.995 E7.218
G1 X206.461 Y135.652 E7.24426
G1 X205.959 Y136.261 E7.27051
G1 X205.397 Y136.816 E7.29678
G1 X204.783 Y137.312 E7.32303
G1 X204.121 Y137.743 E7.34931
G1 X203.419 Y138.105 E7.37558
G1 X202.684 Y138.394 E7.40185
G1 X201.924 Y138.607 E7.4281
G1 X201.146 Y138.742 E7.45436
G1 X200.2 Y138.8 E7.48588
G1 X31.2 Y138.8 E13.10685
G1 X30.411 Y138.76 E13.13312
G1 X29.631 Y138.641 E13.15937
G1 X28.866 Y138.443 E13.18565
G1 X28.126 Y138.169 E13.21189
G1 X27.417 Y137.821 E13.23816
G1 X26.746 Y137.403 E13.26446
G1 X26.122 Y136.92 E13.2907
G1 X25.549 Y136.377 E13.31696
G1 X25.034 Y135.778 E13.34323
G1 X24.583 Y135.13 E13.36949
G1 X24.199 Y134.439 E13.39578
G1 X23.887 Y133.714 E13.42204
G1 X23.65 Y132.961 E13.44829
G1 X23.491 Y132.187 E13.47457
G1 X23.41 Y131.402 E13.50082
G1 X23.41 Y130.612 E13.5271
G1 X23.489 Y129.826 E13.55337
G1 X23.647 Y129.053 E13.57961
G1 X23.8 Y128.533 E13.59764
G1 X32.8 Y101.533 E14.54424
G0 F6000 X33.18 Y101.66
G1 F900 X33.461 Y100.944 E14.56982
G1 X33.814 Y100.261 E14.59539
G1 X34.237 Y99.618 E14.62099
G1 X34.724 Y99.023 E14.64657
G1 X35.27 Y98.481 E14.67215
G1 X35.87 Y97.999 E14.69775
G1 X36.516 Y97.582 E14.72333
G1 X37.202 Y97.235 E14.7489
G1 X37.92 Y96.96 E14.77447
G1 X38.663 Y96.761 E14.80005
G1 X39.423 Y96.641 E14.82564
G1 X40.2 Y96.6 E14.85152
G1 X203.8 Y96.6 E20.29288
G1 X204.568 Y96.64 E20.31846
G1 X205.328 Y96.759 E20.34404
G1 X206.071 Y96.957 E20.36962
G1 X206.79 Y97.231 E20.39521
G1 X207.476 Y97.578 E20.42078
G1 X208.123 Y97.994 E20.44636
G1 X208.723 Y98.475 E20.47194
G1 X209.27 Y99.016 E20.49753
G1 X209.758 Y99.611 E20.52312
G1 X210.181 Y100.253 E20.54869
G1 X210.536 Y100.936 E20.5743
G1 X210.817 Y101.651 E20.59985
G1 X211.023 Y102.393 E20.62546
G1 X211.151 Y103.151 E20.65103
G1 X211.2 Y103.919 E20.67662
G1 X211.135 Y104.978 E20.71191
G1 X207.535 Y131.978 E21.61788
G1 X207.394 Y132.734 E21.64346
G1 X207.175 Y133.471 E21.66903
G1 X206.881 Y134.182 E21.69462
G1 X206.514 Y134.858 E21.72021
G1 X206.08 Y135.493 E21.74579
G1 X205.582 Y136.079 E21.77137
G1 X205.025 Y136.61 E21.79696
G1 X204.417 Y137.081 E21.82254
G1 X203.763 Y137.486 E21.84813
G1 X203.071 Y137.821 E21.8737
G1 X202.347 Y138.082 E21.8993
G1 X201.6 Y138.266 E21.92488
G1 X200.839 Y138.372 E21.95044
G1 X200.2 Y138.4 E21.97171
G1 X31.2 Y138.4 E27.59268
G1 X30.432 Y138.36 E27.61825
G1 X29.672 Y138.241 E27.64384
G1 X28.929 Y138.043 E27.66941
G1 X28.21 Y137.769 E27.69501
G1 X27.524 Y137.422 E27.72058
G1 X26.877 Y137.006 E27.74616
G1 X26.277 Y136.525 E27.77174
G1 X25.73 Y135.984 E27.79732
G1 X25.242 Y135.389 E27.82292
G1 X24.819 Y134.747 E27.84849
G1 X24.464 Y134.064 E27.87409
G1 X24.183 Y133.349 E27.89964
G1 X23.977 Y132.607 E27.92526
G1 X23.849 Y131.849 E27.95082
G1 X23.8 Y131.081 E27.97642
G1 X23.832 Y130.313 E28.00199
G1 X23.943 Y129.552 E28.02757
G1 X24.18 Y128.66 E28.05826
G1 X33.18 Y101.66 E29.00486
G0 F6000 X33.559 Y101.786
G1 F900 X33.833 Y101.09 E29.02974
G1 X34.18 Y100.428 E29.0546
G1 X34.596 Y99.806 E29.07949
G1 X35.075 Y99.232 E29.10435
G1 X35.614 Y98.712 E29.12926
G1 X36.204 Y98.253 E29.15413
G1 X36.84 Y97.859 E29.17901
G1 X37.515 Y97.536 E29.2039
G1 X38.22 Y97.286 E29.22878
G1 X38.948 Y97.113 E29.25367
G1 X39.69 Y97.019 E29.27854
G1 X40.2 Y97 E29.29552
G1 X203.8 Y97 E34.73687
G1 X204.547 Y97.04 E34.76176
G1 X205.285 Y97.159 E34.78662
G1 X206.007 Y97.357 E34.81152
G1 X206.703 Y97.63 E34.83639
G1 X207.366 Y97.977 E34.86127
G1 X207.989 Y98.392 E34.88617
G1 X208.563 Y98.871 E34.91104
G1 X209.084 Y99.408 E34.93592
G1 X209.543 Y99.998 E34.96079
G1 X209.938 Y100.634 E34.98569
G1 X210.262 Y101.308 E35.01056
G1 X210.512 Y102.013 E35.03544
G1 X210.686 Y102.741 E35.06033
G1 X210.781 Y103.483 E35.08521
G1 X210.796 Y104.231 E35.1101
G1 X210.739 Y104.925 E35.13326
G1 X207.139 Y131.925 E36.03923
G1 X207 Y132.66 E36.06411
G1 X206.784 Y133.377 E36.08901
G1 X206.493 Y134.066 E36.11389
G1 X206.13 Y134.72 E36.13877
G1 X205.699 Y135.331 E36.16364
G1 X205.206 Y135.893 E36.1885
G1 X204.655 Y136.4 E36.21341
G1 X204.053 Y136.844 E36.23829
G1 X203.408 Y137.222 E36.26315
G1 X202.725 Y137.529 E36.28806
G1 X202.014 Y137.761 E36.31293
G1 X201.282 Y137.916 E36.33782
G1 X200.2 Y138 E36.37392
G1 X31.2 Y138 E41.99488
G1 X30.453 Y137.96 E42.01976
G1 X29.715 Y137.841 E42.04462
G1 X28.993 Y137.643 E42.06952
G1 X28.297 Y137.37 E42.09439
G1 X27.634 Y137.023 E42.11928
G1 X27.011 Y136.608 E42.14418
G1 X26.437 Y136.129 E42.16904
G1 X25.916 Y135.592 E42.19393
G1 X25.457 Y135.002 E42.21879
G1 X25.062 Y134.366 E42.24369
G1 X24.738 Y133.692 E42.26856
G1 X24.488 Y132.987 E42.29344
G1 X24.314 Y132.259 E42.31834
G1 X24.219 Y131.517 E42.34322
G1 X24.204 Y130.769 E42.3681
G1 X24.268 Y130.024 E42.39297
G1 X24.412 Y129.29 E42.41785
G1 X24.559 Y128.786 E42.43531
G1 X33.559 Y101.786 E43.38191
G0 F6000 X33.939 Y101.913
G1 F900 X34.206 Y101.237 E43.40609
G1 X34.546 Y100.596 E43.43022
G1 X34.954 Y99.995 E43.45438
G1 X35.426 Y99.443 E43.47854
G1 X35.956 Y98.946 E43.5027
G1 X36.537 Y98.51 E43.52686
G1 X37.162 Y98.141 E43.551
G1 X37.825 Y97.842 E43.57519
G1 X38.516 Y97.619 E43.59934
G1 X39.227 Y97.472 E43.62349
G1 X40.2 Y97.4 E43.65594
G1 X203.8 Y97.4 E49.0973
G1 X204.525 Y97.44 E49.12145
G1 X205.242 Y97.559 E49.14562
G1 X205.941 Y97.757 E49.16979
G1 X206.614 Y98.03 E49.19394
G1 X207.253 Y98.375 E49.21809
G1 X207.85 Y98.789 E49.24226
G1 X208.398 Y99.265 E49.2664
G1 X208.891 Y99.799 E49.29057
G1 X209.321 Y100.384 E49.31472
G1 X209.685 Y101.013 E49.33889
G1 X209.978 Y101.678 E49.36306
G1 X210.196 Y102.371 E49.38722
G1 X210.336 Y103.083 E49.41136
G1 X210.397 Y103.807 E49.43553
G1 X210.342 Y104.872 E49.47099
G1 X206.742 Y131.872 E50.37697
G1 X206.607 Y132.586 E50.40113
G1 X206.394 Y133.28 E50.42528
G1 X206.105 Y133.947 E50.44946
G1 X205.746 Y134.578 E50.4736
G1 X205.319 Y135.166 E50.49777
G1 X204.83 Y135.703 E50.52193
G1 X204.285 Y136.184 E50.54611
G1 X203.691 Y136.601 E50.57024
G1 X203.054 Y136.951 E50.59442
G1 X202.383 Y137.228 E50.61856
G1 X201.686 Y137.431 E50.64271
G1 X200.97 Y137.555 E50.66688
G1 X200.2 Y137.6 E50.69253
G1 X31.2 Y137.6 E56.31349
G1 X30.475 Y137.56 E56.33764
G1 X29.758 Y137.441 E56.36182
G1 X29.059 Y137.243 E56.38598
G1 X28.386 Y136.97 E56.41014
G1 X27.747 Y136.625 E56.43429
G1 X27.15 Y136.211 E56.45845
G1 X26.602 Y135.735 E56.4826
G1 X26.109 Y135.201 E56.50677
G1 X25.679 Y134.616 E56.53092
G1 X25.315 Y133.987 E56.55509
G1 X25.022 Y133.322 E56.57926
G1 X24.804 Y132.629 E56.60342
G1 X24.664 Y131.917 E56.62756
G1 X24.603 Y131.193 E56.65172
G1 X24.622 Y130.467 E56.67588
G1 X24.72 Y129.747 E56.70004
G1 X24.939 Y128.913 E56.72872
G1 X33.939 Y101.913 E57.67532
G0 F6000 X34.318 Y102.039
G1 F900 X34.578 Y101.385 E57.69873
G1 X34.911 Y100.765 E57.72214
G1 X35.312 Y100.186 E57.74556
G1 X35.776 Y99.657 E57.76897
G1 X36.297 Y99.183 E57.79239
G1 X36.868 Y98.772 E57.81579
G1 X37.482 Y98.427 E57.83922
G1 X38.131 Y98.155 E57.86262
G1 X38.807 Y97.958 E57.88604
G1 X39.501 Y97.84 E57.90946
G1 X40.2 Y97.8 E57.93274
G1 X203.8 Y97.8 E63.3741
G1 X204.503 Y97.84 E63.39752
G1 X205.197 Y97.959 E63.42094
G1 X205.872 Y98.157 E63.44434
G1 X206.521 Y98.429 E63.46774
G1 X207.135 Y98.774 E63.49117
G1 X207.706 Y99.185 E63.51457
G1 X208.227 Y99.659 E63.53799
G1 X208.691 Y100.189 E63.56142
G1 X209.091 Y100.768 E63.58483
G1 X209.423 Y101.389 E63.60825
G1 X209.683 Y102.043 E63.63166
G1 X209.867 Y102.723 E63.65509
G1 X209.973 Y103.419 E63.6785
G1 X209.999 Y104.122 E63.7019
G1 X209.946 Y104.819 E63.72515
G1 X206.346 Y131.819 E64.63112
G1 X206.213 Y132.511 E64.65456
G1 X206.003 Y133.183 E64.67798
G1 X205.718 Y133.827 E64.7014
G1 X205.362 Y134.434 E64.7248
G1 X204.94 Y134.997 E64.74821
G1 X204.456 Y135.508 E64.77162
G1 X203.917 Y135.962 E64.79506
G1 X203.331 Y136.351 E64.81845
G1 X202.704 Y136.672 E64.84188
G1 X202.045 Y136.919 E64.86528
G1 X201.362 Y137.09 E64.8887
G1 X200.664 Y137.183 E64.91212
G1 X200.2 Y137.2 E64.92757
G1 X31.2 Y137.2 E70.54853
G1 X30.497 Y137.16 E70.57195
G1 X29.803 Y137.041 E70.59537
G1 X29.128 Y136.843 E70.61876
G1 X28.479 Y136.571 E70.64217
G1 X27.865 Y136.226 E70.66559
G1 X27.294 Y135.815 E70.68899
G1 X26.773 Y135.341 E70.71242
G1 X26.309 Y134.811 E70.73585
G1 X25.909 Y134.232 E70.75926
G1 X25.577 Y133.611 E70.78268
G1 X25.317 Y132.957 E70.80609
G1 X25.133 Y132.277 E70.82952
G1 X25.027 Y131.581 E70.85293
G1 X25.001 Y130.878 E70.87633
G1 X25.055 Y130.176 E70.89975
G1 X25.188 Y129.485 E70.92315
G1 X25.318 Y129.039 E70.9386
G1 X34.318 Y102.039 E71.8852
G0 F6000 X34.698 Y102.166
G1 F900 X34.95 Y101.534 E71.90783
G1 X35.276 Y100.935 E71.93052
G1 X35.669 Y100.38 E71.95313
G1 X36.124 Y99.873 E71.97579
G1 X36.636 Y99.424 E71.99844
G1 X37.197 Y99.038 E72.02109
G1 X37.799 Y98.72 E72.04373
G1 X38.434 Y98.475 E72.06637
G1 X39.094 Y98.306 E72.08903
G1 X39.769 Y98.216 E72.11168
G1 X40.2 Y98.2 E72.12603
G1 X203.8 Y98.2 E77.56738
G1 X204.48 Y98.24 E77.59004
G1 X205.15 Y98.359 E77.61267
G1 X205.802 Y98.556 E77.63533
G1 X206.426 Y98.828 E77.65797
G1 X207.014 Y99.172 E77.68063
G1 X207.558 Y99.582 E77.70328
G1 X208.049 Y100.053 E77.72591
G1 X208.483 Y100.578 E77.74857
G1 X208.852 Y101.15 E77.77121
G1 X209.151 Y101.762 E77.79386
G1 X209.376 Y102.404 E77.81649
G1 X209.525 Y103.069 E77.83916
G1 X209.594 Y103.746 E77.86179
G1 X209.584 Y104.427 E77.88444
G1 X209.549 Y104.767 E77.89581
G1 X205.949 Y131.767 E78.80178
G1 X205.82 Y132.435 E78.82441
G1 X205.613 Y133.084 E78.84707
G1 X205.331 Y133.704 E78.86972
G1 X204.979 Y134.286 E78.89234
G1 X204.561 Y134.824 E78.915
G1 X204.083 Y135.309 E78.93765
G1 X203.551 Y135.734 E78.9603
G1 X202.973 Y136.094 E78.98295
G1 X202.357 Y136.384 E79.00559
G1 X201.711 Y136.6 E79.02825
G1 X201.045 Y136.738 E79.05087
G1 X200.2 Y136.8 E79.07905
G1 X31.2 Y136.8 E84.70001
G1 X30.52 Y136.76 E84.72267
G1 X29.85 Y136.641 E84.7453
G1 X29.198 Y136.444 E84.76796
G1 X28.574 Y136.172 E84.7906
G1 X27.986 Y135.828 E84.81325
G1 X27.442 Y135.418 E84.83591
G1 X26.951 Y134.947 E84.85854
G1 X26.517 Y134.422 E84.8812
G1 X26.148 Y133.85 E84.90384
G1 X25.849 Y133.238 E84.92649
G1 X25.624 Y132.596 E84.94912
G1 X25.475 Y131.931 E84.97178
G1 X25.406 Y131.254 E84.99442
G1 X25.416 Y130.573 E85.01707
G1 X25.506 Y129.898 E85.03972
G1 X25.698 Y129.166 E85.06489
G1 X34.698 Y102.166 E86.01149
G0 F6000 X35.077 Y102.292
G1 F900 X35.322 Y101.683 E86.03332
G1 X35.64 Y101.108 E86.05518
G1 X36.025 Y100.575 E86.07705
G1 X36.472 Y100.094 E86.09889
G1 X36.974 Y99.67 E86.12074
G1 X37.523 Y99.31 E86.14258
G1 X38.113 Y99.02 E86.16444
G1 X38.733 Y98.803 E86.18629
G1 X39.375 Y98.663 E86.20814
G1 X40.2 Y98.6 E86.23566
G1 X203.8 Y98.6 E91.67702
G1 X204.456 Y98.64 E91.69888
G1 X205.102 Y98.759 E91.72073
G1 X205.729 Y98.956 E91.74259
G1 X206.327 Y99.228 E91.76444
G1 X206.888 Y99.57 E91.78629
G1 X207.403 Y99.978 E91.80814
G1 X207.865 Y100.445 E91.82999
G1 X208.266 Y100.965 E91.85183
G1 X208.602 Y101.529 E91.87367
G1 X208.866 Y102.131 E91.89553
G1 X209.056 Y102.76 E91.91739
G1 X209.167 Y103.407 E91.93922
G1 X209.2 Y104.063 E91.96107
G1 X209.153 Y104.714 E91.98278
G1 X205.553 Y131.714 E92.88875
G1 X205.426 Y132.358 E92.91058
G1 X205.223 Y132.983 E92.93243
G1 X204.945 Y133.578 E92.95428
G1 X204.597 Y134.135 E92.97612
G1 X204.183 Y134.646 E92.998
G1 X203.711 Y135.103 E93.01985
G1 X203.187 Y135.499 E93.04169
G1 X202.618 Y135.828 E93.06355
G1 X202.014 Y136.086 E93.0854
G1 X201.383 Y136.269 E93.10725
G1 X200.735 Y136.373 E93.12908
G1 X200.2 Y136.4 E93.1469
G1 X31.2 Y136.4 E98.76786
G1 X30.544 Y136.36 E98.78972
G1 X29.898 Y136.241 E98.81157
G1 X29.271 Y136.044 E98.83343
G1 X28.673 Y135.772 E98.85528
G1 X28.112 Y135.43 E98.87713
G1 X27.597 Y135.022 E98.89898
G1 X27.135 Y134.555 E98.92083
G1 X26.734 Y134.035 E98.94267
G1 X26.398 Y133.471 E98.96451
G1 X26.134 Y132.869 E98.98637
G1 X25.944 Y132.24 E99.00822
G1 X25.833 Y131.593 E99.03006
G1 X25.8 Y130.937 E99.0519
G1 X25.848 Y130.281 E99.07378
G1 X25.975 Y129.637 E99.09561
G1 X26.077 Y129.292 E99.10758
G1 X35.077 Y102.292 E100.05418
G0 F6000 X35.457 Y102.419
G1 F900 X35.694 Y101.833 E100.0752
G1 X36.003 Y101.282 E100.09621
G1 X36.38 Y100.774 E100.11725
G1 X36.818 Y100.318 E100.13828
G1 X37.309 Y99.92 E100.15931
G1 X37.847 Y99.588 E100.18033
G1 X38.422 Y99.327 E100.20134
G1 X39.026 Y99.14 E100.22237
G1 X39.649 Y99.03 E100.24341
G1 X40.2 Y99 E100.26176
G1 X203.8 Y99 E105.70312
G1 X204.431 Y99.04 E105.72415
G1 X205.052 Y99.159 E105.74518
G1 X205.652 Y99.356 E105.76618
G1 X206.224 Y99.627 E105.78723
G1 X206.756 Y99.967 E105.80823
G1 X207.241 Y100.373 E105.82927
G1 X207.671 Y100.836 E105.85029
G1 X208.04 Y101.35 E105.87133
G1 X208.34 Y101.906 E105.89235
G1 X208.568 Y102.495 E105.91335
G1 X208.72 Y103.109 E105.93439
G1 X208.793 Y103.737 E105.95542
G1 X208.756 Y104.661 E105.98618
G1 X205.156 Y131.661 E106.89215
G1 X205.033 Y132.281 E106.91317
G1 X204.833 Y132.88 E106.93417
G1 X204.559 Y133.45 E106.95521
G1 X204.215 Y133.98 E106.97622
G1 X203.807 Y134.463 E106.99725
G1 X203.341 Y134.89 E107.01827
G1 X202.825 Y135.256 E107.03932
G1 X202.267 Y135.553 E107.06034
G1 X201.676 Y135.777 E107.08136
G1 X201.061 Y135.925 E107.1024
G1 X200.2 Y136 E107.13115
G1 X31.2 Y136 E112.75211
G1 X30.569 Y135.96 E112.77314
G1 X29.948 Y135.841 E112.79417
G1 X29.348 Y135.644 E112.81517
G1 X28.776 Y135.373 E112.83622
G1 X28.244 Y135.033 E112.85722
G1 X27.759 Y134.627 E112.87826
G1 X27.329 Y134.164 E112.89928
G1 X26.96 Y133.65 E112.92032
G1 X26.66 Y133.094 E112.94134
G1 X26.432 Y132.505 E112.96234
G1 X26.28 Y131.891 E112.98338
G1 X26.207 Y131.263 E113.00441
G1 X26.214 Y130.631 E113.02543
G1 X26.3 Y130.005 E113.04645
G1 X26.457 Y129.419 E113.06662
G1 X35.457 Y102.419 E114.01322
G0 F6000 X35.836 Y102.545
G1 F900 X36.065 Y101.984 E114.03338
G1 X36.366 Y101.458 E114.05353
G1 X36.734 Y100.976 E114.0737
G1 X37.162 Y100.546 E114.09388
