;FLAVOR:Marlin
;TIME:838
;Filament used: 0.443227m
;Layer height: 0.2
;MINX:94.455
;MINY:106.441
;MINZ:0.2
;MAXX:140.55
;MAXY:128.55
;MAXZ:7
;Generated with Cura_SteamEngine main
M140 S65
M105
M190 S65
M104 S240
M105
M109 S240
M82 ;absolute extrusion mode
; Ender 3 Custom Start G-code
G92 E0 ; Reset Extruder
G28 ; Home all axes
G1 Z2.0 F3000 ; Move Z Axis up little to prevent scratching of Heat Bed
G1 X0.1 Y20 Z0.3 F5000.0 ; Move to start position
G1 X0.1 Y200.0 Z0.3 F1500.0 E15 ; Draw the first line
G1 X0.4 Y200.0 Z0.3 F5000.0 ; Move to side a little
G1 X0.4 Y20 Z0.3 F1500.0 E30 ; Draw the second line
G92 E0 ; Reset Extruder
G1 Z2.0 F3000 ; Move Z Axis up little to prevent scratching of Heat Bed
G1 X5 Y20 Z0.3 F5000.0 ; Move over to prevent blob squish
G92 E0
G92 E0
G1 F2700 E-5
;LAYER_COUNT:35
;LAYER:0
M107
G0 F6000 X97.985 Y110.476 Z0.2
G0 X94.455 Y118.092
;TYPE:SKIRT
G1 F2700 E0
G1 F900 X94.514 Y117.131 E0.03202
G1 X94.553 Y116.817 E0.04255
G1 X94.748 Y115.804 E0.07686
G1 X94.827 Y115.502 E0.08724
G1 X95.127 Y114.588 E0.11924
G1 X95.243 Y114.297 E0.12966
G1 X95.645 Y113.443 E0.16105
G1 X95.797 Y113.165 E0.17159
G1 X96.35 Y112.295 E0.20587
G1 X96.534 Y112.044 E0.21623
G1 X97.144 Y111.311 E0.24794
G1 X97.415 Y111.023 E0.2611
G1 X97.985 Y110.476 E0.28737
G1 X98.509 Y110.059 E0.30965
G1 X98.824 Y109.83 E0.3226
G1 X99.669 Y109.295 E0.35586
G1 X99.947 Y109.143 E0.3664
G1 X100.822 Y108.733 E0.39854
G1 X101.113 Y108.618 E0.40895
G1 X102.029 Y108.32 E0.44098
G1 X102.331 Y108.242 E0.45136
G1 X103.321 Y108.053 E0.48488
G1 X103.635 Y108.014 E0.49541
G1 X104.594 Y107.955 E0.52736
G1 X126.199 Y107.95 E1.24595
G1 X126.853 Y107.556 E1.27134
G1 X127.65 Y107.187 E1.30055
G1 X128 Y107.048 E1.31308
G1 X128.748 Y106.794 E1.33935
G1 X129.895 Y106.559 E1.37829
G1 X130.351 Y106.501 E1.39358
G1 X131.138 Y106.441 E1.41983
G1 X131.928 Y106.462 E1.44612
G1 X133.029 Y106.625 E1.48314
G1 X133.411 Y106.71 E1.49615
G1 X134.172 Y106.921 E1.52242
G1 X134.834 Y107.174 E1.54599
G1 X135.185 Y107.327 E1.55873
G1 X135.892 Y107.679 E1.585
G1 X136.56 Y108.1 E1.61126
G1 X137.414 Y108.797 E1.64792
G1 X137.754 Y109.117 E1.66345
G1 X138.301 Y109.687 E1.68973
G1 X138.877 Y110.438 E1.7212
G1 X139.034 Y110.671 E1.73055
G1 X139.441 Y111.348 E1.75682
G1 X139.814 Y112.151 E1.78627
G1 X139.953 Y112.501 E1.7988
G1 X140.207 Y113.249 E1.82507
G1 X140.384 Y114.018 E1.85132
G1 X140.444 Y114.415 E1.86467
G1 X140.49 Y114.784 E1.87704
G1 X140.55 Y115.749 E1.9092
G1 X140.55 Y120.75 E2.07553
G1 X140.51 Y121.539 E2.10181
G1 X140.391 Y122.319 E2.12805
G1 X140.193 Y123.084 E2.15433
G1 X139.919 Y123.824 E2.18058
G1 X139.571 Y124.533 E2.20685
G1 X139.153 Y125.204 E2.23314
G1 X138.67 Y125.828 E2.25939
G1 X138.127 Y126.401 E2.28564
G1 X137.528 Y126.916 E2.31192
G1 X136.88 Y127.367 E2.33817
G1 X136.189 Y127.751 E2.36447
G1 X135.464 Y128.063 E2.39072
G1 X134.711 Y128.3 E2.41698
G1 X133.937 Y128.459 E2.44326
G1 X133.152 Y128.54 E2.4695
G1 X132.749 Y128.55 E2.48291
G1 X104.593 Y128.545 E3.41938
G1 X103.633 Y128.486 E3.45137
G1 X103.319 Y128.447 E3.4619
G1 X102.329 Y128.258 E3.49542
G1 X102.027 Y128.18 E3.50579
G1 X101.09 Y127.874 E3.53858
G1 X100.799 Y127.758 E3.549
G1 X99.945 Y127.356 E3.58039
G1 X99.667 Y127.204 E3.59093
G1 X98.809 Y126.659 E3.62474
G1 X98.557 Y126.475 E3.63512
G1 X97.8 Y125.846 E3.66785
G1 X97.51 Y125.572 E3.68112
G1 X96.964 Y125.001 E3.7074
G1 X96.567 Y124.501 E3.72863
G1 X96.34 Y124.19 E3.74144
G1 X95.796 Y123.333 E3.7752
G1 X95.644 Y123.055 E3.78574
G1 X95.242 Y122.201 E3.81713
G1 X95.126 Y121.91 E3.82755
G1 X94.82 Y120.973 E3.86034
G1 X94.742 Y120.671 E3.87071
G1 X94.554 Y119.687 E3.90403
G1 X94.515 Y119.375 E3.91449
G1 X94.455 Y118.408 E3.94671
G1 X94.455 Y118.092 E3.95722
G0 F6000 X94.855 Y118.092
G1 F900 X94.911 Y117.18 E3.98761
G1 X94.95 Y116.866 E3.99814
G1 X95.135 Y115.905 E4.03069
G1 X95.214 Y115.603 E4.04107
G1 X95.499 Y114.736 E4.07142
G1 X95.615 Y114.445 E4.08184
G1 X95.996 Y113.635 E4.11162
G1 X96.148 Y113.357 E4.12215
G1 X96.673 Y112.532 E4.15468
G1 X96.857 Y112.281 E4.16503
G1 X97.436 Y111.585 E4.19514
G1 X97.707 Y111.297 E4.20829
G1 X98.262 Y110.765 E4.23386
G1 X98.745 Y110.383 E4.25435
G1 X99.06 Y110.154 E4.2673
G1 X99.861 Y109.646 E4.29885
G1 X100.139 Y109.494 E4.30938
G1 X100.969 Y109.105 E4.33987
G1 X101.26 Y108.99 E4.35028
G1 X102.129 Y108.707 E4.38068
G1 X102.431 Y108.629 E4.39105
G1 X103.37 Y108.45 E4.42284
G1 X103.684 Y108.411 E4.43337
G1 X104.594 Y108.355 E4.46369
G1 X126.318 Y108.35 E5.18624
G1 X127.06 Y107.9 E5.2151
G1 X127.798 Y107.559 E5.24214
G1 X128.148 Y107.42 E5.25466
G1 X128.876 Y107.173 E5.28023
G1 X129.945 Y106.956 E5.31651
G1 X130.401 Y106.898 E5.3318
G1 X131.168 Y106.841 E5.35738
G1 X131.937 Y106.864 E5.38297
G1 X132.942 Y107.016 E5.41678
G1 X133.324 Y107.101 E5.42979
G1 X134.065 Y107.307 E5.45537
G1 X134.674 Y107.54 E5.47706
G1 X135.025 Y107.693 E5.4898
G1 X135.713 Y108.037 E5.51538
G1 X136.362 Y108.45 E5.54097
G1 X137.14 Y109.088 E5.57443
G1 X137.48 Y109.408 E5.58996
G1 X138.012 Y109.964 E5.61555
G1 X138.545 Y110.662 E5.64476
G1 X138.702 Y110.895 E5.65411
G1 X139.098 Y111.554 E5.67968
G1 X139.442 Y112.299 E5.70697
G1 X139.581 Y112.649 E5.7195
G1 X139.828 Y113.377 E5.74507
G1 X140.047 Y114.465 E5.78198
G1 X140.093 Y114.834 E5.79435
G1 X140.15 Y115.749 E5.82484
G1 X140.15 Y120.75 E5.99117
G1 X140.11 Y121.518 E6.01675
G1 X139.991 Y122.278 E6.04234
G1 X139.793 Y123.021 E6.06791
G1 X139.519 Y123.74 E6.09351
G1 X139.172 Y124.426 E6.11907
G1 X138.756 Y125.073 E6.14466
G1 X138.275 Y125.673 E6.17024
G1 X137.734 Y126.22 E6.19582
G1 X137.139 Y126.708 E6.22142
G1 X136.497 Y127.131 E6.24699
G1 X135.814 Y127.486 E6.27259
G1 X135.099 Y127.767 E6.29814
G1 X134.357 Y127.973 E6.32376
G1 X133.599 Y128.101 E6.34932
G1 X132.749 Y128.15 E6.37764
G1 X104.593 Y128.145 E7.31411
G1 X103.682 Y128.089 E7.34447
G1 X103.368 Y128.05 E7.35499
G1 X102.429 Y127.871 E7.38679
G1 X102.127 Y127.793 E7.39716
G1 X101.238 Y127.502 E7.42827
G1 X100.947 Y127.386 E7.43869
G1 X100.137 Y127.005 E7.46847
G1 X99.859 Y126.853 E7.479
G1 X99.045 Y126.336 E7.51108
G1 X98.793 Y126.152 E7.52146
G1 X98.075 Y125.555 E7.55251
G1 X97.785 Y125.281 E7.56578
G1 X97.254 Y124.724 E7.59138
G1 X96.89 Y124.265 E7.61086
G1 X96.663 Y123.954 E7.62367
G1 X96.147 Y123.141 E7.6557
G1 X95.995 Y122.863 E7.66623
G1 X95.614 Y122.053 E7.69601
G1 X95.498 Y121.762 E7.70643
G1 X95.207 Y120.873 E7.73754
G1 X95.129 Y120.571 E7.74791
G1 X94.951 Y119.638 E7.7795
G1 X94.912 Y119.326 E7.78996
G1 X94.855 Y118.408 E7.82055
G1 X94.855 Y118.092 E7.83106
G0 F6000 X95.255 Y118.092
G1 F900 X95.308 Y117.229 E7.85982
G1 X95.347 Y116.915 E7.87034
G1 X95.522 Y116.006 E7.90113
G1 X95.601 Y115.704 E7.91152
G1 X95.871 Y114.884 E7.94023
G1 X95.987 Y114.593 E7.95065
G1 X96.347 Y113.827 E7.9788
G1 X96.499 Y113.549 E7.98934
G1 X96.995 Y112.768 E8.02011
G1 X97.179 Y112.517 E8.03046
G1 X97.727 Y111.859 E8.05894
G1 X97.998 Y111.571 E8.07209
G1 X98.539 Y111.054 E8.09698
G1 X98.98 Y110.706 E8.11567
G1 X99.295 Y110.477 E8.12862
G1 X100.053 Y109.997 E8.15846
G1 X100.331 Y109.845 E8.169
G1 X101.116 Y109.477 E8.19784
G1 X101.407 Y109.362 E8.20824
G1 X102.229 Y109.094 E8.237
G1 X102.531 Y109.016 E8.24737
G1 X103.419 Y108.847 E8.27744
G1 X103.733 Y108.808 E8.28796
G1 X104.594 Y108.755 E8.31665
G1 X126.417 Y108.75 E9.04249
G1 X127.265 Y108.243 E9.07535
G1 X127.945 Y107.93 E9.10025
G1 X128.295 Y107.791 E9.11277
G1 X129.004 Y107.553 E9.13765
G1 X129.996 Y107.353 E9.17131
G1 X130.452 Y107.295 E9.18659
G1 X131.198 Y107.24 E9.21147
G1 X131.945 Y107.266 E9.23633
G1 X132.855 Y107.406 E9.26696
G1 X133.237 Y107.491 E9.27997
G1 X133.958 Y107.692 E9.30487
G1 X134.514 Y107.907 E9.3247
G1 X134.865 Y108.06 E9.33743
G1 X135.534 Y108.395 E9.36232
G1 X136.163 Y108.8 E9.3872
G1 X136.866 Y109.38 E9.41751
G1 X137.206 Y109.7 E9.43304
G1 X137.722 Y110.241 E9.45791
G1 X138.213 Y110.885 E9.48484
G1 X138.37 Y111.118 E9.49419
G1 X138.754 Y111.76 E9.51907
G1 X139.071 Y112.446 E9.5442
G1 X139.21 Y112.796 E9.55673
G1 X139.448 Y113.505 E9.5816
G1 X139.65 Y114.514 E9.61583
G1 X139.696 Y114.883 E9.62819
G1 X139.75 Y115.749 E9.65705
G1 X139.75 Y120.75 E9.82339
G1 X139.71 Y121.497 E9.84827
G1 X139.591 Y122.235 E9.87313
G1 X139.393 Y122.957 E9.89803
G1 X139.12 Y123.653 E9.9229
G1 X138.773 Y124.316 E9.94779
G1 X138.358 Y124.939 E9.97269
G1 X137.879 Y125.513 E9.99755
G1 X137.342 Y126.034 E10.02244
G1 X136.752 Y126.493 E10.0473
G1 X136.116 Y126.888 E10.0722
G1 X135.442 Y127.212 E10.09707
G1 X134.737 Y127.462 E10.12195
G1 X134.009 Y127.636 E10.14685
G1 X133.267 Y127.731 E10.17173
G1 X132.749 Y127.75 E10.18897
G1 X104.593 Y127.745 E11.12544
G1 X103.731 Y127.692 E11.15416
G1 X103.417 Y127.653 E11.16469
G1 X102.529 Y127.484 E11.19475
G1 X102.227 Y127.406 E11.20513
G1 X101.386 Y127.13 E11.23457
G1 X101.095 Y127.014 E11.24499
G1 X100.329 Y126.654 E11.27314
G1 X100.051 Y126.502 E11.28368
G1 X99.281 Y126.013 E11.31401
G1 X99.029 Y125.829 E11.32439
G1 X98.35 Y125.264 E11.35377
G1 X98.06 Y124.99 E11.36704
G1 X97.544 Y124.448 E11.39193
G1 X97.213 Y124.029 E11.40969
G1 X96.986 Y123.718 E11.4225
G1 X96.498 Y122.949 E11.45279
G1 X96.346 Y122.671 E11.46333
G1 X95.986 Y121.905 E11.49148
G1 X95.87 Y121.614 E11.5019
G1 X95.594 Y120.773 E11.53134
G1 X95.516 Y120.471 E11.54171
G1 X95.348 Y119.588 E11.57161
G1 X95.309 Y119.276 E11.58207
G1 X95.255 Y118.408 E11.61099
G1 X95.255 Y118.092 E11.6215
G0 F6000 X95.655 Y118.092
G1 F900 X95.705 Y117.279 E11.64859
G1 X95.744 Y116.965 E11.65912
G1 X95.909 Y116.108 E11.68814
G1 X95.988 Y115.806 E11.69853
G1 X96.242 Y115.032 E11.72562
G1 X96.358 Y114.741 E11.73604
G1 X96.698 Y114.019 E11.76258
G1 X96.85 Y113.741 E11.77312
G1 X97.318 Y113.005 E11.80213
G1 X97.502 Y112.754 E11.81248
G1 X98.018 Y112.133 E11.83934
G1 X98.289 Y111.845 E11.85249
G1 X98.816 Y111.344 E11.87667
G1 X99.215 Y111.03 E11.89356
G1 X99.53 Y110.801 E11.90651
G1 X100.245 Y110.348 E11.93467
G1 X100.523 Y110.196 E11.9452
G1 X101.263 Y109.849 E11.97239
G1 X101.554 Y109.734 E11.9828
G1 X102.33 Y109.482 E12.00993
G1 X102.632 Y109.404 E12.02031
G1 X103.469 Y109.244 E12.04865
G1 X103.783 Y109.205 E12.05917
G1 X104.594 Y109.155 E12.0862
G1 X126.568 Y109.15 E12.81706
G1 X126.846 Y108.959 E12.82827
G1 X127.47 Y108.588 E12.85242
G1 X128.093 Y108.302 E12.87522
G1 X128.443 Y108.163 E12.88775
G1 X129.132 Y107.932 E12.91192
G1 X130.046 Y107.75 E12.94291
G1 X130.502 Y107.692 E12.9582
G1 X131.227 Y107.64 E12.98238
G1 X131.953 Y107.668 E13.00654
G1 X132.769 Y107.797 E13.03402
G1 X133.151 Y107.882 E13.04704
G1 X133.85 Y108.078 E13.07118
G1 X134.354 Y108.274 E13.08917
G1 X134.705 Y108.427 E13.1019
G1 X135.354 Y108.753 E13.12606
G1 X135.963 Y109.149 E13.15022
G1 X136.591 Y109.671 E13.17738
G1 X136.931 Y109.991 E13.19291
G1 X137.432 Y110.517 E13.21707
G1 X137.881 Y111.109 E13.24178
G1 X138.038 Y111.342 E13.25113
G1 X138.411 Y111.966 E13.27531
G1 X138.699 Y112.594 E13.29829
G1 X138.838 Y112.944 E13.31081
G1 X139.069 Y113.633 E13.33498
G1 X139.253 Y114.564 E13.36655
G1 X139.299 Y114.933 E13.37891
G1 X139.35 Y115.749 E13.40611
G1 X139.35 Y120.75 E13.57244
G1 X139.31 Y121.475 E13.59659
G1 X139.191 Y122.192 E13.62076
G1 X138.993 Y122.891 E13.64493
G1 X138.72 Y123.564 E13.66908
G1 X138.375 Y124.203 E13.69324
G1 X137.961 Y124.8 E13.7174
G1 X137.485 Y125.348 E13.74154
G1 X136.951 Y125.841 E13.76572
G1 X136.366 Y126.271 E13.78986
G1 X135.737 Y126.635 E13.81403
G1 X135.072 Y126.928 E13.8382
G1 X134.379 Y127.146 E13.86237
G1 X133.667 Y127.286 E13.8865
G1 X132.749 Y127.35 E13.91711
G1 X104.593 Y127.345 E14.85358
G1 X103.781 Y127.295 E14.88064
G1 X103.467 Y127.256 E14.89116
G1 X102.63 Y127.096 E14.91951
G1 X102.328 Y127.018 E14.92988
G1 X101.534 Y126.759 E14.95766
G1 X101.243 Y126.643 E14.96808
G1 X100.521 Y126.303 E14.99462
G1 X100.243 Y126.151 E15.00516
G1 X99.517 Y125.69 E15.03376
G1 X99.265 Y125.506 E15.04414
G1 X98.624 Y124.973 E15.07187
G1 X98.334 Y124.699 E15.08514
G1 X97.835 Y124.172 E15.10928
G1 X97.536 Y123.793 E15.12533
G1 X97.309 Y123.482 E15.13814
G1 X96.849 Y122.757 E15.1667
G1 X96.697 Y122.479 E15.17723
G1 X96.357 Y121.757 E15.20378
G1 X96.241 Y121.466 E15.2142
G1 X95.982 Y120.672 E15.24198
G1 X95.904 Y120.37 E15.25235
G1 X95.745 Y119.539 E15.28049
G1 X95.706 Y119.227 E15.29095
G1 X95.655 Y118.408 E15.31824
G1 X95.655 Y118.092 E15.32875
G0 F6000 X96.055 Y118.092
G1 F900 X96.102 Y117.328 E15.35421
G1 X96.141 Y117.014 E15.36473
G1 X96.296 Y116.209 E15.392
G1 X96.375 Y115.907 E15.40238
G1 X96.614 Y115.18 E15.42784
G1 X96.73 Y114.889 E15.43826
G1 X97.049 Y114.211 E15.46318
G1 X97.201 Y113.933 E15.47372
G1 X97.641 Y113.241 E15.50099
G1 X97.825 Y112.99 E15.51134
G1 X98.31 Y112.407 E15.53656
G1 X98.581 Y112.119 E15.54972
G1 X99.091 Y111.635 E15.5731
G1 X99.45 Y111.353 E15.58829
G1 X99.765 Y111.124 E15.60124
G1 X100.437 Y110.699 E15.62768
G1 X100.715 Y110.547 E15.63822
G1 X101.41 Y110.221 E15.66376
G1 X101.701 Y110.106 E15.67416
G1 X102.43 Y109.869 E15.69966
G1 X102.732 Y109.791 E15.71003
G1 X103.518 Y109.641 E15.73665
G1 X103.832 Y109.602 E15.74717
G1 X104.595 Y109.555 E15.7726
G1 X126.684 Y109.55 E16.50728
G1 X127.069 Y109.291 E16.52271
G1 X127.675 Y108.932 E16.54614
G1 X128.241 Y108.674 E16.56683
G1 X128.591 Y108.535 E16.57935
G1 X129.259 Y108.313 E16.60277
G1 X130.097 Y108.147 E16.63118
G1 X130.553 Y108.089 E16.64647
G1 X131.255 Y108.04 E16.66987
G1 X131.958 Y108.07 E16.69328
G1 X132.682 Y108.187 E16.71767
G1 X133.064 Y108.272 E16.73069
G1 X133.741 Y108.464 E16.75409
G1 X134.194 Y108.64 E16.77026
G1 X134.545 Y108.793 E16.78299
G1 X135.174 Y109.111 E16.80643
G1 X135.762 Y109.498 E16.82985
G1 X136.317 Y109.962 E16.85391
G1 X136.657 Y110.282 E16.86944
G1 X137.142 Y110.793 E16.89287
G1 X137.55 Y111.332 E16.91535
G1 X137.707 Y111.565 E16.9247
G1 X138.066 Y112.171 E16.94812
G1 X138.327 Y112.742 E16.969
G1 X138.466 Y113.092 E16.98153
G1 X138.688 Y113.76 E17.00494
G1 X138.856 Y114.613 E17.03386
G1 X138.902 Y114.982 E17.04623
G1 X138.95 Y115.749 E17.07179
G1 X138.95 Y120.75 E17.23812
G1 X138.91 Y121.453 E17.26154
G1 X138.791 Y122.147 E17.28496
G1 X138.593 Y122.822 E17.30836
G1 X138.321 Y123.471 E17.33176
G1 X137.976 Y124.085 E17.35519
G1 X137.565 Y124.656 E17.37859
G1 X137.091 Y125.177 E17.40201
G1 X136.561 Y125.641 E17.42544
G1 X135.982 Y126.041 E17.44885
G1 X135.361 Y126.373 E17.47227
G1 X134.707 Y126.633 E17.49568
G1 X134.027 Y126.817 E17.51911
G1 X133.331 Y126.923 E17.54252
G1 X132.749 Y126.95 E17.5619
G1 X104.593 Y126.945 E18.49837
G1 X103.83 Y126.898 E18.5238
G1 X103.516 Y126.859 E18.53432
G1 X102.73 Y126.709 E18.56094
G1 X102.428 Y126.631 E18.57131
G1 X101.682 Y126.387 E18.59742
G1 X101.391 Y126.271 E18.60784
G1 X100.713 Y125.952 E18.63276
G1 X100.435 Y125.8 E18.6433
G1 X99.753 Y125.367 E18.67017
G1 X99.501 Y125.183 E18.68054
G1 X98.899 Y124.683 E18.70657
G1 X98.609 Y124.409 E18.71984
G1 X98.126 Y123.897 E18.74325
G1 X97.859 Y123.557 E18.75763
G1 X97.632 Y123.246 E18.77044
G1 X97.2 Y122.565 E18.79726
G1 X97.048 Y122.287 E18.8078
G1 X96.729 Y121.609 E18.83272
G1 X96.613 Y121.318 E18.84314
G1 X96.369 Y120.572 E18.86925
G1 X96.291 Y120.27 E18.87962
G1 X96.142 Y119.489 E18.90606
G1 X96.103 Y119.177 E18.91652
G1 X96.055 Y118.408 E18.94215
G1 X96.055 Y118.092 E18.95266
G0 F6000 X96.455 Y118.092
G1 F900 X96.499 Y117.377 E18.97649
G1 X96.538 Y117.063 E18.98701
G1 X96.683 Y116.31 E19.01251
G1 X96.762 Y116.008 E19.0229
G1 X96.985 Y115.328 E19.0467
G1 X97.101 Y115.037 E19.05712
G1 X97.4 Y114.403 E19.08043
G1 X97.552 Y114.125 E19.09097
G1 X97.963 Y113.478 E19.11646
G1 X98.147 Y113.227 E19.12682
G1 X98.601 Y112.681 E19.15043
G1 X98.872 Y112.393 E19.16359
G1 X99.367 Y111.926 E19.18622
