;FLAVOR:Marlin
;TIME:11304
;Filament used: 8.07519m
;Layer height: 0.2
;MINX:44.387
;MINY:77.419
;MINZ:0.2
;MAXX:196.764
;MAXY:182.179
;MAXZ:7
;Generated with Cura_SteamEngine main
M140 S60
M105
M190 S60
M104 S245
M105
M109 S245
M82 ;absolute extrusion mode
; Ender 3 Custom Start G-code
G92 E0 ; Reset Extruder
G28 ; Home all axes
G1 Z2.0 F3000 ; Move Z Axis up little to prevent scratching of Heat Bed
G1 X0.1 Y20 Z0.3 F5000.0 ; Move to start position
G1 X0.1 Y200.0 Z0.3 F1500.0 E15 ; Draw the first line
G1 X0.4 Y200.0 Z0.3 F5000.0 ; Move to side a little
G1 X0.4 Y20 Z0.3 F1500.0 E30 ; Draw the second line
G92 E0 ; Reset Extruder
G1 Z2.0 F3000 ; Move Z Axis up little to prevent scratching of Heat Bed
G1 X5 Y20 Z0.3 F5000.0 ; Move over to prevent blob squish
G92 E0
G92 E0
G1 F2700 E-5
;LAYER_COUNT:35
;LAYER:0
M107
G0 F6000 X70.128 Y79.29 Z0.2
G0 X67.405 Y85.594
;TYPE:SKIRT
G1 F2700 E0
G1 F900 X67.407 Y84.804 E0.02628
G1 X67.489 Y84.018 E0.05256
G1 X67.65 Y83.245 E0.07882
G1 X67.888 Y82.492 E0.10509
G1 X68.201 Y81.768 E0.13132
G1 X68.586 Y81.078 E0.1576
G1 X69.039 Y80.431 E0.18387
G1 X69.554 Y79.833 E0.21012
G1 X70.128 Y79.29 E0.2364
G1 X70.753 Y78.808 E0.26265
G1 X71.424 Y78.392 E0.28891
G1 X72.134 Y78.045 E0.31519
G1 X72.875 Y77.772 E0.34146
G1 X73.64 Y77.576 E0.36773
G1 X74.421 Y77.458 E0.394
G1 X75.196 Y77.419 E0.41981
G1 X117.195 Y77.419 E1.8167
G1 X117.984 Y77.459 E1.84297
G1 X118.764 Y77.578 E1.86922
G1 X119.529 Y77.776 E1.8955
G1 X120.269 Y78.05 E1.92175
G1 X120.978 Y78.398 E1.94801
G1 X121.169 Y78.517 E1.9555
G1 X121.419 Y78.378 E1.96501
G1 X122.144 Y78.066 E1.99126
G1 X122.897 Y77.829 E2.01752
G1 X123.671 Y77.67 E2.0438
G1 X124.456 Y77.589 E2.07005
G1 X124.858 Y77.579 E2.08342
G1 X169.858 Y77.579 E3.58013
G1 X170.647 Y77.619 E3.60641
G1 X171.427 Y77.738 E3.63265
G1 X172.192 Y77.936 E3.65893
G1 X172.932 Y78.21 E3.68518
G1 X173.641 Y78.558 E3.71145
G1 X174.312 Y78.976 E3.73774
G1 X174.936 Y79.459 E3.76399
G1 X175.509 Y80.002 E3.79024
G1 X176.024 Y80.601 E3.81652
G1 X176.475 Y81.249 E3.84277
G1 X176.859 Y81.94 E3.86907
G1 X177.171 Y82.665 E3.89532
G1 X177.408 Y83.418 E3.92157
G1 X177.567 Y84.192 E3.94786
G1 X177.648 Y84.977 E3.9741
G1 X177.658 Y85.379 E3.98748
G1 X177.658 Y94.079 E4.27684
G1 X177.618 Y94.868 E4.30312
G1 X177.499 Y95.648 E4.32936
G1 X177.301 Y96.413 E4.35564
G1 X177.027 Y97.153 E4.38189
G1 X176.679 Y97.862 E4.40816
G1 X176.261 Y98.533 E4.43445
G1 X175.778 Y99.157 E4.4607
G1 X175.235 Y99.73 E4.48695
G1 X174.636 Y100.245 E4.51323
G1 X173.852 Y100.779 E4.54478
G1 X173.206 Y101.164 E4.56979
G1 X172.892 Y101.394 E4.58273
G1 X172.614 Y101.64 E4.59508
G1 X172.352 Y101.92 E4.60784
G1 X172.112 Y102.23 E4.62087
G1 X171.909 Y102.55 E4.63348
G1 X171.732 Y102.898 E4.64646
G1 X171.589 Y103.258 E4.65935
G1 X171.486 Y103.615 E4.67171
G1 X171.412 Y103.998 E4.68468
G1 X171.375 Y104.382 E4.69751
G1 X171.375 Y104.769 E4.71038
G1 X171.409 Y105.144 E4.72291
G1 X171.478 Y105.512 E4.73536
G1 X171.587 Y105.892 E4.74851
G1 X171.728 Y106.252 E4.76137
G1 X171.898 Y106.589 E4.77392
G1 X172.104 Y106.918 E4.78683
G1 X172.336 Y107.22 E4.7995
G1 X172.781 Y107.7 E4.82127
G1 X174.879 Y109.863 E4.92149
G1 X176.754 Y111.943 E5.01463
G1 X178.74 Y114.312 E5.11745
G1 X178.928 Y114.545 E5.12741
G1 X180.64 Y116.761 E5.22055
G1 X182.443 Y119.279 E5.32355
G1 X184.148 Y121.863 E5.42652
G1 X184.307 Y122.115 E5.43643
G1 X185.903 Y124.767 E5.53938
G1 X187.259 Y127.216 E5.63248
G1 X187.398 Y127.479 E5.64238
G1 X188.66 Y129.979 E5.73552
G1 X188.79 Y130.249 E5.74549
G1 X190.073 Y133.066 E5.84844
G1 X191.249 Y135.931 E5.95145
G1 X192.217 Y138.557 E6.04453
G1 X193.182 Y141.501 E6.14758
G1 X194.034 Y144.477 E6.25054
G1 X194.11 Y144.764 E6.26041
G1 X194.838 Y147.773 E6.36338
G1 X195.397 Y150.516 E6.45649
G1 X195.451 Y150.81 E6.46643
G1 X195.948 Y153.868 E6.56947
G1 X196.296 Y156.646 E6.66259
G1 X196.57 Y159.728 E6.7655
G1 X196.726 Y162.822 E6.86854
G1 X196.735 Y163.12 E6.87846
G1 X196.764 Y165.921 E6.97162
G1 X196.684 Y169.015 E7.07457
G1 X196.487 Y172.105 E7.17755
G1 X196.462 Y172.4 E7.18739
G1 X196.173 Y175.184 E7.28049
G1 X196.052 Y175.965 E7.30677
G1 X195.853 Y176.729 E7.33303
G1 X195.577 Y177.469 E7.3593
G1 X195.228 Y178.177 E7.38556
G1 X194.809 Y178.846 E7.41181
G1 X194.324 Y179.47 E7.4381
G1 X193.779 Y180.041 E7.46435
G1 X193.179 Y180.555 E7.49063
G1 X192.53 Y181.005 E7.51689
G1 X191.839 Y181.387 E7.54316
G1 X191.113 Y181.697 E7.56941
G1 X190.359 Y181.933 E7.59569
G1 X189.586 Y182.091 E7.62193
G1 X188.415 Y182.179 E7.66099
G1 X146.414 Y182.179 E9.05795
G1 X145.625 Y182.139 E9.08422
G1 X144.845 Y182.02 E9.11047
G1 X144.08 Y181.822 E9.13675
G1 X143.34 Y181.548 E9.16299
G1 X142.631 Y181.2 E9.18926
G1 X141.96 Y180.782 E9.21556
G1 X141.336 Y180.299 E9.2418
G1 X140.763 Y179.756 E9.26806
G1 X140.248 Y179.157 E9.29433
G1 X139.797 Y178.509 E9.32059
G1 X139.413 Y177.818 E9.34688
G1 X139.101 Y177.093 E9.37314
G1 X138.864 Y176.34 E9.39939
G1 X138.705 Y175.566 E9.42567
G1 X138.624 Y174.781 E9.45192
G1 X138.623 Y174.004 E9.47776
G1 X138.755 Y171.253 E9.56937
G1 X138.778 Y168.6 E9.65761
G1 X138.697 Y166.006 E9.74393
G1 X138.512 Y163.411 E9.83046
G1 X138.224 Y160.815 E9.91733
G1 X137.834 Y158.237 E10.00405
G1 X137.345 Y155.688 E10.09038
G1 X136.757 Y153.162 E10.17664
G1 X136.06 Y150.631 E10.26395
G1 X135.261 Y148.124 E10.35147
G1 X134.38 Y145.692 E10.4375
G1 X133.397 Y143.281 E10.5241
G1 X132.323 Y140.92 E10.61037
G1 X131.158 Y138.602 E10.69666
G1 X129.897 Y136.325 E10.78323
G1 X128.535 Y134.081 E10.87054
G1 X127.103 Y131.916 E10.95687
G1 X125.575 Y129.796 E11.04379
G1 X123.972 Y127.745 E11.13037
G1 X122.29 Y125.764 E11.2168
G1 X120.519 Y123.833 E11.30395
G1 X120.117 Y123.429 E11.32291
G1 X119.922 Y123.944 E11.34122
G1 X118.854 Y126.533 E11.43437
G1 X118.735 Y126.806 E11.44428
G1 X117.442 Y129.618 E11.54722
G1 X116.181 Y132.117 E11.64032
G1 X114.684 Y134.832 E11.74344
G1 X114.535 Y135.09 E11.75334
G1 X113.087 Y137.485 E11.84643
G1 X111.225 Y140.318 E11.95919
G1 X109.599 Y142.598 E12.05233
G1 X109.421 Y142.838 E12.06227
G1 X107.709 Y145.054 E12.1554
G1 X105.727 Y147.434 E12.25842
G1 X105.533 Y147.658 E12.26827
G1 X103.455 Y149.954 E12.37127
G1 X101.562 Y151.899 E12.46154
G1 X101.125 Y152.369 E12.48289
G1 X100.885 Y152.682 E12.49601
G1 X100.679 Y153.009 E12.50886
G1 X100.51 Y153.343 E12.52131
G1 X100.366 Y153.71 E12.53442
G1 X100.262 Y154.075 E12.54705
G1 X100.19 Y154.456 E12.55994
G1 X100.156 Y154.831 E12.57247
G1 X100.156 Y155.216 E12.58527
G1 X100.193 Y155.6 E12.5981
G1 X100.266 Y155.98 E12.61097
G1 X100.373 Y156.347 E12.62369
G1 X100.51 Y156.695 E12.63613
G1 X100.693 Y157.054 E12.64953
G1 X100.889 Y157.362 E12.66167
G1 X101.131 Y157.676 E12.67486
G1 X101.394 Y157.957 E12.68766
G1 X101.677 Y158.208 E12.70024
G1 X101.989 Y158.436 E12.71309
G1 X102.627 Y158.816 E12.73779
G1 X103.285 Y159.253 E12.76406
G1 X103.894 Y159.755 E12.79031
G1 X104.45 Y160.316 E12.81658
G1 X104.947 Y160.93 E12.84286
G1 X105.378 Y161.592 E12.86913
G1 X105.741 Y162.293 E12.89539
G1 X106.03 Y163.028 E12.92165
G1 X106.244 Y163.788 E12.94791
G1 X106.381 Y164.566 E12.97419
G1 X106.439 Y165.519 E13.00595
G1 X106.439 Y174.219 E13.29531
G1 X106.399 Y175.008 E13.32158
G1 X106.28 Y175.788 E13.34783
G1 X106.082 Y176.553 E13.37411
G1 X105.808 Y177.293 E13.40036
G1 X105.46 Y178.002 E13.42662
G1 X105.042 Y178.673 E13.45292
G1 X104.559 Y179.297 E13.47916
G1 X104.016 Y179.87 E13.50542
G1 X103.417 Y180.385 E13.53169
G1 X102.769 Y180.836 E13.55795
G1 X102.078 Y181.22 E13.58425
G1 X101.353 Y181.532 E13.6105
G1 X100.6 Y181.769 E13.63675
G1 X99.826 Y181.928 E13.66303
G1 X99.041 Y182.009 E13.68928
G1 X98.639 Y182.019 E13.70266
G1 X53.639 Y182.019 E15.19936
G1 X52.85 Y181.979 E15.22564
G1 X52.07 Y181.86 E15.25188
G1 X51.305 Y181.662 E15.27816
G1 X50.565 Y181.388 E15.30441
G1 X49.856 Y181.04 E15.33068
G1 X49.185 Y180.622 E15.35697
G1 X48.561 Y180.139 E15.38322
G1 X47.988 Y179.596 E15.40947
G1 X47.473 Y178.997 E15.43575
G1 X47.022 Y178.349 E15.46201
G1 X46.638 Y177.658 E15.4883
G1 X46.326 Y176.933 E15.51455
G1 X46.089 Y176.18 E15.54081
G1 X45.93 Y175.406 E15.56709
G1 X45.849 Y174.621 E15.59334
G1 X45.839 Y174.219 E15.60671
G1 X45.839 Y164.221 E15.93925
G1 X45.879 Y163.432 E15.96552
G1 X46.01 Y162.596 E15.99367
G1 X46.251 Y161.464 E16.03216
G1 X46.379 Y160.564 E16.0624
G1 X46.441 Y159.682 E16.0918
G1 X46.443 Y158.781 E16.12177
G1 X46.382 Y157.898 E16.15121
G1 X46.259 Y157.02 E16.1807
G1 X46.079 Y156.157 E16.21002
G1 X45.825 Y155.269 E16.24074
G1 X45.527 Y154.444 E16.26991
G1 X45.056 Y153.383 E16.30852
G1 X44.773 Y152.646 E16.33478
G1 X44.565 Y151.884 E16.36105
G1 X44.436 Y151.105 E16.38731
G1 X44.387 Y150.317 E16.41357
G1 X44.425 Y149.441 E16.44274
G1 X45.128 Y142.44 E16.67676
G1 X45.247 Y141.659 E16.70304
G1 X45.444 Y140.894 E16.72931
G1 X45.717 Y140.153 E16.75558
G1 X46.063 Y139.444 E16.78182
G1 X46.48 Y138.773 E16.80809
G1 X46.963 Y138.148 E16.83436
G1 X47.356 Y137.721 E16.85367
G1 X49.307 Y135.758 E16.94572
G1 X51.073 Y133.836 E17.03253
G1 X52.753 Y131.853 E17.11897
G1 X54.35 Y129.812 E17.20517
G1 X55.883 Y127.684 E17.2924
G1 X57.323 Y125.508 E17.37919
G1 X58.681 Y123.269 E17.46628
G1 X59.929 Y121.016 E17.55195
G1 X61.117 Y118.652 E17.63994
G1 X62.164 Y116.347 E17.72415
G1 X63.163 Y113.898 E17.81212
G1 X64.052 Y111.45 E17.89874
G1 X64.839 Y108.977 E17.98506
G1 X65.532 Y106.458 E18.07195
G1 X66.12 Y103.936 E18.15808
G1 X66.618 Y101.34 E18.246
G1 X67.006 Y98.768 E18.33251
G1 X67.295 Y96.176 E18.41926
G1 X67.478 Y93.599 E18.50519
G1 X67.559 Y90.997 E18.59177
G1 X67.537 Y88.344 E18.68001
G1 X67.405 Y85.594 E18.77158
G0 F6000 X67.805 Y85.574
G1 F900 X67.808 Y84.805 E18.79716
G1 X67.89 Y84.041 E18.82272
G1 X68.052 Y83.289 E18.8483
G1 X68.291 Y82.557 E18.87391
G1 X68.605 Y81.855 E18.89949
G1 X68.99 Y81.189 E18.92508
G1 X69.441 Y80.567 E18.95063
G1 X69.955 Y79.994 E18.97623
G1 X70.526 Y79.479 E19.00181
G1 X71.147 Y79.025 E19.0274
G1 X71.812 Y78.638 E19.05299
G1 X72.513 Y78.322 E19.07856
G1 X73.244 Y78.081 E19.10416
G1 X73.995 Y77.917 E19.12973
G1 X74.759 Y77.832 E19.1553
G1 X75.196 Y77.819 E19.16984
G1 X117.195 Y77.819 E20.56673
G1 X117.963 Y77.859 E20.59231
G1 X118.723 Y77.978 E20.61789
G1 X119.466 Y78.176 E20.64347
G1 X120.185 Y78.45 E20.66906
G1 X120.871 Y78.797 E20.69463
G1 X121.151 Y78.977 E20.7057
G1 X121.794 Y78.643 E20.7298
G1 X122.509 Y78.362 E20.75535
G1 X123.251 Y78.156 E20.78096
G1 X124.009 Y78.028 E20.80653
G1 X124.858 Y77.979 E20.83482
G1 X169.858 Y77.979 E22.33152
G1 X170.626 Y78.019 E22.3571
G1 X171.386 Y78.138 E22.38269
G1 X172.129 Y78.336 E22.40826
G1 X172.848 Y78.61 E22.43385
G1 X173.534 Y78.957 E22.45942
G1 X174.181 Y79.373 E22.48501
G1 X174.781 Y79.854 E22.51058
G1 X175.328 Y80.395 E22.53617
G1 X175.816 Y80.99 E22.56177
G1 X176.239 Y81.632 E22.58734
G1 X176.594 Y82.315 E22.61294
G1 X176.875 Y83.03 E22.63849
G1 X177.081 Y83.772 E22.6641
G1 X177.209 Y84.53 E22.68967
G1 X177.258 Y85.379 E22.71796
G1 X177.258 Y94.079 E23.00732
G1 X177.218 Y94.847 E23.0329
G1 X177.099 Y95.607 E23.05848
G1 X176.901 Y96.35 E23.08406
G1 X176.627 Y97.069 E23.10965
G1 X176.28 Y97.755 E23.13522
G1 X175.864 Y98.402 E23.1608
G1 X175.383 Y99.002 E23.18638
G1 X174.842 Y99.549 E23.21197
G1 X174.247 Y100.037 E23.23756
G1 X173.647 Y100.436 E23.26153
G1 X172.974 Y100.837 E23.28759
G1 X172.651 Y101.073 E23.30089
G1 X172.333 Y101.355 E23.31503
G1 X172.044 Y101.664 E23.3291
G1 X171.781 Y102.004 E23.3434
G1 X171.562 Y102.35 E23.35701
G1 X171.365 Y102.738 E23.37149
G1 X171.212 Y103.125 E23.38533
G1 X171.095 Y103.524 E23.39916
G1 X171.016 Y103.936 E23.41311
G1 X170.975 Y104.365 E23.42745
G1 X170.975 Y104.783 E23.44135
G1 X171.013 Y105.202 E23.45534
G1 X171.091 Y105.615 E23.46932
G1 X171.208 Y106.022 E23.48341
G1 X171.359 Y106.408 E23.49719
G1 X171.553 Y106.793 E23.51153
G1 X171.771 Y107.141 E23.52519
G1 X172.033 Y107.481 E23.53946
G1 X172.505 Y107.989 E23.56253
G1 X174.581 Y110.131 E23.66174
G1 X176.456 Y112.211 E23.75488
G1 X178.433 Y114.569 E23.85723
G1 X178.611 Y114.79 E23.86667
G1 X180.491 Y117.232 E23.96917
G1 X182.276 Y119.743 E24.07164
G1 X183.814 Y122.082 E24.16474
G1 X183.965 Y122.322 E24.17417
G1 X185.553 Y124.96 E24.27658
G1 X186.909 Y127.409 E24.36969
G1 X188.303 Y130.159 E24.47224
G1 X188.426 Y130.415 E24.48168
G1 X189.703 Y133.218 E24.58413
G1 X190.771 Y135.807 E24.67728
G1 X191.934 Y138.962 E24.78912
G1 X192.884 Y141.893 E24.8916
G1 X193.65 Y144.586 E24.98472
G1 X194.385 Y147.579 E25.08722
G1 X195.005 Y150.596 E25.18967
G1 X195.056 Y150.875 E25.1991
G1 X195.551 Y153.918 E25.30164
G1 X195.899 Y156.696 E25.39476
G1 X196.171 Y159.763 E25.49717
G1 X196.19 Y160.045 E25.50657
G1 X196.335 Y163.124 E25.60909
G1 X196.364 Y165.925 E25.70226
G1 X196.284 Y169.004 E25.8047
G1 X196.088 Y172.079 E25.90718
G1 X195.775 Y175.143 E26.00962
G1 X195.656 Y175.903 E26.03521
G1 X195.459 Y176.646 E26.06077
G1 X195.186 Y177.365 E26.08635
G1 X194.839 Y178.052 E26.11195
G1 X194.423 Y178.699 E26.13754
G1 X193.942 Y179.299 E26.16311
G1 X193.402 Y179.846 E26.18868
G1 X192.807 Y180.334 E26.21427
G1 X192.165 Y180.758 E26.23986
G1 X191.483 Y181.113 E26.26544
G1 X190.767 Y181.395 E26.29103
G1 X190.026 Y181.601 E26.31661
G1 X189.268 Y181.73 E26.34218
G1 X188.415 Y181.779 E26.3706
G1 X146.414 Y181.779 E27.76756
G1 X145.646 Y181.739 E27.79314
G1 X144.886 Y181.62 E27.81872
G1 X144.143 Y181.422 E27.8443
G1 X143.424 Y181.148 E27.86989
G1 X142.738 Y180.801 E27.89546
G1 X142.091 Y180.385 E27.92104
G1 X141.491 Y179.904 E27.94662
G1 X140.944 Y179.363 E27.97221
G1 X140.456 Y178.768 E27.9978
G1 X140.033 Y178.126 E28.02338
G1 X139.678 Y177.443 E28.04898
G1 X139.397 Y176.728 E28.07453
G1 X139.191 Y175.986 E28.10014
G1 X139.063 Y175.228 E28.12571
G1 X139.014 Y174.46 E28.15131
G1 X139.023 Y174.024 E28.16581
G1 X139.155 Y171.277 E28.25728
G1 X139.178 Y168.59 E28.34665
G1 X139.097 Y165.989 E28.43321
G1 X138.911 Y163.387 E28.51997
G1 X138.62 Y160.763 E28.60778
G1 X138.226 Y158.155 E28.69551
G1 X137.733 Y155.587 E28.78248
G1 X137.146 Y153.068 E28.8685
G1 X136.448 Y150.531 E28.95602
G1 X135.637 Y147.985 E29.04489
G1 X134.758 Y145.561 E29.13065
G1 X133.76 Y143.113 E29.21858
G1 X132.692 Y140.764 E29.3044
G1 X131.502 Y138.398 E29.39249
G1 X130.248 Y136.133 E29.4786
G1 X128.874 Y133.869 E29.56668
G1 X127.42 Y131.672 E29.65431
G1 X125.908 Y129.572 E29.74038
G1 X124.285 Y127.496 E29.82802
G1 X122.572 Y125.478 E29.91606
G1 X120.815 Y123.563 E30.0025
G1 X119.959 Y122.702 E30.04288
G1 X119.552 Y123.792 E30.08158
G1 X118.372 Y126.639 E30.18408
G1 X117.085 Y129.438 E30.28655
G1 X115.824 Y131.937 E30.37965
G1 X114.193 Y134.883 E30.49165
G1 X112.745 Y137.278 E30.58473
G1 X110.899 Y140.086 E30.6965
G1 X109.273 Y142.366 E30.78964
G1 X107.392 Y144.809 E30.89219
G1 X105.42 Y147.178 E30.99471
G1 X103.361 Y149.469 E31.09716
G1 X101.285 Y151.609 E31.19633
G1 X100.809 Y152.122 E31.2196
G1 X100.558 Y152.449 E31.23331
G1 X100.331 Y152.811 E31.24753
G1 X100.141 Y153.187 E31.26154
G1 X99.991 Y153.571 E31.27525
G1 X99.871 Y153.988 E31.28968
G1 X99.794 Y154.397 E31.30352
G1 X99.756 Y154.817 E31.31755
G1 X99.756 Y155.244 E31.33175
G1 X99.796 Y155.653 E31.34542
G1 X99.876 Y156.07 E31.35954
G1 X99.994 Y156.476 E31.37361
G1 X100.148 Y156.866 E31.38755
G1 X100.341 Y157.246 E31.40173
G1 X100.56 Y157.591 E31.41532
G1 X100.826 Y157.934 E31.42975
G1 X101.114 Y158.243 E31.4438
G1 X101.43 Y158.523 E31.45785
G1 X101.768 Y158.77 E31.47177
G1 X102.423 Y159.16 E31.49713
G1 X103.062 Y159.587 E31.52269
G1 X103.654 Y160.078 E31.54827
G1 X104.192 Y160.628 E31.57386
G1 X104.67 Y161.231 E31.59945
G1 X105.082 Y161.88 E31.62502
G1 X105.425 Y162.568 E31.65059
