;FLAVOR:Marlin
;TIME:357
;Filament used: 0.128868m
;Layer height: 0.2
;MINX:103.456
;MINY:103.456
;MINZ:0.2
;MAXX:131.544
;MAXY:131.544
;MAXZ:8
;Generated with Cura_SteamEngine main
M140 S65
M105
M190 S65
M104 S240
M105
M109 S240
M82 ;absolute extrusion mode
; Ender 3 Custom Start G-code
G92 E0 ; Reset Extruder
G28 ; Home all axes
G1 Z2.0 F3000 ; Move Z Axis up little to prevent scratching of Heat Bed
G1 X0.1 Y20 Z0.3 F5000.0 ; Move to start position
G1 X0.1 Y200.0 Z0.3 F1500.0 E15 ; Draw the first line
G1 X0.4 Y200.0 Z0.3 F5000.0 ; Move to side a little
G1 X0.4 Y20 Z0.3 F1500.0 E30 ; Draw the second line
G92 E0 ; Reset Extruder
G1 Z2.0 F3000 ; Move Z Axis up little to prevent scratching of Heat Bed
G1 X5 Y20 Z0.3 F5000.0 ; Move over to prevent blob squish
G92 E0
G92 E0
G1 F2700 E-5
;LAYER_COUNT:40
;LAYER:0
M107
G0 F6000 X107.363 Y107.777 Z0.2
G0 X103.456 Y117.199
;TYPE:SKIRT
G1 F2700 E0
G1 F900 X103.475 Y116.708 E0.01634
G1 X103.524 Y116.088 E0.03703
G1 X103.582 Y115.601 E0.05334
G1 X103.677 Y115.002 E0.07351
G1 X103.773 Y114.519 E0.08989
G1 X103.918 Y113.916 E0.11052
G1 X104.051 Y113.446 E0.12677
G1 X104.239 Y112.868 E0.14698
G1 X104.41 Y112.405 E0.1634
G1 X104.636 Y111.858 E0.18308
G1 X104.839 Y111.415 E0.19929
G1 X105.13 Y110.844 E0.22061
G1 X105.371 Y110.415 E0.23697
G1 X105.683 Y109.905 E0.25686
G1 X105.956 Y109.496 E0.27321
G1 X106.321 Y108.994 E0.29386
G1 X106.624 Y108.61 E0.31012
G1 X107.029 Y108.137 E0.33084
G1 X107.363 Y107.777 E0.34717
G1 X107.775 Y107.365 E0.36655
G1 X108.136 Y107.03 E0.38293
G1 X108.612 Y106.622 E0.40378
G1 X108.995 Y106.32 E0.42
G1 X109.491 Y105.96 E0.44039
G1 X109.901 Y105.686 E0.45679
G1 X110.413 Y105.371 E0.47678
G1 X110.84 Y105.131 E0.49307
G1 X111.412 Y104.841 E0.5144
G1 X111.857 Y104.637 E0.53069
G1 X112.391 Y104.415 E0.54992
G1 X112.854 Y104.243 E0.56635
G1 X113.476 Y104.041 E0.5881
G1 X113.946 Y103.91 E0.60433
G1 X114.504 Y103.777 E0.62341
G1 X114.987 Y103.68 E0.63979
G1 X115.601 Y103.582 E0.66047
G1 X116.088 Y103.524 E0.67678
G1 X116.708 Y103.475 E0.69747
G1 X117.198 Y103.456 E0.71378
G1 X117.802 Y103.456 E0.73387
G1 X118.292 Y103.475 E0.75018
G1 X118.912 Y103.524 E0.77086
G1 X119.399 Y103.582 E0.78718
G1 X119.998 Y103.677 E0.80735
G1 X120.481 Y103.773 E0.82373
G1 X121.084 Y103.918 E0.84435
G1 X121.554 Y104.051 E0.8606
G1 X122.132 Y104.239 E0.88082
G1 X122.595 Y104.41 E0.89723
G1 X123.142 Y104.636 E0.91692
G1 X123.585 Y104.839 E0.93312
G1 X124.156 Y105.13 E0.95444
G1 X124.585 Y105.371 E0.97081
G1 X125.095 Y105.683 E0.99069
G1 X125.504 Y105.956 E1.00705
G1 X126.006 Y106.321 E1.02769
G1 X126.39 Y106.624 E1.04396
G1 X126.863 Y107.029 E1.06467
G1 X127.223 Y107.363 E1.081
G1 X127.635 Y107.775 E1.10038
G1 X127.97 Y108.136 E1.11676
G1 X128.378 Y108.612 E1.13762
G1 X128.68 Y108.995 E1.15384
G1 X129.04 Y109.491 E1.17422
G1 X129.314 Y109.901 E1.19062
G1 X129.629 Y110.413 E1.21062
G1 X129.869 Y110.84 E1.22691
G1 X130.159 Y111.412 E1.24824
G1 X130.363 Y111.857 E1.26452
G1 X130.585 Y112.391 E1.28376
G1 X130.757 Y112.854 E1.30018
G1 X130.959 Y113.476 E1.32193
G1 X131.09 Y113.946 E1.33816
G1 X131.222 Y114.498 E1.35704
G1 X131.319 Y114.979 E1.37336
G1 X131.418 Y115.6 E1.39428
G1 X131.476 Y116.088 E1.41062
G1 X131.525 Y116.71 E1.43137
G1 X131.544 Y117.206 E1.44788
G1 X131.544 Y117.807 E1.46787
G1 X131.525 Y118.298 E1.48421
G1 X131.474 Y118.934 E1.50544
G1 X131.415 Y119.421 E1.52175
G1 X131.322 Y120.004 E1.54139
G1 X131.226 Y120.487 E1.55777
G1 X131.077 Y121.105 E1.57891
G1 X130.943 Y121.575 E1.59517
G1 X130.757 Y122.144 E1.61508
G1 X130.586 Y122.606 E1.63146
G1 X130.356 Y123.161 E1.65144
G1 X130.152 Y123.604 E1.66766
G1 X129.867 Y124.161 E1.68847
G1 X129.626 Y124.59 E1.70484
G1 X129.306 Y125.111 E1.72518
G1 X129.032 Y125.52 E1.74155
G1 X128.669 Y126.018 E1.76205
G1 X128.366 Y126.401 E1.77829
G1 X127.967 Y126.867 E1.79869
G1 X127.633 Y127.227 E1.81503
G1 X127.213 Y127.647 E1.83478
G1 X126.851 Y127.982 E1.85119
G1 X126.373 Y128.39 E1.87209
G1 X125.99 Y128.691 E1.88829
G1 X125.504 Y129.043 E1.90825
G1 X125.094 Y129.317 E1.92465
G1 X124.57 Y129.638 E1.94509
G1 X124.143 Y129.877 E1.96137
G1 X123.577 Y130.164 E1.98247
G1 X123.131 Y130.368 E1.99879
G1 X122.606 Y130.586 E2.01769
G1 X122.149 Y130.756 E2.03391
G1 X121.514 Y130.961 E2.0561
G1 X121.038 Y131.093 E2.07253
G1 X120.493 Y131.224 E2.09118
G1 X120.016 Y131.32 E2.10736
G1 X119.388 Y131.42 E2.12851
G1 X118.895 Y131.478 E2.14502
G1 X118.286 Y131.525 E2.16534
G1 X117.796 Y131.544 E2.18165
G1 X117.192 Y131.544 E2.20173
G1 X116.702 Y131.525 E2.21804
G1 X116.066 Y131.474 E2.23927
G1 X115.579 Y131.415 E2.25558
G1 X114.996 Y131.322 E2.27522
G1 X114.513 Y131.226 E2.2916
G1 X113.895 Y131.077 E2.31274
G1 X113.425 Y130.943 E2.329
G1 X112.856 Y130.757 E2.34891
G1 X112.394 Y130.586 E2.36529
G1 X111.838 Y130.355 E2.38532
G1 X111.393 Y130.15 E2.40161
G1 X110.835 Y129.866 E2.42244
G1 X110.408 Y129.626 E2.43873
G1 X109.885 Y129.304 E2.45916
G1 X109.475 Y129.029 E2.47558
G1 X108.983 Y128.67 E2.49583
G1 X108.601 Y128.368 E2.51203
G1 X108.132 Y127.966 E2.53257
G1 X107.771 Y127.631 E2.54895
G1 X107.352 Y127.211 E2.56869
G1 X107.018 Y126.85 E2.58504
G1 X106.612 Y126.375 E2.60583
G1 X106.31 Y125.991 E2.62208
G1 X105.953 Y125.499 E2.64229
G1 X105.68 Y125.09 E2.65865
G1 X105.361 Y124.568 E2.679
G1 X105.121 Y124.139 E2.69535
G1 X104.834 Y123.574 E2.71642
G1 X104.631 Y123.13 E2.73266
G1 X104.414 Y122.606 E2.75152
G1 X104.244 Y122.149 E2.76774
G1 X104.039 Y121.514 E2.78994
G1 X103.907 Y121.038 E2.80637
G1 X103.776 Y120.493 E2.82501
G1 X103.68 Y120.016 E2.84119
G1 X103.58 Y119.388 E2.86234
G1 X103.522 Y118.895 E2.87885
G1 X103.475 Y118.291 E2.899
G1 X103.456 Y117.808 E2.91508
G1 X103.456 Y117.199 E2.93533
G0 F6000 X103.856 Y117.215
G1 F900 X103.875 Y116.724 E2.95168
G1 X103.921 Y116.135 E2.97133
G1 X103.979 Y115.648 E2.98764
G1 X104.069 Y115.08 E3.00677
G1 X104.165 Y114.597 E3.02315
G1 X104.303 Y114.025 E3.04272
G1 X104.436 Y113.555 E3.05896
G1 X104.614 Y113.006 E3.07816
G1 X104.785 Y112.543 E3.09457
G1 X105 Y112.024 E3.11326
G1 X105.203 Y111.581 E3.12947
G1 X105.478 Y111.04 E3.14965
G1 X105.719 Y110.611 E3.16602
G1 X106.016 Y110.127 E3.1849
G1 X106.289 Y109.718 E3.20126
G1 X106.635 Y109.242 E3.22083
G1 X106.938 Y108.858 E3.2371
G1 X107.322 Y108.409 E3.25675
G1 X107.656 Y108.049 E3.27309
G1 X108.047 Y107.658 E3.29148
G1 X108.408 Y107.323 E3.30786
G1 X108.86 Y106.936 E3.32765
G1 X109.243 Y106.634 E3.34387
G1 X109.713 Y106.292 E3.3632
G1 X110.123 Y106.018 E3.3796
G1 X110.609 Y105.72 E3.39857
G1 X111.036 Y105.48 E3.41486
G1 X111.578 Y105.204 E3.43509
G1 X112.023 Y105 E3.45137
G1 X112.53 Y104.79 E3.46962
G1 X112.993 Y104.618 E3.48605
G1 X113.583 Y104.427 E3.50668
G1 X114.053 Y104.296 E3.5229
G1 X114.583 Y104.169 E3.54103
G1 X115.066 Y104.072 E3.55742
G1 X115.648 Y103.979 E3.57702
G1 X116.135 Y103.921 E3.59333
G1 X116.723 Y103.875 E3.61295
G1 X117.213 Y103.856 E3.62926
G1 X117.787 Y103.856 E3.64835
G1 X118.277 Y103.875 E3.66466
G1 X118.865 Y103.921 E3.68427
G1 X119.352 Y103.979 E3.70059
G1 X119.92 Y104.069 E3.71971
G1 X120.403 Y104.165 E3.73609
G1 X120.975 Y104.303 E3.75566
G1 X121.445 Y104.436 E3.77191
G1 X121.994 Y104.614 E3.79111
G1 X122.457 Y104.785 E3.80752
G1 X122.976 Y105 E3.82621
G1 X123.419 Y105.203 E3.84241
G1 X123.96 Y105.478 E3.8626
G1 X124.389 Y105.719 E3.87896
G1 X124.873 Y106.016 E3.89785
G1 X125.282 Y106.289 E3.91421
G1 X125.758 Y106.635 E3.93378
G1 X126.142 Y106.938 E3.95005
G1 X126.591 Y107.322 E3.9697
G1 X126.951 Y107.656 E3.98603
G1 X127.342 Y108.047 E4.00442
G1 X127.677 Y108.408 E4.0208
G1 X128.064 Y108.86 E4.0406
G1 X128.366 Y109.243 E4.05682
G1 X128.708 Y109.713 E4.07615
G1 X128.982 Y110.123 E4.09255
G1 X129.28 Y110.609 E4.11151
G1 X129.52 Y111.036 E4.12781
G1 X129.796 Y111.578 E4.14803
G1 X130 Y112.023 E4.16432
G1 X130.21 Y112.53 E4.18257
G1 X130.382 Y112.993 E4.199
G1 X130.573 Y113.583 E4.21962
G1 X130.704 Y114.053 E4.23585
G1 X130.83 Y114.577 E4.25378
G1 X130.927 Y115.058 E4.2701
G1 X131.021 Y115.648 E4.28997
G1 X131.079 Y116.136 E4.30631
G1 X131.126 Y116.726 E4.326
G1 X131.145 Y117.222 E4.34251
G1 X131.144 Y117.791 E4.36143
G1 X131.125 Y118.282 E4.37778
G1 X131.077 Y118.886 E4.39793
G1 X131.018 Y119.373 E4.41424
G1 X130.93 Y119.926 E4.43287
G1 X130.834 Y120.409 E4.44925
G1 X130.692 Y120.995 E4.4693
G1 X130.558 Y121.465 E4.48556
G1 X130.382 Y122.005 E4.50445
G1 X130.211 Y122.467 E4.52083
G1 X129.993 Y122.993 E4.53977
G1 X129.789 Y123.436 E4.55599
G1 X129.519 Y123.965 E4.57574
G1 X129.278 Y124.394 E4.59211
G1 X128.974 Y124.889 E4.61143
G1 X128.7 Y125.298 E4.62781
G1 X128.355 Y125.77 E4.64725
G1 X128.052 Y126.153 E4.66349
G1 X127.674 Y126.595 E4.68284
G1 X127.34 Y126.955 E4.69917
G1 X126.941 Y127.353 E4.71792
G1 X126.579 Y127.688 E4.73432
G1 X126.126 Y128.075 E4.75414
G1 X125.743 Y128.376 E4.77034
G1 X125.282 Y128.711 E4.78929
G1 X124.872 Y128.985 E4.80569
G1 X124.374 Y129.289 E4.8251
G1 X123.947 Y129.528 E4.84137
G1 X123.411 Y129.8 E4.86137
G1 X122.965 Y130.004 E4.87768
G1 X122.467 Y130.211 E4.89562
G1 X122.01 Y130.381 E4.91183
G1 X121.407 Y130.576 E4.93291
G1 X120.931 Y130.708 E4.94934
G1 X120.414 Y130.832 E4.96702
G1 X119.937 Y130.928 E4.98321
G1 X119.342 Y131.022 E5.00324
G1 X118.849 Y131.08 E5.01975
G1 X118.271 Y131.125 E5.03904
G1 X117.781 Y131.144 E5.05535
G1 X117.207 Y131.144 E5.07444
G1 X116.717 Y131.125 E5.09075
G1 X116.114 Y131.077 E5.11087
G1 X115.627 Y131.018 E5.12718
G1 X115.074 Y130.93 E5.14581
G1 X114.591 Y130.834 E5.16218
G1 X114.005 Y130.692 E5.18224
G1 X113.535 Y130.558 E5.19849
G1 X112.995 Y130.382 E5.21738
G1 X112.533 Y130.211 E5.23377
G1 X112.006 Y129.992 E5.25275
G1 X111.561 Y129.787 E5.26905
G1 X111.031 Y129.517 E5.28883
G1 X110.604 Y129.277 E5.30512
G1 X110.108 Y128.972 E5.32449
G1 X109.698 Y128.697 E5.34091
G1 X109.231 Y128.356 E5.36014
G1 X108.849 Y128.054 E5.37634
G1 X108.404 Y127.673 E5.39582
G1 X108.043 Y127.338 E5.4122
G1 X107.645 Y126.94 E5.43092
G1 X107.311 Y126.579 E5.44728
G1 X106.926 Y126.128 E5.467
G1 X106.624 Y125.744 E5.48325
G1 X106.286 Y125.277 E5.50243
G1 X106.013 Y124.868 E5.51878
G1 X105.71 Y124.373 E5.53808
G1 X105.47 Y123.944 E5.55443
G1 X105.198 Y123.408 E5.57443
G1 X104.995 Y122.964 E5.59066
G1 X104.789 Y122.467 E5.60856
G1 X104.619 Y122.01 E5.62477
G1 X104.424 Y121.407 E5.64585
G1 X104.292 Y120.931 E5.66228
G1 X104.168 Y120.414 E5.67997
G1 X104.072 Y119.937 E5.69615
G1 X103.978 Y119.342 E5.71618
G1 X103.92 Y118.849 E5.73269
G1 X103.875 Y118.275 E5.75184
G1 X103.856 Y117.792 E5.76792
G1 X103.856 Y117.215 E5.78711
G0 F6000 X104.255 Y117.23
G1 F900 X104.274 Y116.739 E5.80346
G1 X104.318 Y116.182 E5.82204
G1 X104.376 Y115.695 E5.83835
G1 X104.461 Y115.158 E5.85643
G1 X104.557 Y114.675 E5.87281
G1 X104.687 Y114.134 E5.89132
G1 X104.82 Y113.664 E5.90757
G1 X104.99 Y113.145 E5.92573
G1 X105.161 Y112.682 E5.94215
G1 X105.363 Y112.191 E5.9598
G1 X105.566 Y111.748 E5.97601
G1 X105.827 Y111.236 E5.99513
G1 X106.068 Y110.807 E6.01149
G1 X106.349 Y110.349 E6.02936
G1 X106.622 Y109.94 E6.04572
G1 X106.949 Y109.49 E6.06422
G1 X107.252 Y109.106 E6.08049
G1 X107.615 Y108.681 E6.09908
G1 X107.949 Y108.321 E6.11541
G1 X108.319 Y107.951 E6.13282
G1 X108.68 Y107.616 E6.1492
G1 X109.108 Y107.25 E6.16793
G1 X109.491 Y106.948 E6.18415
G1 X109.936 Y106.625 E6.20244
G1 X110.346 Y106.351 E6.21884
G1 X110.805 Y106.069 E6.23676
G1 X111.232 Y105.829 E6.25305
G1 X111.745 Y105.568 E6.27219
G1 X112.19 Y105.364 E6.28847
G1 X112.669 Y105.165 E6.30573
G1 X113.132 Y104.993 E6.32215
G1 X113.691 Y104.812 E6.3417
G1 X114.161 Y104.681 E6.35793
G1 X114.662 Y104.561 E6.37506
G1 X115.145 Y104.464 E6.39145
G1 X115.695 Y104.376 E6.40997
G1 X116.182 Y104.318 E6.42628
G1 X116.739 Y104.274 E6.44487
G1 X117.229 Y104.255 E6.46118
G1 X117.771 Y104.255 E6.4792
G1 X118.261 Y104.274 E6.49551
G1 X118.818 Y104.318 E6.5141
G1 X119.305 Y104.376 E6.53041
G1 X119.842 Y104.461 E6.54849
G1 X120.325 Y104.557 E6.56487
G1 X120.866 Y104.687 E6.58338
G1 X121.336 Y104.82 E6.59962
G1 X121.855 Y104.99 E6.61779
G1 X122.318 Y105.161 E6.6342
G1 X122.809 Y105.363 E6.65186
G1 X123.252 Y105.566 E6.66807
G1 X123.764 Y105.827 E6.68718
G1 X124.193 Y106.068 E6.70355
G1 X124.651 Y106.349 E6.72142
G1 X125.06 Y106.622 E6.73778
G1 X125.51 Y106.949 E6.75628
G1 X125.894 Y107.252 E6.77255
G1 X126.319 Y107.615 E6.79114
G1 X126.679 Y107.949 E6.80747
G1 X127.049 Y108.319 E6.82487
G1 X127.384 Y108.68 E6.84125
G1 X127.75 Y109.108 E6.85998
G1 X128.052 Y109.491 E6.87621
G1 X128.375 Y109.936 E6.8945
G1 X128.649 Y110.346 E6.9109
G1 X128.931 Y110.805 E6.92881
G1 X129.171 Y111.232 E6.94511
G1 X129.432 Y111.745 E6.96425
G1 X129.636 Y112.19 E6.98053
G1 X129.835 Y112.669 E6.99778
G1 X130.007 Y113.132 E7.01421
G1 X130.188 Y113.691 E7.03375
G1 X130.319 Y114.161 E7.04998
G1 X130.438 Y114.656 E7.06692
G1 X130.535 Y115.137 E7.08324
G1 X130.624 Y115.695 E7.10203
G1 X130.682 Y116.183 E7.11837
G1 X130.726 Y116.741 E7.13699
G1 X130.745 Y117.237 E7.1535
G1 X130.745 Y117.776 E7.17143
G1 X130.726 Y118.267 E7.18777
G1 X130.68 Y118.838 E7.20682
G1 X130.621 Y119.325 E7.22314
G1 X130.538 Y119.848 E7.24075
G1 X130.442 Y120.331 E7.25713
G1 X130.308 Y120.885 E7.27609
G1 X130.174 Y121.355 E7.29234
G1 X130.007 Y121.866 E7.31022
G1 X129.836 Y122.328 E7.32661
G1 X129.629 Y122.826 E7.34455
G1 X129.425 Y123.269 E7.36077
G1 X129.17 Y123.769 E7.37944
G1 X128.929 Y124.198 E7.3958
G1 X128.642 Y124.666 E7.41406
G1 X128.368 Y125.075 E7.43044
G1 X128.042 Y125.522 E7.44884
G1 X127.739 Y125.905 E7.46508
G1 X127.381 Y126.323 E7.48338
G1 X127.047 Y126.683 E7.49972
G1 X126.669 Y127.06 E7.51747
G1 X126.307 Y127.395 E7.53388
G1 X125.878 Y127.761 E7.55264
G1 X125.495 Y128.062 E7.56884
G1 X125.059 Y128.378 E7.58675
G1 X124.649 Y128.652 E7.60315
G1 X124.179 Y128.94 E7.62148
G1 X123.752 Y129.179 E7.63776
G1 X123.245 Y129.437 E7.65668
G1 X122.799 Y129.641 E7.67299
G1 X122.328 Y129.836 E7.68994
G1 X121.871 Y130.006 E7.70616
G1 X121.301 Y130.19 E7.72608
G1 X120.825 Y130.322 E7.74251
G1 X120.335 Y130.439 E7.75927
G1 X119.858 Y130.535 E7.77545
G1 X119.295 Y130.625 E7.79442
G1 X118.802 Y130.683 E7.81093
G1 X118.255 Y130.726 E7.82918
G1 X117.765 Y130.745 E7.84548
G1 X117.223 Y130.745 E7.86351
G1 X116.733 Y130.726 E7.87982
G1 X116.162 Y130.68 E7.89887
G1 X115.675 Y130.621 E7.91519
G1 X115.152 Y130.538 E7.9328
G1 X114.669 Y130.442 E7.94918
G1 X114.115 Y130.308 E7.96814
G1 X113.645 Y130.174 E7.98439
G1 X113.134 Y130.007 E8.00228
G1 X112.672 Y129.836 E8.01866
G1 X112.173 Y129.629 E8.03663
G1 X111.728 Y129.424 E8.05292
G1 X111.227 Y129.168 E8.07164
G1 X110.8 Y128.928 E8.08793
G1 X110.331 Y128.639 E8.10625
G1 X109.921 Y128.364 E8.12267
G1 X109.479 Y128.042 E8.14086
G1 X109.097 Y127.74 E8.15706
G1 X108.676 Y127.38 E8.17548
G1 X108.315 Y127.045 E8.19186
G1 X107.939 Y126.668 E8.20957
G1 X107.605 Y126.307 E8.22593
G1 X107.241 Y125.88 E8.24459
G1 X106.939 Y125.496 E8.26084
G1 X106.619 Y125.055 E8.27896
G1 X106.346 Y124.646 E8.29532
G1 X106.059 Y124.178 E8.31358
G1 X105.819 Y123.749 E8.32993
G1 X105.562 Y123.242 E8.34883
G1 X105.359 Y122.798 E8.36507
G1 X105.164 Y122.328 E8.38199
G1 X104.994 Y121.871 E8.39821
G1 X104.81 Y121.301 E8.41813
G1 X104.678 Y120.825 E8.43456
G1 X104.561 Y120.335 E8.45132
G1 X104.465 Y119.858 E8.4675
G1 X104.375 Y119.295 E8.48646
G1 X104.317 Y118.802 E8.50297
G1 X104.274 Y118.259 E8.52109
G1 X104.255 Y117.776 E8.53717
G1 X104.255 Y117.23 E8.55533
G0 F6000 X104.655 Y117.246
G1 F900 X104.674 Y116.755 E8.57167
G1 X104.715 Y116.229 E8.58922
G1 X104.773 Y115.742 E8.60553
G1 X104.854 Y115.236 E8.62257
G1 X104.95 Y114.753 E8.63895
G1 X105.072 Y114.243 E8.65639
G1 X105.205 Y113.773 E8.67264
