;FLAVOR:Marlin
;TIME:1017
;Filament used: 0.457704m
;Layer height: 0.2
;MINX:94.7
;MINY:94.2
;MINZ:0.2
;MAXX:140.3
;MAXY:140.8
;MAXZ:4
;Generated with Cura_SteamEngine main
M140 S65
M105
M190 S65
M104 S240
M105
M109 S240
M82 ;absolute extrusion mode
; Ender 3 Custom Start G-code
G92 E0 ; Reset Extruder
G28 ; Home all axes
G1 Z2.0 F3000 ; Move Z Axis up little to prevent scratching of Heat Bed
G1 X0.1 Y20 Z0.3 F5000.0 ; Move to start position
G1 X0.1 Y200.0 Z0.3 F1500.0 E15 ; Draw the first line
G1 X0.4 Y200.0 Z0.3 F5000.0 ; Move to side a little
G1 X0.4 Y20 Z0.3 F1500.0 E30 ; Draw the second line
G92 E0 ; Reset Extruder
G1 Z2.0 F3000 ; Move Z Axis up little to prevent scratching of Heat Bed
G1 X5 Y20 Z0.3 F5000.0 ; Move over to prevent blob squish
G92 E0
G92 E0
G1 F2700 E-5
;LAYER_COUNT:20
;LAYER:0
M107
G0 F6000 X106.58 Y96.922 Z0.2
G0 X104.7 Y102
;TYPE:SKIRT
G1 F2700 E0
G1 F900 X104.74 Y101.211 E0.02628
G1 X104.859 Y100.431 E0.05252
G1 X105.057 Y99.666 E0.0788
G1 X105.331 Y98.926 E0.10505
G1 X105.679 Y98.217 E0.13132
G1 X106.097 Y97.546 E0.15761
G1 X106.58 Y96.922 E0.18385
G1 X107.123 Y96.349 E0.21011
G1 X107.722 Y95.834 E0.23638
G1 X108.37 Y95.383 E0.26264
G1 X109.061 Y94.999 E0.28894
G1 X109.786 Y94.687 E0.31519
G1 X110.539 Y94.45 E0.34144
G1 X111.313 Y94.291 E0.36773
G1 X112.098 Y94.21 E0.39397
G1 X112.5 Y94.2 E0.40735
G1 X122.5 Y94.2 E0.73995
G1 X123.289 Y94.24 E0.76623
G1 X124.069 Y94.359 E0.79247
G1 X124.834 Y94.557 E0.81875
G1 X125.574 Y94.831 E0.845
G1 X126.283 Y95.179 E0.87127
G1 X126.954 Y95.597 E0.89756
G1 X127.578 Y96.08 E0.9238
G1 X128.151 Y96.623 E0.95006
G1 X128.666 Y97.222 E0.97633
G1 X129.117 Y97.87 E1.00259
G1 X129.501 Y98.561 E1.02889
G1 X129.813 Y99.286 E1.05514
G1 X130.05 Y100.039 E1.08139
G1 X130.209 Y100.813 E1.10767
G1 X130.29 Y101.598 E1.13392
G1 X130.3 Y102 E1.1473
G1 X130.3 Y104.7 E1.2371
G1 X132.5 Y104.7 E1.31027
G1 X133.289 Y104.74 E1.33655
G1 X134.069 Y104.859 E1.36279
G1 X134.834 Y105.057 E1.38907
G1 X135.574 Y105.331 E1.41532
G1 X136.283 Y105.679 E1.44159
G1 X136.954 Y106.097 E1.46788
G1 X137.578 Y106.58 E1.49413
G1 X138.151 Y107.123 E1.52038
G1 X138.666 Y107.722 E1.54666
G1 X139.117 Y108.37 E1.57292
G1 X139.501 Y109.061 E1.59921
G1 X139.813 Y109.786 E1.62546
G1 X140.05 Y110.539 E1.65172
G1 X140.209 Y111.313 E1.678
G1 X140.29 Y112.098 E1.70425
G1 X140.3 Y112.5 E1.71762
G1 X140.3 Y122.5 E2.05022
G1 X140.26 Y123.289 E2.0765
G1 X140.141 Y124.069 E2.10274
G1 X139.943 Y124.834 E2.12902
G1 X139.669 Y125.574 E2.15527
G1 X139.321 Y126.283 E2.18154
G1 X138.903 Y126.954 E2.20783
G1 X138.42 Y127.578 E2.23408
G1 X137.877 Y128.151 E2.26033
G1 X137.278 Y128.666 E2.28661
G1 X136.63 Y129.117 E2.31287
G1 X135.939 Y129.501 E2.33916
G1 X135.214 Y129.813 E2.36541
G1 X134.461 Y130.05 E2.39167
G1 X133.687 Y130.209 E2.41795
G1 X132.902 Y130.29 E2.44419
G1 X132.5 Y130.3 E2.45757
G1 X130.3 Y130.3 E2.53074
G1 X130.3 Y133 E2.62054
G1 X130.26 Y133.789 E2.64682
G1 X130.141 Y134.569 E2.67306
G1 X129.943 Y135.334 E2.69935
G1 X129.669 Y136.074 E2.72559
G1 X129.321 Y136.783 E2.75186
G1 X128.903 Y137.454 E2.77815
G1 X128.42 Y138.078 E2.8044
G1 X127.877 Y138.651 E2.83066
G1 X127.278 Y139.166 E2.85693
G1 X126.63 Y139.617 E2.88319
G1 X125.939 Y140.001 E2.90948
G1 X125.214 Y140.313 E2.93573
G1 X124.461 Y140.55 E2.96199
G1 X123.687 Y140.709 E2.98827
G1 X122.902 Y140.79 E3.01452
G1 X122.5 Y140.8 E3.02789
G1 X112.5 Y140.8 E3.36049
G1 X111.711 Y140.76 E3.38677
G1 X110.931 Y140.641 E3.41301
G1 X110.166 Y140.443 E3.43929
G1 X109.426 Y140.169 E3.46554
G1 X108.717 Y139.821 E3.49181
G1 X108.046 Y139.403 E3.5181
G1 X107.422 Y138.92 E3.54435
G1 X106.849 Y138.377 E3.5706
G1 X106.334 Y137.778 E3.59688
G1 X105.883 Y137.13 E3.62314
G1 X105.499 Y136.439 E3.64943
G1 X105.187 Y135.714 E3.67568
G1 X104.95 Y134.961 E3.70194
G1 X104.791 Y134.187 E3.72822
G1 X104.71 Y133.402 E3.75447
G1 X104.7 Y133 E3.76784
G1 X104.7 Y130.3 E3.85764
G1 X102.5 Y130.3 E3.93082
G1 X101.711 Y130.26 E3.95709
G1 X100.931 Y130.141 E3.98334
G1 X100.166 Y129.943 E4.00962
G1 X99.426 Y129.669 E4.03586
G1 X98.717 Y129.321 E4.06213
G1 X98.046 Y128.903 E4.08843
G1 X97.422 Y128.42 E4.11467
G1 X96.849 Y127.877 E4.14093
G1 X96.334 Y127.278 E4.1672
G1 X95.883 Y126.63 E4.19346
G1 X95.499 Y125.939 E4.21975
G1 X95.187 Y125.214 E4.246
G1 X94.95 Y124.461 E4.27226
G1 X94.791 Y123.687 E4.29854
G1 X94.71 Y122.902 E4.32479
G1 X94.7 Y122.5 E4.33816
G1 X94.7 Y112.5 E4.67077
G1 X94.74 Y111.711 E4.69704
G1 X94.859 Y110.931 E4.72328
G1 X95.057 Y110.166 E4.74957
G1 X95.331 Y109.426 E4.77581
G1 X95.679 Y108.717 E4.80208
G1 X96.097 Y108.046 E4.82838
G1 X96.58 Y107.422 E4.85462
G1 X97.123 Y106.849 E4.88088
G1 X97.722 Y106.334 E4.90715
G1 X98.37 Y105.883 E4.93341
G1 X99.061 Y105.499 E4.9597
G1 X99.786 Y105.187 E4.98595
G1 X100.539 Y104.95 E5.01221
G1 X101.313 Y104.791 E5.03849
G1 X102.098 Y104.71 E5.06474
G1 X102.5 Y104.7 E5.07811
G1 X104.7 Y104.7 E5.15129
G1 X104.7 Y102 E5.24109
G0 F6000 X107.1 Y102
G1 F900 X107.14 Y101.344 E5.26295
G1 X107.259 Y100.698 E5.28479
G1 X107.456 Y100.071 E5.30665
G1 X107.728 Y99.473 E5.3285
G1 X108.07 Y98.912 E5.35036
G1 X108.478 Y98.397 E5.37221
G1 X108.945 Y97.935 E5.39406
G1 X109.465 Y97.534 E5.4159
G1 X110.029 Y97.198 E5.43774
G1 X110.631 Y96.934 E5.4596
G1 X111.26 Y96.744 E5.48145
G1 X111.907 Y96.633 E5.50329
G1 X112.5 Y96.6 E5.52304
G1 X122.5 Y96.6 E5.85564
G1 X123.156 Y96.64 E5.8775
G1 X123.802 Y96.759 E5.89935
G1 X124.429 Y96.956 E5.92121
G1 X125.027 Y97.228 E5.94306
G1 X125.588 Y97.57 E5.96491
G1 X126.103 Y97.978 E5.98676
G1 X126.565 Y98.445 E6.00861
G1 X126.966 Y98.965 E6.03045
G1 X127.302 Y99.529 E6.05229
G1 X127.566 Y100.131 E6.07415
G1 X127.756 Y100.76 E6.09601
G1 X127.867 Y101.407 E6.11784
G1 X127.9 Y102 E6.13759
G1 X127.9 Y107.1 E6.30722
G1 X132.5 Y107.1 E6.46022
G1 X133.156 Y107.14 E6.48208
G1 X133.802 Y107.259 E6.50392
G1 X134.429 Y107.456 E6.52578
G1 X135.027 Y107.728 E6.54763
G1 X135.588 Y108.07 E6.56949
G1 X136.103 Y108.478 E6.59134
G1 X136.565 Y108.945 E6.61319
G1 X136.966 Y109.465 E6.63503
G1 X137.302 Y110.029 E6.65686
G1 X137.566 Y110.631 E6.67873
G1 X137.756 Y111.26 E6.70058
G1 X137.867 Y111.907 E6.72241
G1 X137.9 Y112.5 E6.74217
G1 X137.9 Y122.5 E7.07477
G1 X137.86 Y123.156 E7.09663
G1 X137.741 Y123.802 E7.11848
G1 X137.544 Y124.429 E7.14034
G1 X137.272 Y125.027 E7.16219
G1 X136.93 Y125.588 E7.18404
G1 X136.522 Y126.103 E7.20589
G1 X136.055 Y126.565 E7.22774
G1 X135.535 Y126.966 E7.24958
G1 X134.971 Y127.302 E7.27142
G1 X134.369 Y127.566 E7.29328
G1 X133.74 Y127.756 E7.31513
G1 X133.093 Y127.867 E7.33697
G1 X132.5 Y127.9 E7.35672
G1 X127.9 Y127.9 E7.50972
G1 X127.9 Y133 E7.67935
G1 X127.86 Y133.656 E7.7012
G1 X127.741 Y134.302 E7.72305
G1 X127.544 Y134.929 E7.74491
G1 X127.272 Y135.527 E7.76676
G1 X126.93 Y136.088 E7.78861
G1 X126.522 Y136.603 E7.81047
G1 X126.055 Y137.065 E7.83232
G1 X125.535 Y137.466 E7.85416
G1 X124.971 Y137.802 E7.87599
G1 X124.369 Y138.066 E7.89786
G1 X123.74 Y138.256 E7.91971
G1 X123.093 Y138.367 E7.94154
G1 X122.5 Y138.4 E7.9613
G1 X112.5 Y138.4 E8.2939
G1 X111.844 Y138.36 E8.31576
G1 X111.198 Y138.241 E8.33761
G1 X110.571 Y138.044 E8.35946
G1 X109.973 Y137.772 E8.38131
G1 X109.412 Y137.43 E8.40317
G1 X108.897 Y137.022 E8.42502
G1 X108.435 Y136.555 E8.44687
G1 X108.034 Y136.035 E8.46871
G1 X107.698 Y135.471 E8.49055
G1 X107.434 Y134.869 E8.51241
G1 X107.244 Y134.24 E8.53426
G1 X107.133 Y133.593 E8.5561
G1 X107.1 Y133 E8.57585
G1 X107.1 Y127.9 E8.74548
G1 X102.5 Y127.9 E8.89847
G1 X101.844 Y127.86 E8.92033
G1 X101.198 Y127.741 E8.94218
G1 X100.571 Y127.544 E8.96404
G1 X99.973 Y127.272 E8.98589
G1 X99.412 Y126.93 E9.00774
G1 X98.897 Y126.522 E9.0296
G1 X98.435 Y126.055 E9.05144
G1 X98.034 Y125.535 E9.07329
G1 X97.698 Y124.971 E9.09512
G1 X97.434 Y124.369 E9.11698
G1 X97.244 Y123.74 E9.13884
G1 X97.133 Y123.093 E9.16067
G1 X97.1 Y122.5 E9.18043
G1 X97.1 Y112.5 E9.51303
G1 X97.14 Y111.844 E9.53489
G1 X97.259 Y111.198 E9.55673
G1 X97.456 Y110.571 E9.57859
G1 X97.728 Y109.973 E9.60044
G1 X98.07 Y109.412 E9.6223
G1 X98.478 Y108.897 E9.64415
G1 X98.945 Y108.435 E9.666
G1 X99.465 Y108.034 E9.68784
G1 X100.029 Y107.698 E9.70967
G1 X100.631 Y107.434 E9.73154
G1 X101.26 Y107.244 E9.75339
G1 X101.907 Y107.133 E9.77522
G1 X102.5 Y107.1 E9.79498
G1 X107.1 Y107.1 E9.94798
G1 X107.1 Y102 E10.1176
G0 F6000 X107.5 Y102
G1 F900 X107.54 Y101.369 E10.13863
G1 X107.659 Y100.748 E10.15966
G1 X107.856 Y100.148 E10.18067
G1 X108.127 Y99.576 E10.20172
G1 X108.467 Y99.044 E10.22272
G1 X108.873 Y98.559 E10.24375
G1 X109.336 Y98.129 E10.26477
G1 X109.85 Y97.76 E10.28582
G1 X110.406 Y97.46 E10.30683
G1 X110.995 Y97.232 E10.32784
G1 X111.609 Y97.08 E10.34887
G1 X112.5 Y97 E10.37863
G1 X122.5 Y97 E10.71123
G1 X123.131 Y97.04 E10.73226
G1 X123.752 Y97.159 E10.75329
G1 X124.352 Y97.356 E10.77429
G1 X124.924 Y97.627 E10.79534
G1 X125.456 Y97.967 E10.81634
G1 X125.941 Y98.373 E10.83738
G1 X126.371 Y98.836 E10.8584
G1 X126.74 Y99.35 E10.87944
G1 X127.04 Y99.906 E10.90046
G1 X127.268 Y100.495 E10.92146
G1 X127.42 Y101.109 E10.9425
G1 X127.5 Y102 E10.97225
G1 X127.5 Y107.5 E11.15518
G1 X132.5 Y107.5 E11.32149
G1 X133.131 Y107.54 E11.34251
G1 X133.752 Y107.659 E11.36355
G1 X134.352 Y107.856 E11.38455
G1 X134.924 Y108.127 E11.4056
G1 X135.456 Y108.467 E11.4266
G1 X135.941 Y108.873 E11.44764
G1 X136.371 Y109.336 E11.46865
G1 X136.74 Y109.85 E11.4897
G1 X137.04 Y110.406 E11.51071
G1 X137.268 Y110.995 E11.53172
G1 X137.42 Y111.609 E11.55276
G1 X137.5 Y112.5 E11.58251
G1 X137.5 Y122.5 E11.91511
G1 X137.46 Y123.131 E11.93614
G1 X137.341 Y123.752 E11.95717
G1 X137.144 Y124.352 E11.97818
G1 X136.873 Y124.924 E11.99923
G1 X136.533 Y125.456 E12.02023
G1 X136.127 Y125.941 E12.04126
G1 X135.664 Y126.371 E12.06228
G1 X135.15 Y126.74 E12.08333
G1 X134.594 Y127.04 E12.10434
G1 X134.005 Y127.268 E12.12535
G1 X133.391 Y127.42 E12.14638
G1 X132.5 Y127.5 E12.17614
G1 X127.5 Y127.5 E12.34244
G1 X127.5 Y133 E12.52537
G1 X127.46 Y133.631 E12.5464
G1 X127.341 Y134.252 E12.56743
G1 X127.144 Y134.852 E12.58843
G1 X126.873 Y135.424 E12.60948
G1 X126.533 Y135.956 E12.63048
G1 X126.127 Y136.441 E12.65152
G1 X125.664 Y136.871 E12.67254
G1 X125.15 Y137.24 E12.69358
G1 X124.594 Y137.54 E12.7146
G1 X124.005 Y137.768 E12.7356
G1 X123.391 Y137.92 E12.75664
G1 X122.5 Y138 E12.78639
G1 X112.5 Y138 E13.119
G1 X111.869 Y137.96 E13.14002
G1 X111.248 Y137.841 E13.16106
G1 X110.648 Y137.644 E13.18206
G1 X110.076 Y137.373 E13.20311
G1 X109.544 Y137.033 E13.22411
G1 X109.059 Y136.627 E13.24515
G1 X108.629 Y136.164 E13.26616
G1 X108.26 Y135.65 E13.28721
G1 X107.96 Y135.094 E13.30822
G1 X107.732 Y134.505 E13.32923
G1 X107.58 Y133.891 E13.35027
G1 X107.5 Y133 E13.38002
G1 X107.5 Y127.5 E13.56295
G1 X102.5 Y127.5 E13.72925
G1 X101.869 Y127.46 E13.75028
G1 X101.248 Y127.341 E13.77131
G1 X100.648 Y127.144 E13.79232
G1 X100.076 Y126.873 E13.81337
G1 X99.544 Y126.533 E13.83437
G1 X99.059 Y126.127 E13.8554
G1 X98.629 Y125.664 E13.87642
G1 X98.26 Y125.15 E13.89747
G1 X97.96 Y124.594 E13.91848
G1 X97.732 Y124.005 E13.93949
G1 X97.58 Y123.391 E13.96052
G1 X97.5 Y122.5 E13.99028
G1 X97.5 Y112.5 E14.32288
G1 X97.54 Y111.869 E14.34391
G1 X97.659 Y111.248 E14.36494
G1 X97.856 Y110.648 E14.38594
G1 X98.127 Y110.076 E14.40699
G1 X98.467 Y109.544 E14.42799
G1 X98.873 Y109.059 E14.44903
G1 X99.336 Y108.629 E14.47005
G1 X99.85 Y108.26 E14.49109
G1 X100.406 Y107.96 E14.51211
G1 X100.995 Y107.732 E14.53311
G1 X101.609 Y107.58 E14.55415
G1 X102.5 Y107.5 E14.5839
G1 X107.5 Y107.5 E14.75021
G1 X107.5 Y102 E14.93314
G0 F6000 X107.9 Y102
G1 F900 X107.94 Y101.395 E14.9533
G1 X108.059 Y100.801 E14.97345
G1 X108.255 Y100.227 E14.99362
G1 X108.526 Y99.684 E15.01381
G1 X108.865 Y99.181 E15.03398
G1 X109.267 Y98.728 E15.05413
G1 X109.725 Y98.331 E15.07429
G1 X110.232 Y97.998 E15.09446
G1 X110.778 Y97.734 E15.11463
G1 X111.354 Y97.545 E15.1348
G1 X111.95 Y97.433 E15.15497
G1 X112.5 Y97.4 E15.17329
G1 X122.5 Y97.4 E15.50589
G1 X123.105 Y97.44 E15.52606
G1 X123.699 Y97.559 E15.54621
G1 X124.273 Y97.755 E15.56638
G1 X124.816 Y98.026 E15.58657
G1 X125.319 Y98.365 E15.60674
G1 X125.772 Y98.767 E15.62689
G1 X126.169 Y99.225 E15.64705
G1 X126.502 Y99.732 E15.66722
G1 X126.766 Y100.278 E15.68739
G1 X126.955 Y100.854 E15.70755
G1 X127.067 Y101.45 E15.72772
G1 X127.1 Y102 E15.74605
G1 X127.1 Y107.9 E15.94229
G1 X132.5 Y107.9 E16.12189
G1 X133.105 Y107.94 E16.14206
G1 X133.699 Y108.059 E16.16221
G1 X134.273 Y108.255 E16.18238
G1 X134.816 Y108.526 E16.20256
G1 X135.319 Y108.865 E16.22274
G1 X135.772 Y109.267 E16.24288
G1 X136.169 Y109.725 E16.26304
G1 X136.502 Y110.232 E16.28322
G1 X136.766 Y110.778 E16.30339
G1 X136.955 Y111.354 E16.32355
G1 X137.067 Y111.95 E16.34372
G1 X137.1 Y112.5 E16.36205
G1 X137.1 Y122.5 E16.69465
G1 X137.06 Y123.105 E16.71481
G1 X136.941 Y123.699 E16.73496
G1 X136.745 Y124.273 E16.75514
G1 X136.474 Y124.816 E16.77532
G1 X136.135 Y125.319 E16.7955
G1 X135.733 Y125.772 E16.81564
G1 X135.275 Y126.169 E16.8358
G1 X134.768 Y126.502 E16.85598
G1 X134.222 Y126.766 E16.87615
G1 X133.646 Y126.955 E16.89631
G1 X133.05 Y127.067 E16.91648
G1 X132.5 Y127.1 E16.93481
G1 X127.1 Y127.1 E17.11441
G1 X127.1 Y133 E17.31064
G1 X127.06 Y133.605 E17.33081
G1 X126.941 Y134.199 E17.35096
G1 X126.745 Y134.773 E17.37113
G1 X126.474 Y135.316 E17.39132
G1 X126.135 Y135.819 E17.41149
G1 X125.733 Y136.272 E17.43164
G1 X125.275 Y136.669 E17.4518
G1 X124.768 Y137.002 E17.47197
G1 X124.222 Y137.266 E17.49214
G1 X123.646 Y137.455 E17.51231
G1 X123.05 Y137.567 E17.53248
G1 X122.5 Y137.6 E17.5508
G1 X112.5 Y137.6 E17.8834
G1 X111.895 Y137.56 E17.90357
G1 X111.301 Y137.441 E17.92372
G1 X110.727 Y137.245 E17.94389
G1 X110.184 Y136.974 E17.96408
G1 X109.681 Y136.635 E17.98425
G1 X109.228 Y136.233 E18.0044
G1 X108.831 Y135.775 E18.02455
G1 X108.498 Y135.268 E18.04473
G1 X108.234 Y134.722 E18.0649
G1 X108.045 Y134.146 E18.08506
G1 X107.933 Y133.55 E18.10523
G1 X107.9 Y133 E18.12356
G1 X107.9 Y127.1 E18.31979
G1 X102.5 Y127.1 E18.4994
G1 X101.895 Y127.06 E18.51957
G1 X101.301 Y126.941 E18.53971
G1 X100.727 Y126.745 E18.55989
G1 X100.184 Y126.474 E18.58007
G1 X99.681 Y126.135 E18.60025
G1 X99.228 Y125.733 E18.62039
G1 X98.831 Y125.275 E18.64055
G1 X98.498 Y124.768 E18.66073
G1 X98.234 Y124.222 E18.6809
G1 X98.045 Y123.646 E18.70106
G1 X97.933 Y123.05 E18.72123
G1 X97.9 Y122.5 E18.73956
G1 X97.9 Y112.5 E19.07216
G1 X97.94 Y111.895 E19.09232
G1 X98.059 Y111.301 E19.11247
G1 X98.255 Y110.727 E19.13265
G1 X98.526 Y110.184 E19.15283
G1 X98.865 Y109.681 E19.17301
G1 X99.267 Y109.228 E19.19315
G1 X99.725 Y108.831 E19.21331
G1 X100.232 Y108.498 E19.23348
G1 X100.778 Y108.234 E19.25366
G1 X101.354 Y108.045 E19.27382
G1 X101.95 Y107.933 E19.29399
G1 X102.5 Y107.9 E19.31231
G1 X107.9 Y107.9 E19.49192
G1 X107.9 Y102 E19.68815
G0 F6000 X108.3 Y102
G1 F900 X108.34 Y101.422 E19.70742
G1 X108.459 Y100.855 E19.72669
G1 X108.655 Y100.31 E19.74596
G1 X108.924 Y99.797 E19.76522
G1 X109.261 Y99.326 E19.78449
G1 X109.66 Y98.906 E19.80375
G1 X110.113 Y98.544 E19.82304
G1 X110.611 Y98.249 E19.84229
G1 X111.145 Y98.024 E19.86156
G1 X111.705 Y97.876 E19.88083
G1 X112.5 Y97.8 E19.90739
G1 X122.5 Y97.8 E20.23999
G1 X123.078 Y97.84 E20.25926
G1 X123.645 Y97.959 E20.27853
G1 X124.19 Y98.155 E20.2978
G1 X124.703 Y98.424 E20.31706
G1 X125.174 Y98.761 E20.33632
G1 X125.594 Y99.16 E20.35559
G1 X125.956 Y99.613 E20.37488
G1 X126.251 Y100.111 E20.39413
G1 X126.476 Y100.645 E20.4134
G1 X126.624 Y101.205 E20.43267
G1 X126.7 Y102 E20.45923
G1 X126.7 Y108.3 E20.66877
G1 X132.5 Y108.3 E20.86168
G1 X133.078 Y108.34 E20.88095
