;FLAVOR:Marlin
;TIME:832
;Filament used: 0.374678m
;Layer height: 0.2
;MINX:99.7
;MINY:104.7
;MINZ:0.2
;MAXX:135.3
;MAXY:130.3
;MAXZ:9
;Generated with Cura_SteamEngine main
M140 S65
M105
M190 S65
M104 S240
M105
M109 S240
M82 ;absolute extrusion mode
; Ender 3 Custom Start G-code
G92 E0 ; Reset Extruder
G28 ; Home all axes
G1 Z2.0 F3000 ; Move Z Axis up little to prevent scratching of Heat Bed
G1 X0.1 Y20 Z0.3 F5000.0 ; Move to start position
G1 X0.1 Y200.0 Z0.3 F1500.0 E15 ; Draw the first line
G1 X0.4 Y200.0 Z0.3 F5000.0 ; Move to side a little
G1 X0.4 Y20 Z0.3 F1500.0 E30 ; Draw the second line
G92 E0 ; Reset Extruder
G1 Z2.0 F3000 ; Move Z Axis up little to prevent scratching of Heat Bed
G1 X5 Y20 Z0.3 F5000.0 ; Move over to prevent blob squish
G92 E0
G92 E0
G1 F2700 E-5
;LAYER_COUNT:45
;LAYER:0
M107
G0 F6000 X102.123 Y106.849 Z0.2
G0 X99.7 Y112.5
;TYPE:SKIRT
G1 F2700 E0
G1 F900 X99.74 Y111.711 E0.02628
G1 X99.859 Y110.931 E0.05252
G1 X100.057 Y110.166 E0.0788
G1 X100.331 Y109.426 E0.10505
G1 X100.679 Y108.717 E0.13132
G1 X101.097 Y108.046 E0.15761
G1 X101.58 Y107.422 E0.18385
G1 X102.123 Y106.849 E0.21011
G1 X102.722 Y106.334 E0.23638
G1 X103.37 Y105.883 E0.26264
G1 X104.061 Y105.499 E0.28894
G1 X104.786 Y105.187 E0.31519
G1 X105.539 Y104.95 E0.34144
G1 X106.313 Y104.791 E0.36773
G1 X107.098 Y104.71 E0.39397
G1 X107.5 Y104.7 E0.40735
G1 X111 Y104.7 E0.52376
G1 X111.789 Y104.74 E0.55003
G1 X112.569 Y104.859 E0.57628
G1 X113.334 Y105.057 E0.60256
G1 X114.074 Y105.331 E0.62881
G1 X114.817 Y105.7 E0.6564
G1 X120.199 Y105.7 E0.8354
G1 X120.561 Y105.499 E0.84918
G1 X121.286 Y105.187 E0.87543
G1 X122.039 Y104.95 E0.90168
G1 X122.813 Y104.791 E0.92796
G1 X123.598 Y104.71 E0.95421
G1 X124 Y104.7 E0.96759
G1 X127.5 Y104.7 E1.084
G1 X128.289 Y104.74 E1.11027
G1 X129.069 Y104.859 E1.13652
G1 X129.834 Y105.057 E1.1628
G1 X130.574 Y105.331 E1.18904
G1 X131.283 Y105.679 E1.21531
G1 X131.954 Y106.097 E1.24161
G1 X132.578 Y106.58 E1.26785
G1 X133.151 Y107.123 E1.29411
G1 X133.666 Y107.722 E1.32038
G1 X134.117 Y108.37 E1.34664
G1 X134.501 Y109.061 E1.37293
G1 X134.813 Y109.786 E1.39919
G1 X135.05 Y110.539 E1.42544
G1 X135.209 Y111.313 E1.45172
G1 X135.29 Y112.098 E1.47797
G1 X135.3 Y112.5 E1.49134
G1 X135.3 Y122.5 E1.82395
G1 X135.26 Y123.289 E1.85022
G1 X135.141 Y124.069 E1.87647
G1 X134.943 Y124.834 E1.90275
G1 X134.669 Y125.574 E1.92899
G1 X134.321 Y126.283 E1.95526
G1 X133.903 Y126.954 E1.98156
G1 X133.42 Y127.578 E2.0078
G1 X132.877 Y128.151 E2.03406
G1 X132.278 Y128.666 E2.06033
G1 X131.63 Y129.117 E2.08659
G1 X130.939 Y129.501 E2.11288
G1 X130.214 Y129.813 E2.13913
G1 X129.461 Y130.05 E2.16539
G1 X128.687 Y130.209 E2.19167
G1 X127.902 Y130.29 E2.21792
G1 X127.5 Y130.3 E2.23129
G1 X125.5 Y130.3 E2.29781
G1 X124.711 Y130.26 E2.32409
G1 X123.931 Y130.141 E2.35033
G1 X123.166 Y129.943 E2.37662
G1 X122.426 Y129.669 E2.40286
G1 X121.717 Y129.321 E2.42913
G1 X121.046 Y128.903 E2.45542
G1 X120.422 Y128.42 E2.48167
G1 X119.849 Y127.877 E2.50793
G1 X119.334 Y127.278 E2.5342
G1 X118.883 Y126.63 E2.56046
G1 X118.499 Y125.939 E2.58675
G1 X118.332 Y125.551 E2.6008
G1 X117.916 Y125.443 E2.6151
G1 X117.511 Y125.293 E2.62946
G1 X116.675 Y125.557 E2.65862
G1 X116.321 Y126.283 E2.68548
G1 X115.903 Y126.954 E2.71178
G1 X115.42 Y127.578 E2.73802
G1 X114.877 Y128.151 E2.76428
G1 X114.278 Y128.666 E2.79055
G1 X113.63 Y129.117 E2.81681
G1 X112.939 Y129.501 E2.8431
G1 X112.214 Y129.813 E2.86936
G1 X111.461 Y130.05 E2.89561
G1 X110.687 Y130.209 E2.92189
G1 X109.902 Y130.29 E2.94814
G1 X109.5 Y130.3 E2.96152
G1 X107.5 Y130.3 E3.02804
G1 X106.711 Y130.26 E3.05431
G1 X105.931 Y130.141 E3.08056
G1 X105.166 Y129.943 E3.10684
G1 X104.426 Y129.669 E3.13308
G1 X103.717 Y129.321 E3.15935
G1 X103.046 Y128.903 E3.18565
G1 X102.422 Y128.42 E3.21189
G1 X101.849 Y127.877 E3.23815
G1 X101.334 Y127.278 E3.26442
G1 X100.883 Y126.63 E3.29068
G1 X100.499 Y125.939 E3.31697
G1 X100.187 Y125.214 E3.34322
G1 X99.95 Y124.461 E3.36948
G1 X99.791 Y123.687 E3.39576
G1 X99.71 Y122.902 E3.42201
G1 X99.7 Y122.5 E3.43538
G1 X99.7 Y112.5 E3.76799
G0 F6000 X100.1 Y112.5
G1 F900 X100.14 Y111.732 E3.79356
G1 X100.259 Y110.972 E3.81915
G1 X100.457 Y110.229 E3.84472
G1 X100.731 Y109.51 E3.87032
G1 X101.078 Y108.824 E3.89589
G1 X101.494 Y108.177 E3.92147
G1 X101.975 Y107.577 E3.94705
G1 X102.516 Y107.03 E3.97263
G1 X103.111 Y106.542 E3.99823
G1 X103.753 Y106.119 E4.0238
G1 X104.436 Y105.764 E4.0494
G1 X105.151 Y105.483 E4.07495
G1 X105.893 Y105.277 E4.10057
G1 X106.651 Y105.149 E4.12613
G1 X107.5 Y105.1 E4.15442
G1 X111 Y105.1 E4.27083
G1 X111.768 Y105.14 E4.29641
G1 X112.528 Y105.259 E4.32199
G1 X113.271 Y105.457 E4.34757
G1 X113.99 Y105.731 E4.37316
G1 X114.71 Y106.1 E4.40007
G1 X120.29 Y106.1 E4.58566
G1 X120.936 Y105.764 E4.60988
G1 X121.651 Y105.483 E4.63543
G1 X122.393 Y105.277 E4.66104
G1 X123.151 Y105.149 E4.68661
G1 X124 Y105.1 E4.7149
G1 X127.5 Y105.1 E4.83131
G1 X128.268 Y105.14 E4.85689
G1 X129.028 Y105.259 E4.88247
G1 X129.771 Y105.457 E4.90805
G1 X130.49 Y105.731 E4.93364
G1 X131.176 Y106.078 E4.95921
G1 X131.823 Y106.494 E4.98479
G1 X132.423 Y106.975 E5.01037
G1 X132.97 Y107.516 E5.03596
G1 X133.458 Y108.111 E5.06155
G1 X133.881 Y108.753 E5.08712
G1 X134.236 Y109.436 E5.11272
G1 X134.517 Y110.151 E5.13828
G1 X134.723 Y110.893 E5.16389
G1 X134.851 Y111.651 E5.18946
G1 X134.9 Y112.5 E5.21774
G1 X134.9 Y122.5 E5.55034
G1 X134.86 Y123.268 E5.57592
G1 X134.741 Y124.028 E5.60151
G1 X134.543 Y124.771 E5.62708
G1 X134.269 Y125.49 E5.65267
G1 X133.922 Y126.176 E5.67824
G1 X133.506 Y126.823 E5.70383
G1 X133.025 Y127.423 E5.7294
G1 X132.484 Y127.97 E5.75499
G1 X131.889 Y128.458 E5.78059
G1 X131.247 Y128.881 E5.80616
G1 X130.564 Y129.236 E5.83176
G1 X129.849 Y129.517 E5.85731
G1 X129.107 Y129.723 E5.88292
G1 X128.349 Y129.851 E5.90849
G1 X127.5 Y129.9 E5.93678
G1 X125.5 Y129.9 E6.0033
G1 X124.732 Y129.86 E6.02887
G1 X123.972 Y129.741 E6.05446
G1 X123.229 Y129.543 E6.08003
G1 X122.51 Y129.269 E6.10563
G1 X121.824 Y128.922 E6.1312
G1 X121.177 Y128.506 E6.15678
G1 X120.577 Y128.025 E6.18236
G1 X120.03 Y127.484 E6.20794
G1 X119.542 Y126.889 E6.23354
G1 X119.119 Y126.247 E6.25911
G1 X118.764 Y125.564 E6.28471
G1 X118.627 Y125.216 E6.29715
G1 X117.979 Y125.043 E6.31946
G1 X117.499 Y124.86 E6.33655
G1 X117.099 Y125.017 E6.35084
G1 X116.372 Y125.219 E6.37593
G1 X116.269 Y125.49 E6.38558
G1 X115.922 Y126.176 E6.41115
G1 X115.506 Y126.823 E6.43673
G1 X115.025 Y127.423 E6.46231
G1 X114.484 Y127.97 E6.48789
G1 X113.889 Y128.458 E6.51349
G1 X113.247 Y128.881 E6.53906
G1 X112.564 Y129.236 E6.56466
G1 X111.849 Y129.517 E6.59021
G1 X111.107 Y129.723 E6.61583
G1 X110.349 Y129.851 E6.64139
G1 X109.5 Y129.9 E6.66968
G1 X107.5 Y129.9 E6.7362
G1 X106.732 Y129.86 E6.76178
G1 X105.972 Y129.741 E6.78736
G1 X105.229 Y129.543 E6.81294
G1 X104.51 Y129.269 E6.83853
G1 X103.824 Y128.922 E6.8641
G1 X103.177 Y128.506 E6.88968
G1 X102.577 Y128.025 E6.91526
G1 X102.03 Y127.484 E6.94085
G1 X101.542 Y126.889 E6.96644
G1 X101.119 Y126.247 E6.99201
G1 X100.764 Y125.564 E7.01762
G1 X100.483 Y124.849 E7.04317
G1 X100.277 Y124.107 E7.06878
G1 X100.149 Y123.349 E7.09435
G1 X100.1 Y122.5 E7.12263
G1 X100.1 Y112.5 E7.45523
G0 F6000 X100.5 Y112.5
G1 F900 X100.54 Y111.753 E7.48012
G1 X100.659 Y111.015 E7.50498
G1 X100.857 Y110.293 E7.52988
G1 X101.13 Y109.597 E7.55475
G1 X101.477 Y108.934 E7.57963
G1 X101.892 Y108.311 E7.60453
G1 X102.371 Y107.737 E7.6294
G1 X102.908 Y107.216 E7.65428
G1 X103.498 Y106.757 E7.67915
G1 X104.134 Y106.362 E7.70405
G1 X104.808 Y106.038 E7.72892
G1 X105.513 Y105.788 E7.7538
G1 X106.241 Y105.614 E7.77869
G1 X106.983 Y105.519 E7.80357
G1 X107.5 Y105.5 E7.82078
G1 X111 Y105.5 E7.93719
G1 X111.747 Y105.54 E7.96207
G1 X112.485 Y105.659 E7.98694
G1 X113.207 Y105.857 E8.01184
G1 X113.903 Y106.13 E8.0367
G1 X114.601 Y106.5 E8.06298
G1 X120.412 Y106.5 E8.25625
G1 X120.634 Y106.362 E8.26495
G1 X121.308 Y106.038 E8.28982
G1 X122.013 Y105.788 E8.3147
G1 X122.741 Y105.614 E8.33959
G1 X123.483 Y105.519 E8.36447
G1 X124 Y105.5 E8.38168
G1 X127.5 Y105.5 E8.49809
G1 X128.247 Y105.54 E8.52297
G1 X128.985 Y105.659 E8.54784
G1 X129.707 Y105.857 E8.57274
G1 X130.403 Y106.13 E8.5976
G1 X131.066 Y106.477 E8.62249
G1 X131.689 Y106.892 E8.64739
G1 X132.263 Y107.371 E8.67225
G1 X132.784 Y107.908 E8.69714
G1 X133.243 Y108.498 E8.722
G1 X133.638 Y109.134 E8.7469
G1 X133.962 Y109.808 E8.77178
G1 X134.212 Y110.513 E8.79666
G1 X134.386 Y111.241 E8.82155
G1 X134.481 Y111.983 E8.84643
G1 X134.5 Y112.5 E8.86364
G1 X134.5 Y122.5 E9.19624
G1 X134.46 Y123.247 E9.22112
G1 X134.341 Y123.985 E9.24598
G1 X134.143 Y124.707 E9.27088
G1 X133.87 Y125.403 E9.29575
G1 X133.523 Y126.066 E9.32064
G1 X133.108 Y126.689 E9.34554
G1 X132.629 Y127.263 E9.3704
G1 X132.092 Y127.784 E9.39529
G1 X131.502 Y128.243 E9.42015
G1 X130.866 Y128.638 E9.44505
G1 X130.192 Y128.962 E9.46992
G1 X129.487 Y129.212 E9.4948
G1 X128.759 Y129.386 E9.5197
G1 X128.017 Y129.481 E9.54458
G1 X127.5 Y129.5 E9.56179
G1 X125.5 Y129.5 E9.62831
G1 X124.753 Y129.46 E9.65319
G1 X124.015 Y129.341 E9.67805
G1 X123.293 Y129.143 E9.70295
G1 X122.597 Y128.87 E9.72782
G1 X121.934 Y128.523 E9.75271
G1 X121.311 Y128.108 E9.7776
G1 X120.737 Y127.629 E9.80247
G1 X120.216 Y127.092 E9.82736
G1 X119.757 Y126.502 E9.85222
G1 X119.362 Y125.866 E9.87712
G1 X119.038 Y125.192 E9.90199
G1 X118.93 Y124.886 E9.91278
G1 X118.043 Y124.643 E9.94337
G1 X117.515 Y124.436 E9.96224
G1 X116.737 Y124.712 E9.98969
G1 X116.079 Y124.869 E10.01219
G1 X115.87 Y125.403 E10.03126
G1 X115.523 Y126.066 E10.05615
G1 X115.108 Y126.689 E10.08105
G1 X114.629 Y127.263 E10.10592
G1 X114.092 Y127.784 E10.1308
G1 X113.502 Y128.243 E10.15566
G1 X112.866 Y128.638 E10.18057
G1 X112.192 Y128.962 E10.20544
G1 X111.487 Y129.212 E10.23032
G1 X110.759 Y129.386 E10.25521
G1 X110.017 Y129.481 E10.28009
G1 X109.5 Y129.5 E10.2973
G1 X107.5 Y129.5 E10.36382
G1 X106.753 Y129.46 E10.3887
G1 X106.015 Y129.341 E10.41357
G1 X105.293 Y129.143 E10.43847
G1 X104.597 Y128.87 E10.46333
G1 X103.934 Y128.523 E10.48822
G1 X103.311 Y128.108 E10.51312
G1 X102.737 Y127.629 E10.53798
G1 X102.216 Y127.092 E10.56287
G1 X101.757 Y126.502 E10.58773
G1 X101.362 Y125.866 E10.61263
G1 X101.038 Y125.192 E10.63751
G1 X100.788 Y124.487 E10.66239
G1 X100.614 Y123.759 E10.68728
G1 X100.519 Y123.017 E10.71216
G1 X100.5 Y122.5 E10.72937
G1 X100.5 Y112.5 E11.06197
G0 F6000 X100.9 Y112.5
G1 F900 X100.94 Y111.775 E11.08612
G1 X101.059 Y111.058 E11.11029
G1 X101.257 Y110.359 E11.13446
G1 X101.53 Y109.686 E11.15861
G1 X101.875 Y109.047 E11.18277
G1 X102.289 Y108.45 E11.20693
G1 X102.765 Y107.902 E11.23107
G1 X103.299 Y107.409 E11.25524
G1 X103.884 Y106.979 E11.27939
G1 X104.513 Y106.615 E11.30356
G1 X105.178 Y106.322 E11.32773
G1 X105.871 Y106.104 E11.3519
G1 X106.583 Y105.964 E11.37603
G1 X107.5 Y105.9 E11.4066
G1 X111 Y105.9 E11.52301
G1 X111.725 Y105.94 E11.54717
G1 X112.442 Y106.059 E11.57134
G1 X113.141 Y106.257 E11.5955
G1 X113.814 Y106.53 E11.61966
G1 X114.489 Y106.9 E11.64526
G1 X120.521 Y106.9 E11.84589
G1 X121.013 Y106.615 E11.8648
G1 X121.678 Y106.322 E11.88897
G1 X122.371 Y106.104 E11.91313
G1 X123.083 Y105.964 E11.93726
G1 X124 Y105.9 E11.96784
G1 X127.5 Y105.9 E12.08425
G1 X128.225 Y105.94 E12.1084
G1 X128.942 Y106.059 E12.13257
G1 X129.641 Y106.257 E12.15674
G1 X130.314 Y106.53 E12.18089
G1 X130.953 Y106.875 E12.20504
G1 X131.55 Y107.289 E12.22921
G1 X132.098 Y107.765 E12.25335
G1 X132.591 Y108.299 E12.27752
G1 X133.021 Y108.884 E12.30167
G1 X133.385 Y109.513 E12.32584
G1 X133.678 Y110.178 E12.35001
G1 X133.896 Y110.871 E12.37417
G1 X134.036 Y111.583 E12.39831
G1 X134.1 Y112.5 E12.42888
G1 X134.1 Y122.5 E12.76148
G1 X134.06 Y123.225 E12.78563
G1 X133.941 Y123.942 E12.80981
G1 X133.743 Y124.641 E12.83397
G1 X133.47 Y125.314 E12.85813
G1 X133.125 Y125.953 E12.88228
G1 X132.711 Y126.55 E12.90644
G1 X132.235 Y127.098 E12.93059
G1 X131.701 Y127.591 E12.95476
G1 X131.116 Y128.021 E12.97891
G1 X130.487 Y128.385 E13.00308
G1 X129.822 Y128.678 E13.02725
G1 X129.129 Y128.896 E13.05141
G1 X128.417 Y129.036 E13.07555
G1 X127.5 Y129.1 E13.10612
G1 X125.5 Y129.1 E13.17264
G1 X124.775 Y129.06 E13.19679
G1 X124.058 Y128.941 E13.22096
G1 X123.359 Y128.743 E13.24513
G1 X122.686 Y128.47 E13.26928
G1 X122.047 Y128.125 E13.29344
G1 X121.45 Y127.711 E13.3176
G1 X120.902 Y127.235 E13.34174
G1 X120.409 Y126.701 E13.36591
G1 X119.979 Y126.116 E13.39006
G1 X119.615 Y125.487 E13.41423
G1 X119.322 Y124.822 E13.4384
G1 X119.224 Y124.51 E13.44928
G1 X118.808 Y124.441 E13.46331
G1 X118.109 Y124.243 E13.48747
G1 X117.492 Y123.993 E13.50961
G1 X117.072 Y124.178 E13.52488
G1 X116.379 Y124.396 E13.54904
G1 X115.796 Y124.511 E13.5688
G1 X115.47 Y125.314 E13.59763
G1 X115.125 Y125.953 E13.62178
G1 X114.711 Y126.55 E13.64594
G1 X114.235 Y127.098 E13.67009
G1 X113.701 Y127.591 E13.69426
G1 X113.116 Y128.021 E13.71841
G1 X112.487 Y128.385 E13.74258
G1 X111.822 Y128.678 E13.76675
G1 X111.129 Y128.896 E13.79091
G1 X110.417 Y129.036 E13.81505
G1 X109.5 Y129.1 E13.84562
G1 X107.5 Y129.1 E13.91214
G1 X106.775 Y129.06 E13.93629
G1 X106.058 Y128.941 E13.96046
G1 X105.359 Y128.743 E13.98463
G1 X104.686 Y128.47 E14.00878
G1 X104.047 Y128.125 E14.03294
G1 X103.45 Y127.711 E14.0571
G1 X102.902 Y127.235 E14.08124
G1 X102.409 Y126.701 E14.10541
G1 X101.979 Y126.116 E14.12956
G1 X101.615 Y125.487 E14.15373
G1 X101.322 Y124.822 E14.1779
G1 X101.104 Y124.129 E14.20207
G1 X100.964 Y123.417 E14.2262
G1 X100.9 Y122.5 E14.25677
G1 X100.9 Y112.5 E14.58938
G0 F6000 X101.3 Y112.5
G1 F900 X101.34 Y111.797 E14.6128
G1 X101.459 Y111.103 E14.63621
G1 X101.657 Y110.428 E14.65961
G1 X101.929 Y109.779 E14.68302
G1 X102.274 Y109.165 E14.70644
G1 X102.685 Y108.594 E14.72984
G1 X103.159 Y108.073 E14.75327
G1 X103.689 Y107.609 E14.7767
G1 X104.268 Y107.209 E14.8001
G1 X104.889 Y106.877 E14.82352
G1 X105.543 Y106.617 E14.84693
G1 X106.223 Y106.433 E14.87036
G1 X106.919 Y106.327 E14.89378
G1 X107.5 Y106.3 E14.91312
G1 X111 Y106.3 E15.02953
G1 X111.703 Y106.34 E15.05295
G1 X112.397 Y106.459 E15.07637
G1 X113.072 Y106.657 E15.09977
G1 X113.721 Y106.929 E15.12317
G1 X114.371 Y107.3 E15.14807
G1 X120.636 Y107.3 E15.35644
G1 X120.768 Y107.209 E15.36177
G1 X121.389 Y106.877 E15.3852
G1 X122.043 Y106.617 E15.4086
G1 X122.723 Y106.433 E15.43203
G1 X123.419 Y106.327 E15.45545
G1 X124 Y106.3 E15.47479
G1 X127.5 Y106.3 E15.5912
G1 X128.203 Y106.34 E15.61462
G1 X128.897 Y106.459 E15.63804
G1 X129.572 Y106.657 E15.66144
G1 X130.221 Y106.929 E15.68485
G1 X130.835 Y107.274 E15.70827
G1 X131.406 Y107.685 E15.73167
G1 X131.927 Y108.159 E15.7551
G1 X132.391 Y108.689 E15.77853
G1 X132.791 Y109.268 E15.80193
G1 X133.123 Y109.889 E15.82535
G1 X133.383 Y110.543 E15.84876
G1 X133.567 Y111.223 E15.87219
G1 X133.673 Y111.919 E15.89561
G1 X133.7 Y112.5 E15.91495
G1 X133.7 Y122.5 E16.24755
G1 X133.66 Y123.203 E16.27097
G1 X133.541 Y123.897 E16.29439
G1 X133.343 Y124.572 E16.31779
G1 X133.071 Y125.221 E16.34119
G1 X132.726 Y125.835 E16.36462
G1 X132.315 Y126.406 E16.38802
G1 X131.841 Y126.927 E16.41145
G1 X131.311 Y127.391 E16.43487
G1 X130.732 Y127.791 E16.45828
G1 X130.111 Y128.123 E16.4817
G1 X129.457 Y128.383 E16.50511
G1 X128.777 Y128.567 E16.52854
G1 X128.081 Y128.673 E16.55196
G1 X127.5 Y128.7 E16.5713
G1 X125.5 Y128.7 E16.63782
G1 X124.797 Y128.66 E16.66124
G1 X124.103 Y128.541 E16.68466
G1 X123.428 Y128.343 E16.70806
G1 X122.779 Y128.071 E16.73146
G1 X122.165 Y127.726 E16.75489
G1 X121.594 Y127.315 E16.77829
G1 X121.073 Y126.841 E16.80171
G1 X120.609 Y126.311 E16.82514
G1 X120.209 Y125.732 E16.84855
