;FLAVOR:Marlin
;TIME:807
;Filament used: 0.349861m
;Layer height: 0.2
;MINX:99.7
;MINY:105.2
;MINZ:0.2
;MAXX:135.3
;MAXY:129.8
;MAXZ:9
;Generated with Cura_SteamEngine main
M140 S65
M105
M190 S65
M104 S240
M105
M109 S240
M82 ;absolute extrusion mode
; Ender 3 Custom Start G-code
G92 E0 ; Reset Extruder
G28 ; Home all axes
G1 Z2.0 F3000 ; Move Z Axis up little to prevent scratching of Heat Bed
G1 X0.1 Y20 Z0.3 F5000.0 ; Move to start position
G1 X0.1 Y200.0 Z0.3 F1500.0 E15 ; Draw the first line
G1 X0.4 Y200.0 Z0.3 F5000.0 ; Move to side a little
G1 X0.4 Y20 Z0.3 F1500.0 E30 ; Draw the second line
G92 E0 ; Reset Extruder
G1 Z2.0 F3000 ; Move Z Axis up little to prevent scratching of Heat Bed
G1 X5 Y20 Z0.3 F5000.0 ; Move over to prevent blob squish
G92 E0
G92 E0
G1 F2700 E-5
;LAYER_COUNT:45
;LAYER:0
M107
G0 F6000 X102.123 Y107.349 Z0.2
G0 X99.7 Y113
;TYPE:SKIRT
G1 F2700 E0
G1 F900 X99.74 Y112.211 E0.02628
G1 X99.859 Y111.431 E0.05252
G1 X100.057 Y110.666 E0.0788
G1 X100.331 Y109.926 E0.10505
G1 X100.679 Y109.217 E0.13132
G1 X101.097 Y108.546 E0.15761
G1 X101.58 Y107.922 E0.18385
G1 X102.123 Y107.349 E0.21011
G1 X102.722 Y106.834 E0.23638
G1 X103.37 Y106.383 E0.26264
G1 X104.061 Y105.999 E0.28894
G1 X104.786 Y105.687 E0.31519
G1 X105.539 Y105.45 E0.34144
G1 X106.313 Y105.291 E0.36773
G1 X107.098 Y105.21 E0.39397
G1 X107.5 Y105.2 E0.40735
G1 X127.5 Y105.2 E1.07255
G1 X128.289 Y105.24 E1.09883
G1 X129.069 Y105.359 E1.12507
G1 X129.834 Y105.557 E1.15135
G1 X130.574 Y105.831 E1.1776
G1 X131.283 Y106.179 E1.20387
G1 X131.954 Y106.597 E1.23016
G1 X132.578 Y107.08 E1.25641
G1 X133.151 Y107.623 E1.28266
G1 X133.666 Y108.222 E1.30894
G1 X134.117 Y108.87 E1.33519
G1 X134.501 Y109.561 E1.36149
G1 X134.813 Y110.286 E1.38774
G1 X135.05 Y111.039 E1.414
G1 X135.209 Y111.813 E1.44028
G1 X135.29 Y112.598 E1.46652
G1 X135.3 Y113 E1.4799
G1 X135.3 Y122 E1.77924
G1 X135.26 Y122.789 E1.80552
G1 X135.141 Y123.569 E1.83176
G1 X134.943 Y124.334 E1.85804
G1 X134.669 Y125.074 E1.88429
G1 X134.321 Y125.783 E1.91056
G1 X133.903 Y126.454 E1.93685
G1 X133.42 Y127.078 E1.96309
G1 X132.877 Y127.651 E1.98935
G1 X132.278 Y128.166 E2.01562
G1 X131.63 Y128.617 E2.04188
G1 X130.939 Y129.001 E2.06818
G1 X130.214 Y129.313 E2.09443
G1 X129.461 Y129.55 E2.12068
G1 X128.687 Y129.709 E2.14697
G1 X127.902 Y129.79 E2.17321
G1 X127.5 Y129.8 E2.18659
G1 X125.5 Y129.8 E2.25311
G1 X124.711 Y129.76 E2.27938
G1 X123.931 Y129.641 E2.30563
G1 X123.166 Y129.443 E2.33191
G1 X122.426 Y129.169 E2.35816
G1 X121.717 Y128.821 E2.38442
G1 X121.046 Y128.403 E2.41072
G1 X120.422 Y127.92 E2.43696
G1 X119.849 Y127.377 E2.46322
G1 X119.334 Y126.778 E2.48949
G1 X118.883 Y126.13 E2.51575
G1 X118.499 Y125.439 E2.54204
G1 X118.332 Y125.051 E2.55609
G1 X117.916 Y124.943 E2.57039
G1 X117.511 Y124.793 E2.58475
G1 X116.675 Y125.057 E2.61391
G1 X116.321 Y125.783 E2.64078
G1 X115.903 Y126.454 E2.66707
G1 X115.42 Y127.078 E2.69332
G1 X114.877 Y127.651 E2.71957
G1 X114.278 Y128.166 E2.74585
G1 X113.63 Y128.617 E2.77211
G1 X112.939 Y129.001 E2.7984
G1 X112.214 Y129.313 E2.82465
G1 X111.461 Y129.55 E2.85091
G1 X110.687 Y129.709 E2.87719
G1 X109.902 Y129.79 E2.90343
G1 X109.5 Y129.8 E2.91681
G1 X107.5 Y129.8 E2.98333
G1 X106.711 Y129.76 E3.00961
G1 X105.931 Y129.641 E3.03585
G1 X105.166 Y129.443 E3.06213
G1 X104.426 Y129.169 E3.08838
G1 X103.717 Y128.821 E3.11465
G1 X103.046 Y128.403 E3.14094
G1 X102.422 Y127.92 E3.16718
G1 X101.849 Y127.377 E3.19344
G1 X101.334 Y126.778 E3.21971
G1 X100.883 Y126.13 E3.24597
G1 X100.499 Y125.439 E3.27227
G1 X100.187 Y124.714 E3.29852
G1 X99.95 Y123.961 E3.32477
G1 X99.791 Y123.187 E3.35106
G1 X99.71 Y122.402 E3.3773
G1 X99.7 Y122 E3.39068
G1 X99.7 Y113 E3.69002
G0 F6000 X100.1 Y113
G1 F900 X100.14 Y112.232 E3.7156
G1 X100.259 Y111.472 E3.74118
G1 X100.457 Y110.729 E3.76676
G1 X100.731 Y110.01 E3.79235
G1 X101.078 Y109.324 E3.81792
G1 X101.494 Y108.677 E3.8435
G1 X101.975 Y108.077 E3.86908
G1 X102.516 Y107.53 E3.89467
G1 X103.111 Y107.042 E3.92026
G1 X103.753 Y106.619 E3.94583
G1 X104.436 Y106.264 E3.97144
G1 X105.151 Y105.983 E3.99699
G1 X105.893 Y105.777 E4.0226
G1 X106.651 Y105.649 E4.04817
G1 X107.5 Y105.6 E4.07645
G1 X127.5 Y105.6 E4.74166
G1 X128.268 Y105.64 E4.76723
G1 X129.028 Y105.759 E4.79282
G1 X129.771 Y105.957 E4.81839
G1 X130.49 Y106.231 E4.84399
G1 X131.176 Y106.578 E4.86956
G1 X131.823 Y106.994 E4.89514
G1 X132.423 Y107.475 E4.92072
G1 X132.97 Y108.016 E4.9463
G1 X133.458 Y108.611 E4.9719
G1 X133.881 Y109.253 E4.99747
G1 X134.236 Y109.936 E5.02307
G1 X134.517 Y110.651 E5.04862
G1 X134.723 Y111.393 E5.07424
G1 X134.851 Y112.151 E5.0998
G1 X134.9 Y113 E5.12809
G1 X134.9 Y122 E5.42743
G1 X134.86 Y122.768 E5.45301
G1 X134.741 Y123.528 E5.47859
G1 X134.543 Y124.271 E5.50417
G1 X134.269 Y124.99 E5.52976
G1 X133.922 Y125.676 E5.55533
G1 X133.506 Y126.323 E5.58091
G1 X133.025 Y126.923 E5.60649
G1 X132.484 Y127.47 E5.63208
G1 X131.889 Y127.958 E5.65767
G1 X131.247 Y128.381 E5.68325
G1 X130.564 Y128.736 E5.70885
G1 X129.849 Y129.017 E5.7344
G1 X129.107 Y129.223 E5.76001
G1 X128.349 Y129.351 E5.78558
G1 X127.5 Y129.4 E5.81386
G1 X125.5 Y129.4 E5.88038
G1 X124.732 Y129.36 E5.90596
G1 X123.972 Y129.241 E5.93155
G1 X123.229 Y129.043 E5.95712
G1 X122.51 Y128.769 E5.98271
G1 X121.824 Y128.422 E6.00828
G1 X121.177 Y128.006 E6.03387
G1 X120.577 Y127.525 E6.05944
G1 X120.03 Y126.984 E6.08503
G1 X119.542 Y126.389 E6.11063
G1 X119.119 Y125.747 E6.1362
G1 X118.764 Y125.064 E6.1618
G1 X118.627 Y124.716 E6.17424
G1 X117.979 Y124.543 E6.19655
G1 X117.499 Y124.36 E6.21363
G1 X117.099 Y124.517 E6.22793
G1 X116.372 Y124.719 E6.25302
G1 X116.269 Y124.99 E6.26266
G1 X115.922 Y125.676 E6.28823
G1 X115.506 Y126.323 E6.31382
G1 X115.025 Y126.923 E6.33939
G1 X114.484 Y127.47 E6.36498
G1 X113.889 Y127.958 E6.39058
G1 X113.247 Y128.381 E6.41615
G1 X112.564 Y128.736 E6.44175
G1 X111.849 Y129.017 E6.4673
G1 X111.107 Y129.223 E6.49291
G1 X110.349 Y129.351 E6.51848
G1 X109.5 Y129.4 E6.54677
G1 X107.5 Y129.4 E6.61329
G1 X106.732 Y129.36 E6.63887
G1 X105.972 Y129.241 E6.66445
G1 X105.229 Y129.043 E6.69003
G1 X104.51 Y128.769 E6.71562
G1 X103.824 Y128.422 E6.74119
G1 X103.177 Y128.006 E6.76677
G1 X102.577 Y127.525 E6.79235
G1 X102.03 Y126.984 E6.81794
G1 X101.542 Y126.389 E6.84353
G1 X101.119 Y125.747 E6.8691
G1 X100.764 Y125.064 E6.8947
G1 X100.483 Y124.349 E6.92026
G1 X100.277 Y123.607 E6.94587
G1 X100.149 Y122.849 E6.97144
G1 X100.1 Y122 E6.99972
G1 X100.1 Y113 E7.29906
G0 F6000 X100.5 Y113
G1 F900 X100.54 Y112.253 E7.32394
G1 X100.659 Y111.515 E7.34881
G1 X100.857 Y110.793 E7.37371
G1 X101.13 Y110.097 E7.39857
G1 X101.477 Y109.434 E7.42346
G1 X101.892 Y108.811 E7.44836
G1 X102.371 Y108.237 E7.47323
G1 X102.908 Y107.716 E7.49811
G1 X103.498 Y107.257 E7.52297
G1 X104.134 Y106.862 E7.54787
G1 X104.808 Y106.538 E7.57275
G1 X105.513 Y106.288 E7.59763
G1 X106.241 Y106.114 E7.62252
G1 X106.983 Y106.019 E7.6474
G1 X107.5 Y106 E7.66461
G1 X127.5 Y106 E8.32981
G1 X128.247 Y106.04 E8.35469
G1 X128.985 Y106.159 E8.37956
G1 X129.707 Y106.357 E8.40446
G1 X130.403 Y106.63 E8.42932
G1 X131.066 Y106.977 E8.45421
G1 X131.689 Y107.392 E8.47911
G1 X132.263 Y107.871 E8.50397
G1 X132.784 Y108.408 E8.52886
G1 X133.243 Y108.998 E8.55372
G1 X133.638 Y109.634 E8.57862
G1 X133.962 Y110.308 E8.6035
G1 X134.212 Y111.013 E8.62838
G1 X134.386 Y111.741 E8.65327
G1 X134.481 Y112.483 E8.67815
G1 X134.5 Y113 E8.69536
G1 X134.5 Y122 E8.9947
G1 X134.46 Y122.747 E9.01958
G1 X134.341 Y123.485 E9.04444
G1 X134.143 Y124.207 E9.06934
G1 X133.87 Y124.903 E9.09421
G1 X133.523 Y125.566 E9.1191
G1 X133.108 Y126.189 E9.144
G1 X132.629 Y126.763 E9.16886
G1 X132.092 Y127.284 E9.19375
G1 X131.502 Y127.743 E9.21861
G1 X130.866 Y128.138 E9.24351
G1 X130.192 Y128.462 E9.26838
G1 X129.487 Y128.712 E9.29326
G1 X128.759 Y128.886 E9.31816
G1 X128.017 Y128.981 E9.34304
G1 X127.5 Y129 E9.36025
G1 X125.5 Y129 E9.42677
G1 X124.753 Y128.96 E9.45165
G1 X124.015 Y128.841 E9.47651
G1 X123.293 Y128.643 E9.50141
G1 X122.597 Y128.37 E9.52628
G1 X121.934 Y128.023 E9.55117
G1 X121.311 Y127.608 E9.57606
G1 X120.737 Y127.129 E9.60093
G1 X120.216 Y126.592 E9.62582
G1 X119.757 Y126.002 E9.65068
G1 X119.362 Y125.366 E9.67558
G1 X119.038 Y124.692 E9.70045
G1 X118.93 Y124.386 E9.71124
G1 X118.043 Y124.143 E9.74183
G1 X117.515 Y123.936 E9.7607
G1 X116.737 Y124.212 E9.78815
G1 X116.079 Y124.369 E9.81065
G1 X115.87 Y124.903 E9.82972
G1 X115.523 Y125.566 E9.85461
G1 X115.108 Y126.189 E9.87951
G1 X114.629 Y126.763 E9.90438
G1 X114.092 Y127.284 E9.92926
G1 X113.502 Y127.743 E9.95412
G1 X112.866 Y128.138 E9.97903
G1 X112.192 Y128.462 E10.0039
G1 X111.487 Y128.712 E10.02878
G1 X110.759 Y128.886 E10.05367
G1 X110.017 Y128.981 E10.07855
G1 X109.5 Y129 E10.09576
G1 X107.5 Y129 E10.16228
G1 X106.753 Y128.96 E10.18716
G1 X106.015 Y128.841 E10.21203
G1 X105.293 Y128.643 E10.23693
G1 X104.597 Y128.37 E10.26179
G1 X103.934 Y128.023 E10.28668
G1 X103.311 Y127.608 E10.31158
G1 X102.737 Y127.129 E10.33644
G1 X102.216 Y126.592 E10.36133
G1 X101.757 Y126.002 E10.38619
G1 X101.362 Y125.366 E10.41109
G1 X101.038 Y124.692 E10.43597
G1 X100.788 Y123.987 E10.46085
G1 X100.614 Y123.259 E10.48574
G1 X100.519 Y122.517 E10.51062
G1 X100.5 Y122 E10.52783
G1 X100.5 Y113 E10.82717
G0 F6000 X100.9 Y113
G1 F900 X100.94 Y112.275 E10.85132
G1 X101.059 Y111.558 E10.87549
G1 X101.257 Y110.859 E10.89966
G1 X101.53 Y110.186 E10.92381
G1 X101.875 Y109.547 E10.94797
G1 X102.289 Y108.95 E10.97213
G1 X102.765 Y108.402 E10.99627
G1 X103.299 Y107.909 E11.02044
G1 X103.884 Y107.479 E11.04459
G1 X104.513 Y107.115 E11.06876
G1 X105.178 Y106.822 E11.09293
G1 X105.871 Y106.604 E11.1171
G1 X106.583 Y106.464 E11.14123
G1 X107.5 Y106.4 E11.1718
G1 X127.5 Y106.4 E11.83701
G1 X128.225 Y106.44 E11.86116
G1 X128.942 Y106.559 E11.88533
G1 X129.641 Y106.757 E11.90949
G1 X130.314 Y107.03 E11.93365
G1 X130.953 Y107.375 E11.9578
G1 X131.55 Y107.789 E11.98197
G1 X132.098 Y108.265 E12.00611
G1 X132.591 Y108.799 E12.03028
G1 X133.021 Y109.384 E12.05443
G1 X133.385 Y110.013 E12.0786
G1 X133.678 Y110.678 E12.10277
G1 X133.896 Y111.371 E12.12693
G1 X134.036 Y112.083 E12.15107
G1 X134.1 Y113 E12.18164
G1 X134.1 Y122 E12.48098
G1 X134.06 Y122.725 E12.50513
G1 X133.941 Y123.442 E12.52931
G1 X133.743 Y124.141 E12.55347
G1 X133.47 Y124.814 E12.57763
G1 X133.125 Y125.453 E12.60178
G1 X132.711 Y126.05 E12.62594
G1 X132.235 Y126.598 E12.65009
G1 X131.701 Y127.091 E12.67426
G1 X131.116 Y127.521 E12.69841
G1 X130.487 Y127.885 E12.72258
G1 X129.822 Y128.178 E12.74675
G1 X129.129 Y128.396 E12.77091
G1 X128.417 Y128.536 E12.79504
G1 X127.5 Y128.6 E12.82562
G1 X125.5 Y128.6 E12.89214
G1 X124.775 Y128.56 E12.91629
G1 X124.058 Y128.441 E12.94046
G1 X123.359 Y128.243 E12.96463
G1 X122.686 Y127.97 E12.98878
G1 X122.047 Y127.625 E13.01293
G1 X121.45 Y127.211 E13.0371
G1 X120.902 Y126.735 E13.06124
G1 X120.409 Y126.201 E13.08541
G1 X119.979 Y125.616 E13.10956
G1 X119.615 Y124.987 E13.13373
G1 X119.322 Y124.322 E13.1579
G1 X119.224 Y124.01 E13.16878
G1 X118.808 Y123.941 E13.1828
G1 X118.109 Y123.743 E13.20697
G1 X117.492 Y123.493 E13.22911
G1 X117.072 Y123.678 E13.24437
G1 X116.379 Y123.896 E13.26854
G1 X115.796 Y124.011 E13.2883
G1 X115.47 Y124.814 E13.31713
G1 X115.125 Y125.453 E13.34128
G1 X114.711 Y126.05 E13.36544
G1 X114.235 Y126.598 E13.38959
G1 X113.701 Y127.091 E13.41376
G1 X113.116 Y127.521 E13.43791
G1 X112.487 Y127.885 E13.46208
G1 X111.822 Y128.178 E13.48625
G1 X111.129 Y128.396 E13.51041
G1 X110.417 Y128.536 E13.53454
G1 X109.5 Y128.6 E13.56512
G1 X107.5 Y128.6 E13.63164
G1 X106.775 Y128.56 E13.65579
G1 X106.058 Y128.441 E13.67996
G1 X105.359 Y128.243 E13.70413
G1 X104.686 Y127.97 E13.72828
G1 X104.047 Y127.625 E13.75243
G1 X103.45 Y127.211 E13.7766
G1 X102.902 Y126.735 E13.80074
G1 X102.409 Y126.201 E13.82491
G1 X101.979 Y125.616 E13.84906
G1 X101.615 Y124.987 E13.87323
G1 X101.322 Y124.322 E13.8974
G1 X101.104 Y123.629 E13.92156
G1 X100.964 Y122.917 E13.9457
G1 X100.9 Y122 E13.97627
G1 X100.9 Y113 E14.27561
G0 F6000 X101.3 Y113
G1 F900 X101.34 Y112.297 E14.29903
G1 X101.459 Y111.603 E14.32245
G1 X101.657 Y110.928 E14.34585
G1 X101.929 Y110.279 E14.36925
G1 X102.274 Y109.665 E14.39268
G1 X102.685 Y109.094 E14.41608
G1 X103.159 Y108.573 E14.43951
G1 X103.689 Y108.109 E14.46294
G1 X104.268 Y107.709 E14.48634
G1 X104.889 Y107.377 E14.50976
G1 X105.543 Y107.117 E14.53317
G1 X106.223 Y106.933 E14.5566
G1 X106.919 Y106.827 E14.58002
G1 X107.5 Y106.8 E14.59936
G1 X127.5 Y106.8 E15.26456
G1 X128.203 Y106.84 E15.28798
G1 X128.897 Y106.959 E15.3114
G1 X129.572 Y107.157 E15.3348
G1 X130.221 Y107.429 E15.3582
G1 X130.835 Y107.774 E15.38163
G1 X131.406 Y108.185 E15.40503
G1 X131.927 Y108.659 E15.42846
G1 X132.391 Y109.189 E15.45189
G1 X132.791 Y109.768 E15.47529
G1 X133.123 Y110.389 E15.49871
G1 X133.383 Y111.043 E15.52212
G1 X133.567 Y111.723 E15.54555
G1 X133.673 Y112.419 E15.56897
G1 X133.7 Y113 E15.58831
G1 X133.7 Y122 E15.88765
G1 X133.66 Y122.703 E15.91107
G1 X133.541 Y123.397 E15.93449
G1 X133.343 Y124.072 E15.95789
G1 X133.071 Y124.721 E15.98129
G1 X132.726 Y125.335 E16.00472
G1 X132.315 Y125.906 E16.02812
G1 X131.841 Y126.427 E16.05154
G1 X131.311 Y126.891 E16.07497
G1 X130.732 Y127.291 E16.09838
G1 X130.111 Y127.623 E16.1218
G1 X129.457 Y127.883 E16.14521
G1 X128.777 Y128.067 E16.16864
G1 X128.081 Y128.173 E16.19206
G1 X127.5 Y128.2 E16.2114
G1 X125.5 Y128.2 E16.27792
G1 X124.797 Y128.16 E16.30134
G1 X124.103 Y128.041 E16.32476
G1 X123.428 Y127.843 E16.34816
G1 X122.779 Y127.571 E16.37156
G1 X122.165 Y127.226 E16.39499
G1 X121.594 Y126.815 E16.41839
G1 X121.073 Y126.341 E16.44181
G1 X120.609 Y125.811 E16.46524
G1 X120.209 Y125.232 E16.48865
G1 X119.877 Y124.611 E16.51207
G1 X119.617 Y123.957 E16.53548
G1 X119.536 Y123.658 E16.54578
G1 X118.853 Y123.541 E16.56883
G1 X118.178 Y123.343 E16.59222
G1 X117.517 Y123.061 E16.61613
G1 X116.707 Y123.383 E16.64512
G1 X116.027 Y123.567 E16.66855
G1 X115.466 Y123.652 E16.68742
G1 X115.343 Y124.072 E16.70198
G1 X115.071 Y124.721 E16.72538
G1 X114.726 Y125.335 E16.74881
G1 X114.315 Y125.906 E16.7722
G1 X113.841 Y126.427 E16.79563
G1 X113.311 Y126.891 E16.81906
G1 X112.732 Y127.291 E16.84247
G1 X112.111 Y127.623 E16.86589
G1 X111.457 Y127.883 E16.8893
G1 X110.777 Y128.067 E16.91273
G1 X110.081 Y128.173 E16.93614
G1 X109.5 Y128.2 E16.95549
G1 X107.5 Y128.2 E17.02201
G1 X106.797 Y128.16 E17.04543
G1 X106.103 Y128.041 E17.06885
G1 X105.428 Y127.843 E17.09224
G1 X104.779 Y127.571 E17.11565
G1 X104.165 Y127.226 E17.13907
G1 X103.594 Y126.815 E17.16247
G1 X103.073 Y126.341 E17.1859
G1 X102.609 Y125.811 E17.20933
G1 X102.209 Y125.232 E17.23273
G1 X101.877 Y124.611 E17.25616
G1 X101.617 Y123.957 E17.27956
G1 X101.433 Y123.277 E17.30299
G1 X101.327 Y122.581 E17.32641
G1 X101.3 Y122 E17.34575
G1 X101.3 Y113 E17.6451
G0 F6000 X101.7 Y113
G1 F900 X101.74 Y112.32 E17.66775
G1 X101.859 Y111.65 E17.69039
G1 X102.056 Y110.998 E17.71304
G1 X102.328 Y110.374 E17.73568
G1 X102.672 Y109.786 E17.75834
G1 X103.082 Y109.242 E17.78099
G1 X103.553 Y108.751 E17.80362
G1 X104.078 Y108.317 E17.82628
G1 X104.65 Y107.948 E17.84892
G1 X105.262 Y107.649 E17.87157
G1 X105.904 Y107.424 E17.8942
G1 X106.569 Y107.275 E17.91687
G1 X107.5 Y107.2 E17.94793
G1 X127.5 Y107.2 E18.61313
G1 X128.18 Y107.24 E18.63579
G1 X128.85 Y107.359 E18.65842
G1 X129.502 Y107.556 E18.68108
G1 X130.126 Y107.828 E18.70372
G1 X130.714 Y108.172 E18.72638
G1 X131.258 Y108.582 E18.74903
G1 X131.749 Y109.053 E18.77166
G1 X132.183 Y109.578 E18.79432
G1 X132.552 Y110.15 E18.81696
G1 X132.851 Y110.762 E18.83961
