;FLAVOR:Marlin
;TIME:1291
;Filament used: 0.777696m
;Layer height: 0.2
;MINX:98.2
;MINY:91.308
;MINZ:0.2
;MAXX:136.796
;MAXY:143.678
;MAXZ:7
;Generated with Cura_SteamEngine main
M140 S65
M105
M190 S65
M104 S240
M105
M109 S240
M82 ;absolute extrusion mode
; Ender 3 Custom Start G-code
G92 E0 ; Reset Extruder
G28 ; Home all axes
G1 Z2.0 F3000 ; Move Z Axis up little to prevent scratching of Heat Bed
G1 X0.1 Y20 Z0.3 F5000.0 ; Move to start position
G1 X0.1 Y200.0 Z0.3 F1500.0 E15 ; Draw the first line
G1 X0.4 Y200.0 Z0.3 F5000.0 ; Move to side a little
G1 X0.4 Y20 Z0.3 F1500.0 E30 ; Draw the second line
G92 E0 ; Reset Extruder
G1 Z2.0 F3000 ; Move Z Axis up little to prevent scratching of Heat Bed
G1 X5 Y20 Z0.3 F5000.0 ; Move over to prevent blob squish
G92 E0
G92 E0
G1 F2700 E-5
;LAYER_COUNT:35
;LAYER:0
M107
G0 F6000 X101.174 Y94.489 Z0.2
G0 X98.308 Y101.651
;TYPE:SKIRT
G1 F2700 E0
G1 F900 X98.327 Y100.862 E0.02625
G1 X98.407 Y100.188 E0.04882
G1 X98.471 Y99.797 E0.062
G1 X98.69 Y98.843 E0.09456
G1 X98.801 Y98.468 E0.10757
G1 X99.063 Y97.723 E0.13383
G1 X99.36 Y97.083 E0.1573
G1 X99.541 Y96.735 E0.17035
G1 X100.027 Y95.924 E0.20179
G1 X100.247 Y95.603 E0.21473
G1 X100.726 Y94.975 E0.241
G1 X101.174 Y94.489 E0.26299
G1 X101.51 Y94.154 E0.27877
G1 X102.097 Y93.626 E0.30503
G1 X102.652 Y93.214 E0.32802
G1 X103.04 Y92.952 E0.34359
G1 X103.716 Y92.544 E0.36985
G1 X104.315 Y92.254 E0.39199
G1 X104.672 Y92.1 E0.40492
G1 X105.587 Y91.771 E0.43726
G1 X105.959 Y91.663 E0.45014
G1 X106.728 Y91.482 E0.47642
G1 X107.377 Y91.391 E0.49822
G1 X107.849 Y91.345 E0.51399
G1 X108.638 Y91.308 E0.54026
G1 X109.343 Y91.343 E0.56374
G1 X109.733 Y91.38 E0.57677
G1 X110.682 Y91.529 E0.60872
G1 X111.066 Y91.614 E0.6218
G1 X111.827 Y91.824 E0.64806
G1 X112.436 Y92.053 E0.6697
G1 X112.793 Y92.205 E0.6826
G1 X113.683 Y92.654 E0.71576
G1 X114.024 Y92.854 E0.72891
G1 X114.684 Y93.287 E0.75516
G1 X115.213 Y93.711 E0.77771
G1 X115.564 Y94.018 E0.79322
G1 X116.131 Y94.567 E0.81947
G1 X116.561 Y95.068 E0.84143
G1 X116.87 Y95.461 E0.85805
G1 X117.326 Y96.106 E0.88433
G1 X117.714 Y96.793 E0.91057
G1 X117.996 Y97.426 E0.93362
G1 X118.773 Y99.401 E1.00421
G1 X118.927 Y99.829 E1.01934
G1 X119.572 Y101.798 E1.08825
G1 X119.7 Y102.23 E1.10324
G1 X120.23 Y104.232 E1.17212
G1 X120.331 Y104.662 E1.18681
G1 X120.747 Y106.692 E1.25573
G1 X120.825 Y107.14 E1.27085
G1 X121.122 Y109.191 E1.33978
G1 X121.174 Y109.635 E1.35465
G1 X121.353 Y111.699 E1.42356
G1 X121.379 Y112.147 E1.43848
G1 X121.439 Y114.217 E1.50736
G1 X121.439 Y114.665 E1.52226
G1 X121.381 Y116.705 E1.59014
G1 X121.355 Y117.154 E1.6051
G1 X121.174 Y119.249 E1.67504
G1 X121.122 Y119.697 E1.69004
G1 X121.066 Y120.086 E1.70311
G1 X127.127 Y120.088 E1.9047
G1 X128.077 Y120.146 E1.93635
G1 X128.329 Y120.177 E1.9448
G1 X129.48 Y120.398 E1.98378
G1 X130.701 Y120.817 E2.02672
G1 X131.045 Y120.965 E2.03917
G1 X131.753 Y121.313 E2.06541
G1 X132.369 Y121.689 E2.08941
G1 X133.138 Y122.248 E2.12103
G1 X133.377 Y122.445 E2.13134
G1 X133.96 Y122.978 E2.15761
G1 X134.426 Y123.492 E2.18068
G1 X134.627 Y123.735 E2.19117
G1 X135.193 Y124.511 E2.22312
G1 X135.364 Y124.779 E2.23369
G1 X135.754 Y125.466 E2.25997
G1 X136.054 Y126.138 E2.28444
G1 X136.168 Y126.43 E2.29487
G1 X136.487 Y127.414 E2.32928
G1 X136.706 Y128.547 E2.36766
G1 X136.737 Y128.797 E2.37604
G1 X136.796 Y129.757 E2.40803
G1 X136.796 Y134.009 E2.54945
G1 X136.738 Y134.961 E2.58117
G1 X136.707 Y135.213 E2.58961
G1 X136.497 Y136.319 E2.62706
G1 X136.219 Y137.206 E2.65797
G1 X136.064 Y137.594 E2.67187
G1 X135.915 Y137.939 E2.68437
G1 X135.565 Y138.647 E2.71064
G1 X135.195 Y139.253 E2.73425
G1 X134.636 Y140.022 E2.76587
G1 X134.439 Y140.261 E2.77618
G1 X133.906 Y140.844 E2.80245
G1 X133.392 Y141.31 E2.82552
G1 X133.149 Y141.511 E2.83601
G1 X132.377 Y142.073 E2.86777
G1 X132.111 Y142.243 E2.87827
G1 X131.425 Y142.634 E2.90454
G1 X130.752 Y142.935 E2.92906
G1 X130.458 Y143.05 E2.93956
G1 X129.47 Y143.371 E2.97411
G1 X128.333 Y143.59 E3.01262
G1 X128.082 Y143.621 E3.02103
G1 X127.294 Y143.678 E3.04731
G1 X126.654 Y143.666 E3.0686
G1 X126.159 Y143.636 E3.08509
G1 X125.374 Y143.548 E3.11137
G1 X124.488 Y143.35 E3.14156
G1 X124.019 Y143.216 E3.15778
G1 X123.272 Y142.961 E3.18404
G1 X122.554 Y142.631 E3.21032
G1 X121.875 Y142.232 E3.23651
G1 X121.457 Y141.957 E3.25316
G1 X121.088 Y141.687 E3.26836
G1 X107.871 Y141.68 E3.70796
G1 X106.923 Y141.622 E3.73955
G1 X106.671 Y141.591 E3.748
G1 X105.52 Y141.37 E3.78698
G1 X104.299 Y140.951 E3.82991
G1 X103.955 Y140.803 E3.84237
G1 X103.247 Y140.455 E3.86861
G1 X102.631 Y140.079 E3.89261
G1 X101.857 Y139.516 E3.92445
G1 X101.616 Y139.317 E3.93484
G1 X101.033 Y138.784 E3.96111
G1 X100.567 Y138.268 E3.98424
G1 X100.368 Y138.027 E3.99463
G1 X99.807 Y137.257 E4.02632
G1 X99.636 Y136.989 E4.03689
G1 X99.246 Y136.302 E4.06317
G1 X98.946 Y135.63 E4.08765
G1 X98.832 Y135.338 E4.09807
G1 X98.513 Y134.354 E4.13248
G1 X98.294 Y133.221 E4.17086
G1 X98.263 Y132.971 E4.17924
G1 X98.204 Y132.017 E4.21103
G1 X98.2 Y126.889 E4.38159
G1 X98.239 Y126.1 E4.40786
G1 X98.358 Y125.32 E4.4341
G1 X98.555 Y124.555 E4.46038
G1 X98.793 Y123.9 E4.48356
G1 X99.4 Y122.434 E4.53633
G1 X99.824 Y121.221 E4.57907
G1 X100.197 Y119.897 E4.62482
G1 X100.475 Y118.636 E4.66777
G1 X100.685 Y117.324 E4.71196
G1 X100.82 Y115.99 E4.75655
G1 X100.875 Y114.677 E4.80026
G1 X100.852 Y113.334 E4.84494
G1 X100.756 Y112.05 E4.88776
G1 X100.573 Y110.693 E4.93331
G1 X100.328 Y109.425 E4.97626
G1 X99.992 Y108.12 E5.02108
G1 X99.588 Y106.856 E5.06522
G1 X98.935 Y105.166 E5.12548
G1 X98.689 Y104.416 E5.15173
G1 X98.582 Y103.975 E5.16682
G1 X98.487 Y103.527 E5.18205
G1 X98.362 Y102.747 E5.20833
G1 X98.32 Y102.112 E5.22949
G1 X98.308 Y101.651 E5.24483
G0 F6000 X98.708 Y101.641
G1 F900 X98.727 Y100.872 E5.27042
G1 X98.802 Y100.253 E5.29116
G1 X98.866 Y99.862 E5.30433
G1 X99.073 Y98.957 E5.33521
G1 X99.184 Y98.582 E5.34822
G1 X99.441 Y97.856 E5.37383
G1 X99.715 Y97.267 E5.39544
G1 X99.896 Y96.919 E5.40849
G1 X100.357 Y96.151 E5.43828
G1 X100.577 Y95.83 E5.45122
G1 X101.044 Y95.219 E5.4768
G1 X101.456 Y94.773 E5.49699
G1 X101.792 Y94.438 E5.51278
G1 X102.364 Y93.924 E5.53835
G1 X102.876 Y93.545 E5.55954
G1 X103.264 Y93.283 E5.57511
G1 X103.923 Y92.887 E5.60068
G1 X104.474 Y92.621 E5.62103
G1 X104.831 Y92.467 E5.63396
G1 X105.699 Y92.155 E5.66464
G1 X106.071 Y92.047 E5.67753
G1 X106.82 Y91.872 E5.70311
G1 X107.416 Y91.789 E5.72312
G1 X107.888 Y91.743 E5.7389
G1 X108.657 Y91.708 E5.7645
G1 X109.305 Y91.741 E5.78608
G1 X109.695 Y91.778 E5.79911
G1 X110.595 Y91.92 E5.82942
G1 X110.979 Y92.005 E5.8425
G1 X111.721 Y92.21 E5.8681
G1 X112.279 Y92.421 E5.88794
G1 X112.636 Y92.573 E5.90085
G1 X113.481 Y92.999 E5.93232
G1 X113.822 Y93.199 E5.94547
G1 X114.464 Y93.622 E5.97104
G1 X114.95 Y94.012 E5.99177
G1 X115.301 Y94.319 E6.00728
G1 X115.853 Y94.855 E6.03287
G1 X116.246 Y95.315 E6.05299
G1 X116.555 Y95.708 E6.06962
G1 X116.999 Y96.337 E6.09523
G1 X117.374 Y97.008 E6.12079
G1 X117.624 Y97.573 E6.14134
G1 X118.401 Y99.548 E6.21193
G1 X118.547 Y99.953 E6.22625
G1 X119.192 Y101.922 E6.29516
G1 X119.314 Y102.332 E6.30939
G1 X119.844 Y104.334 E6.37827
G1 X119.939 Y104.742 E6.3922
G1 X120.355 Y106.772 E6.46113
G1 X120.43 Y107.197 E6.47548
G1 X120.727 Y109.248 E6.54441
G1 X120.775 Y109.67 E6.55853
G1 X120.954 Y111.734 E6.62744
G1 X120.979 Y112.159 E6.6416
G1 X121.039 Y114.229 E6.71048
G1 X121.039 Y114.653 E6.72458
G1 X120.981 Y116.693 E6.79246
G1 X120.957 Y117.12 E6.80668
G1 X120.776 Y119.215 E6.87662
G1 X120.726 Y119.64 E6.89086
G1 X120.603 Y120.486 E6.91929
G1 X127.127 Y120.488 E7.13628
G1 X128.029 Y120.543 E7.16633
G1 X128.281 Y120.574 E7.17478
G1 X129.379 Y120.785 E7.21197
G1 X130.543 Y121.184 E7.25289
G1 X130.887 Y121.332 E7.26535
G1 X131.576 Y121.673 E7.29092
G1 X132.154 Y122.026 E7.31344
G1 X132.884 Y122.557 E7.34347
G1 X133.123 Y122.754 E7.35377
G1 X133.69 Y123.273 E7.37934
G1 X134.118 Y123.747 E7.40058
G1 X134.319 Y123.99 E7.41107
G1 X134.855 Y124.727 E7.44138
G1 X135.026 Y124.995 E7.45195
G1 X135.406 Y125.664 E7.47754
G1 X135.681 Y126.284 E7.5001
G1 X135.795 Y126.576 E7.51052
G1 X136.101 Y127.514 E7.54334
G1 X136.309 Y128.596 E7.57999
G1 X136.34 Y128.846 E7.58836
G1 X136.396 Y129.757 E7.61872
G1 X136.396 Y134.009 E7.76014
G1 X136.341 Y134.913 E7.79027
G1 X136.31 Y135.165 E7.79871
G1 X136.105 Y136.245 E7.83527
G1 X135.696 Y137.435 E7.87713
G1 X135.547 Y137.78 E7.88963
G1 X135.206 Y138.469 E7.91519
G1 X134.858 Y139.038 E7.93738
G1 X134.327 Y139.768 E7.9674
G1 X134.13 Y140.007 E7.9777
G1 X133.611 Y140.574 E8.00327
G1 X133.137 Y141.002 E8.02451
G1 X132.894 Y141.203 E8.035
G1 X132.162 Y141.736 E8.06512
G1 X131.896 Y141.906 E8.07562
G1 X131.227 Y142.286 E8.10121
G1 X130.607 Y142.563 E8.12379
G1 X130.313 Y142.678 E8.13429
G1 X129.369 Y142.985 E8.16731
G1 X128.284 Y143.193 E8.20405
G1 X128.033 Y143.224 E8.21246
G1 X127.266 Y143.279 E8.23804
G1 X126.678 Y143.266 E8.2576
G1 X126.183 Y143.236 E8.2741
G1 X125.419 Y143.15 E8.29967
G1 X124.598 Y142.965 E8.32766
G1 X124.129 Y142.831 E8.34388
G1 X123.401 Y142.582 E8.36947
G1 X122.704 Y142.258 E8.39504
G1 X122.095 Y141.898 E8.41857
G1 X121.677 Y141.623 E8.43521
G1 X121.219 Y141.287 E8.4541
G1 X107.871 Y141.28 E8.89806
G1 X106.971 Y141.225 E8.92805
G1 X106.719 Y141.194 E8.93649
G1 X105.621 Y140.983 E8.97368
G1 X104.457 Y140.584 E9.01461
G1 X104.113 Y140.436 E9.02706
G1 X103.424 Y140.095 E9.05263
G1 X102.846 Y139.742 E9.07516
G1 X102.111 Y139.207 E9.10539
G1 X101.87 Y139.008 E9.11579
G1 X101.303 Y138.488 E9.14138
G1 X100.876 Y138.014 E9.1626
G1 X100.677 Y137.773 E9.17299
G1 X100.145 Y137.041 E9.20309
G1 X99.974 Y136.773 E9.21366
G1 X99.594 Y136.104 E9.23925
G1 X99.319 Y135.484 E9.26181
G1 X99.205 Y135.192 E9.27224
G1 X98.899 Y134.254 E9.30505
G1 X98.691 Y133.172 E9.3417
G1 X98.66 Y132.922 E9.35008
G1 X98.604 Y132.017 E9.38024
G1 X98.6 Y126.889 E9.55079
G1 X98.639 Y126.121 E9.57637
G1 X98.758 Y125.361 E9.60196
G1 X98.955 Y124.617 E9.62755
G1 X99.163 Y124.053 E9.64755
G1 X99.774 Y122.576 E9.70071
G1 X100.205 Y121.345 E9.74409
G1 X100.583 Y120.003 E9.79046
G1 X100.87 Y118.704 E9.83471
G1 X101.082 Y117.376 E9.87944
G1 X101.22 Y116.012 E9.92504
G1 X101.275 Y114.687 E9.96914
G1 X101.252 Y113.314 E10.01482
G1 X101.154 Y112.016 E10.05811
G1 X100.968 Y110.635 E10.10446
G1 X100.717 Y109.335 E10.1485
G1 X100.373 Y108 E10.19435
G1 X99.966 Y106.727 E10.2388
G1 X99.308 Y105.022 E10.29958
G1 X99.069 Y104.291 E10.32516
G1 X98.973 Y103.892 E10.33881
G1 X98.878 Y103.444 E10.35405
G1 X98.758 Y102.684 E10.37964
G1 X98.72 Y102.102 E10.39904
G1 X98.708 Y101.641 E10.41437
G0 F6000 X99.107 Y101.63
G1 F900 X99.128 Y100.882 E10.43926
G1 X99.197 Y100.317 E10.45819
G1 X99.261 Y99.926 E10.47137
G1 X99.457 Y99.07 E10.50058
G1 X99.568 Y98.695 E10.51359
G1 X99.818 Y97.99 E10.53847
G1 X100.07 Y97.452 E10.55822
G1 X100.251 Y97.104 E10.57127
G1 X100.687 Y96.377 E10.59947
G1 X100.907 Y96.056 E10.61241
G1 X101.362 Y95.462 E10.6373
G1 X101.739 Y95.056 E10.65572
G1 X102.075 Y94.721 E10.6715
G1 X102.632 Y94.222 E10.69638
G1 X103.1 Y93.877 E10.71572
G1 X103.488 Y93.615 E10.73129
G1 X104.129 Y93.23 E10.75616
G1 X104.632 Y92.989 E10.77471
G1 X104.989 Y92.835 E10.78764
G1 X105.81 Y92.54 E10.81666
G1 X106.182 Y92.432 E10.82954
G1 X106.911 Y92.262 E10.85444
G1 X107.455 Y92.187 E10.8727
G1 X107.927 Y92.141 E10.88847
G1 X108.674 Y92.108 E10.91334
G1 X109.267 Y92.139 E10.93309
G1 X109.657 Y92.176 E10.94612
G1 X110.509 Y92.31 E10.97481
G1 X110.893 Y92.395 E10.98789
G1 X111.614 Y92.596 E11.01279
G1 X112.122 Y92.789 E11.03086
G1 X112.479 Y92.941 E11.04377
G1 X113.278 Y93.344 E11.07353
G1 X113.619 Y93.544 E11.08668
G1 X114.244 Y93.956 E11.11158
G1 X114.686 Y94.313 E11.13047
G1 X115.037 Y94.62 E11.14598
G1 X115.573 Y95.142 E11.17087
G1 X115.932 Y95.562 E11.18924
G1 X116.241 Y95.955 E11.20587
G1 X116.671 Y96.567 E11.23075
G1 X117.034 Y97.222 E11.25566
G1 X117.252 Y97.719 E11.27371
G1 X118.029 Y99.694 E11.3443
G1 X118.167 Y100.078 E11.35787
G1 X118.812 Y102.047 E11.42678
G1 X118.927 Y102.435 E11.44024
G1 X119.457 Y104.437 E11.50912
G1 X119.547 Y104.823 E11.5223
G1 X119.963 Y106.853 E11.59123
G1 X120.034 Y107.255 E11.6048
G1 X120.331 Y109.306 E11.67373
G1 X120.377 Y109.704 E11.68706
G1 X120.556 Y111.768 E11.75596
G1 X120.579 Y112.17 E11.76936
G1 X120.639 Y114.24 E11.83823
G1 X120.639 Y114.642 E11.8516
G1 X120.581 Y116.682 E11.91948
G1 X120.558 Y117.086 E11.93294
G1 X120.377 Y119.181 E12.00288
G1 X120.331 Y119.582 E12.01631
G1 X120.142 Y120.886 E12.06013
G1 X127.127 Y120.888 E12.29245
G1 X127.98 Y120.94 E12.32088
G1 X128.232 Y120.971 E12.32932
G1 X129.278 Y121.172 E12.36475
G1 X130.384 Y121.552 E12.40364
G1 X130.728 Y121.7 E12.4161
G1 X131.399 Y122.032 E12.441
G1 X131.939 Y122.364 E12.46208
G1 X132.629 Y122.865 E12.49044
G1 X132.868 Y123.062 E12.50074
G1 X133.419 Y123.568 E12.52563
G1 X133.81 Y124.002 E12.54506
G1 X134.011 Y124.245 E12.55554
G1 X134.518 Y124.942 E12.58421
G1 X134.689 Y125.21 E12.59478
G1 X135.057 Y125.861 E12.61966
G1 X135.309 Y126.429 E12.64032
G1 X135.423 Y126.721 E12.65075
G1 X135.714 Y127.617 E12.68208
G1 X135.912 Y128.646 E12.71694
G1 X135.943 Y128.896 E12.72531
G1 X135.996 Y129.757 E12.75401
G1 X135.996 Y134.009 E12.89543
G1 X135.944 Y134.864 E12.92392
G1 X135.913 Y135.116 E12.93236
G1 X135.718 Y136.145 E12.9672
G1 X135.329 Y137.276 E13.00698
G1 X135.18 Y137.621 E13.01948
G1 X134.657 Y138.608 E13.05663
G1 X134.52 Y138.823 E13.06511
G1 X134.019 Y139.513 E13.09347
G1 X133.822 Y139.752 E13.10377
G1 X133.316 Y140.303 E13.12865
G1 X132.882 Y140.694 E13.14808
G1 X132.639 Y140.895 E13.15857
G1 X131.947 Y141.399 E13.18704
G1 X131.681 Y141.569 E13.19754
G1 X131.03 Y141.938 E13.22243
G1 X130.461 Y142.19 E13.24313
G1 X130.167 Y142.305 E13.25363
G1 X129.267 Y142.598 E13.28511
G1 X128.235 Y142.796 E13.32006
G1 X127.984 Y142.827 E13.32847
G1 X127.238 Y142.879 E13.35334
G1 X126.703 Y142.867 E13.37114
G1 X126.208 Y142.837 E13.38764
G1 X125.464 Y142.752 E13.41254
G1 X124.708 Y142.581 E13.43832
G1 X124.239 Y142.447 E13.45455
G1 X123.532 Y142.203 E13.47942
G1 X122.854 Y141.885 E13.50433
G1 X122.315 Y141.564 E13.52519
G1 X121.897 Y141.289 E13.54184
G1 X121.352 Y140.887 E13.56436
G1 X107.871 Y140.88 E14.01274
G1 X107.02 Y140.828 E14.0411
G1 X106.768 Y140.797 E14.04954
G1 X105.722 Y140.596 E14.08497
G1 X104.616 Y140.216 E14.12387
G1 X104.272 Y140.068 E14.13632
G1 X103.601 Y139.736 E14.16122
G1 X103.061 Y139.404 E14.1823
G1 X102.366 Y138.899 E14.21088
G1 X102.125 Y138.7 E14.22127
G1 X101.574 Y138.193 E14.24618
G1 X101.184 Y137.759 E14.26558
G1 X100.985 Y137.518 E14.27598
G1 X100.482 Y136.826 E14.30443
G1 X100.311 Y136.558 E14.31501
G1 X99.943 Y135.907 E14.33988
G1 X99.691 Y135.339 E14.36055
G1 X99.577 Y135.047 E14.37097
G1 X99.286 Y134.151 E14.40231
G1 X99.088 Y133.122 E14.43716
G1 X99.057 Y132.872 E14.44554
G1 X99.004 Y132.016 E14.47406
G1 X99 Y126.888 E14.64462
G1 X99.039 Y126.141 E14.6695
G1 X99.158 Y125.403 E14.69436
G1 X99.355 Y124.681 E14.71925
G1 X99.532 Y124.206 E14.73611
G1 X100.152 Y122.709 E14.79001
G1 X100.585 Y121.468 E14.83372
G1 X100.973 Y120.093 E14.88124
G1 X101.262 Y118.785 E14.92579
G1 X101.479 Y117.427 E14.97153
G1 X101.618 Y116.052 E15.0175
G1 X101.675 Y114.681 E15.06314
G1 X101.652 Y113.313 E15.10865
G1 X101.55 Y111.95 E15.15411
G1 X101.364 Y110.575 E15.20026
G1 X101.106 Y109.241 E15.24545
G1 X100.761 Y107.899 E15.29153
G1 X100.34 Y106.582 E15.33752
G1 X99.682 Y104.878 E15.39827
G1 X99.364 Y103.809 E15.43537
G1 X99.269 Y103.361 E15.4506
G1 X99.153 Y102.622 E15.47548
G1 X99.119 Y102.091 E15.49318
G1 X99.107 Y101.63 E15.50852
G0 F6000 X99.507 Y101.62
