;FLAVOR:Marlin
;TIME:768
;Filament used: 0.422613m
;Layer height: 0.2
;MINX:100.2
;MINY:99.7
;MINZ:0.2
;MAXX:134.8
;MAXY:135.3
;MAXZ:4.6
;Generated with Cura_SteamEngine main
M140 S65
M105
M190 S65
M104 S240
M105
M109 S240
M82 ;absolute extrusion mode
; Ender 3 Custom Start G-code
G92 E0 ; Reset Extruder
G28 ; Home all axes
G1 Z2.0 F3000 ; Move Z Axis up little to prevent scratching of Heat Bed
G1 X0.1 Y20 Z0.3 F5000.0 ; Move to start position
G1 X0.1 Y200.0 Z0.3 F1500.0 E15 ; Draw the first line
G1 X0.4 Y200.0 Z0.3 F5000.0 ; Move to side a little
G1 X0.4 Y20 Z0.3 F1500.0 E30 ; Draw the second line
G92 E0 ; Reset Extruder
G1 Z2.0 F3000 ; Move Z Axis up little to prevent scratching of Heat Bed
G1 X5 Y20 Z0.3 F5000.0 ; Move over to prevent blob squish
G92 E0
G92 E0
G1 F2700 E-5
;LAYER_COUNT:23
;LAYER:0
M107
G0 F6000 X102.623 Y101.849 Z0.2
G0 X100.2 Y107.5
;TYPE:SKIRT
G1 F2700 E0
G1 F900 X100.24 Y106.711 E0.02628
G1 X100.359 Y105.931 E0.05252
G1 X100.557 Y105.166 E0.0788
G1 X100.831 Y104.426 E0.10505
G1 X101.179 Y103.717 E0.13132
G1 X101.597 Y103.046 E0.15761
G1 X102.08 Y102.422 E0.18385
G1 X102.623 Y101.849 E0.21011
G1 X103.222 Y101.334 E0.23638
G1 X103.87 Y100.883 E0.26264
G1 X104.561 Y100.499 E0.28894
G1 X105.286 Y100.187 E0.31519
G1 X106.039 Y99.95 E0.34144
G1 X106.813 Y99.791 E0.36773
G1 X107.598 Y99.71 E0.39397
G1 X108 Y99.7 E0.40735
G1 X127 Y99.7 E1.03929
G1 X127.789 Y99.74 E1.06557
G1 X128.569 Y99.859 E1.09181
G1 X129.334 Y100.057 E1.11809
G1 X130.074 Y100.331 E1.14434
G1 X130.783 Y100.679 E1.17061
G1 X131.454 Y101.097 E1.1969
G1 X132.078 Y101.58 E1.22315
G1 X132.651 Y102.123 E1.2494
G1 X133.166 Y102.722 E1.27568
G1 X133.617 Y103.37 E1.30193
G1 X134.001 Y104.061 E1.32823
G1 X134.313 Y104.786 E1.35448
G1 X134.55 Y105.539 E1.38074
G1 X134.709 Y106.313 E1.40702
G1 X134.79 Y107.098 E1.43326
G1 X134.8 Y107.5 E1.44664
G1 X134.8 Y127.5 E2.11184
G1 X134.76 Y128.289 E2.13812
G1 X134.641 Y129.069 E2.16436
G1 X134.443 Y129.834 E2.19064
G1 X134.169 Y130.574 E2.21689
G1 X133.821 Y131.283 E2.24316
G1 X133.403 Y131.954 E2.26945
G1 X132.92 Y132.578 E2.2957
G1 X132.377 Y133.151 E2.32195
G1 X131.778 Y133.666 E2.34823
G1 X131.13 Y134.117 E2.37448
G1 X130.439 Y134.501 E2.40078
G1 X129.714 Y134.813 E2.42703
G1 X128.961 Y135.05 E2.45329
G1 X128.187 Y135.209 E2.47957
G1 X127.402 Y135.29 E2.50581
G1 X127 Y135.3 E2.51919
G1 X108 Y135.3 E3.15113
G1 X107.211 Y135.26 E3.17741
G1 X106.431 Y135.141 E3.20365
G1 X105.666 Y134.943 E3.22993
G1 X104.926 Y134.669 E3.25618
G1 X104.217 Y134.321 E3.28245
G1 X103.546 Y133.903 E3.30874
G1 X102.922 Y133.42 E3.33499
G1 X102.349 Y132.877 E3.36124
G1 X101.834 Y132.278 E3.38752
G1 X101.383 Y131.63 E3.41378
G1 X100.999 Y130.939 E3.44007
G1 X100.687 Y130.214 E3.46632
G1 X100.45 Y129.461 E3.49258
G1 X100.291 Y128.687 E3.51886
G1 X100.21 Y127.902 E3.54511
G1 X100.2 Y127.5 E3.55848
G1 X100.2 Y107.5 E4.22368
G0 F6000 X100.6 Y107.5
G1 F900 X100.64 Y106.732 E4.24926
G1 X100.759 Y105.972 E4.27485
G1 X100.957 Y105.229 E4.30042
G1 X101.231 Y104.51 E4.32601
G1 X101.578 Y103.824 E4.35158
G1 X101.994 Y103.177 E4.37717
G1 X102.475 Y102.577 E4.40274
G1 X103.016 Y102.03 E4.42833
G1 X103.611 Y101.542 E4.45393
G1 X104.253 Y101.119 E4.4795
G1 X104.936 Y100.764 E4.5051
G1 X105.651 Y100.483 E4.53065
G1 X106.393 Y100.277 E4.55626
G1 X107.151 Y100.149 E4.58183
G1 X108 Y100.1 E4.61012
G1 X127 Y100.1 E5.24206
G1 X127.768 Y100.14 E5.26764
G1 X128.528 Y100.259 E5.29322
G1 X129.271 Y100.457 E5.3188
G1 X129.99 Y100.731 E5.34439
G1 X130.676 Y101.078 E5.36996
G1 X131.323 Y101.494 E5.39554
G1 X131.923 Y101.975 E5.42112
G1 X132.47 Y102.516 E5.44671
G1 X132.958 Y103.111 E5.4723
G1 X133.381 Y103.753 E5.49787
G1 X133.736 Y104.436 E5.52348
G1 X134.017 Y105.151 E5.54903
G1 X134.223 Y105.893 E5.57464
G1 X134.351 Y106.651 E5.60021
G1 X134.4 Y107.5 E5.62849
G1 X134.4 Y127.5 E6.2937
G1 X134.36 Y128.268 E6.31927
G1 X134.241 Y129.028 E6.34486
G1 X134.043 Y129.771 E6.37043
G1 X133.769 Y130.49 E6.39603
G1 X133.422 Y131.176 E6.4216
G1 X133.006 Y131.823 E6.44718
G1 X132.525 Y132.423 E6.47276
G1 X131.984 Y132.97 E6.49834
G1 X131.389 Y133.458 E6.52394
G1 X130.747 Y133.881 E6.54951
G1 X130.064 Y134.236 E6.57511
G1 X129.349 Y134.517 E6.60066
G1 X128.607 Y134.723 E6.62628
G1 X127.849 Y134.851 E6.65184
G1 X127 Y134.9 E6.68013
G1 X108 Y134.9 E7.31207
G1 X107.232 Y134.86 E7.33765
G1 X106.472 Y134.741 E7.36324
G1 X105.729 Y134.543 E7.38881
G1 X105.01 Y134.269 E7.4144
G1 X104.324 Y133.922 E7.43997
G1 X103.677 Y133.506 E7.46555
G1 X103.077 Y133.025 E7.49113
G1 X102.53 Y132.484 E7.51672
G1 X102.042 Y131.889 E7.54232
G1 X101.619 Y131.247 E7.56789
G1 X101.264 Y130.564 E7.59349
G1 X100.983 Y129.849 E7.61904
G1 X100.777 Y129.107 E7.64465
G1 X100.649 Y128.349 E7.67022
G1 X100.6 Y127.5 E7.69851
G1 X100.6 Y107.5 E8.36371
G0 F6000 X101 Y107.5
G1 F900 X101.04 Y106.753 E8.38859
G1 X101.159 Y106.015 E8.41345
G1 X101.357 Y105.293 E8.43835
G1 X101.63 Y104.597 E8.46322
G1 X101.977 Y103.934 E8.48811
G1 X102.392 Y103.311 E8.51301
G1 X102.871 Y102.737 E8.53787
G1 X103.408 Y102.216 E8.56276
G1 X103.998 Y101.757 E8.58762
G1 X104.634 Y101.362 E8.61252
G1 X105.308 Y101.038 E8.63739
G1 X106.013 Y100.788 E8.66227
G1 X106.741 Y100.614 E8.68717
G1 X107.483 Y100.519 E8.71205
G1 X108 Y100.5 E8.72925
G1 X127 Y100.5 E9.3612
G1 X127.747 Y100.54 E9.38608
G1 X128.485 Y100.659 E9.41094
G1 X129.207 Y100.857 E9.43584
G1 X129.903 Y101.13 E9.46071
G1 X130.566 Y101.477 E9.4856
G1 X131.189 Y101.892 E9.51049
G1 X131.763 Y102.371 E9.53536
G1 X132.284 Y102.908 E9.56025
G1 X132.743 Y103.498 E9.58511
G1 X133.138 Y104.134 E9.61001
G1 X133.462 Y104.808 E9.63488
G1 X133.712 Y105.513 E9.65976
G1 X133.886 Y106.241 E9.68466
G1 X133.981 Y106.983 E9.70954
G1 X134 Y107.5 E9.72674
G1 X134 Y127.5 E10.39195
G1 X133.96 Y128.247 E10.41683
G1 X133.841 Y128.985 E10.44169
G1 X133.643 Y129.707 E10.46659
G1 X133.37 Y130.403 E10.49146
G1 X133.023 Y131.066 E10.51635
G1 X132.608 Y131.689 E10.54124
G1 X132.129 Y132.263 E10.56611
G1 X131.592 Y132.784 E10.59099
G1 X131.002 Y133.243 E10.61586
G1 X130.366 Y133.638 E10.64076
G1 X129.692 Y133.962 E10.66563
G1 X128.987 Y134.212 E10.69051
G1 X128.259 Y134.386 E10.71541
G1 X127.517 Y134.481 E10.74029
G1 X127 Y134.5 E10.75749
G1 X108 Y134.5 E11.38944
G1 X107.253 Y134.46 E11.41432
G1 X106.515 Y134.341 E11.43918
G1 X105.793 Y134.143 E11.46408
G1 X105.097 Y133.87 E11.48895
G1 X104.434 Y133.523 E11.51384
G1 X103.811 Y133.108 E11.53873
G1 X103.237 Y132.629 E11.5636
G1 X102.716 Y132.092 E11.58848
G1 X102.257 Y131.502 E11.61335
G1 X101.862 Y130.866 E11.63825
G1 X101.538 Y130.192 E11.66312
G1 X101.288 Y129.487 E11.688
G1 X101.114 Y128.759 E11.7129
G1 X101.019 Y128.017 E11.73778
G1 X101 Y127.5 E11.75498
G1 X101 Y107.5 E12.42019
G0 F6000 X101.4 Y107.5
G1 F900 X101.44 Y106.775 E12.44434
G1 X101.559 Y106.058 E12.46851
G1 X101.757 Y105.359 E12.49267
G1 X102.03 Y104.686 E12.51683
G1 X102.375 Y104.047 E12.54098
G1 X102.789 Y103.45 E12.56515
G1 X103.265 Y102.902 E12.58929
G1 X103.799 Y102.409 E12.61346
G1 X104.384 Y101.979 E12.63761
G1 X105.013 Y101.615 E12.66178
G1 X105.678 Y101.322 E12.68595
G1 X106.371 Y101.104 E12.71011
G1 X107.083 Y100.964 E12.73425
G1 X108 Y100.9 E12.76482
G1 X127 Y100.9 E13.39676
G1 X127.725 Y100.94 E13.42091
G1 X128.442 Y101.059 E13.44509
G1 X129.141 Y101.257 E13.46925
G1 X129.814 Y101.53 E13.49341
G1 X130.453 Y101.875 E13.51756
G1 X131.05 Y102.289 E13.54172
G1 X131.598 Y102.765 E13.56586
G1 X132.091 Y103.299 E13.59004
G1 X132.521 Y103.884 E13.61419
G1 X132.885 Y104.513 E13.63836
G1 X133.178 Y105.178 E13.66253
G1 X133.396 Y105.871 E13.68669
G1 X133.536 Y106.583 E13.71082
G1 X133.6 Y107.5 E13.7414
G1 X133.6 Y127.5 E14.4066
G1 X133.56 Y128.225 E14.43075
G1 X133.441 Y128.942 E14.45492
G1 X133.243 Y129.641 E14.47909
G1 X132.97 Y130.314 E14.50324
G1 X132.625 Y130.953 E14.5274
G1 X132.211 Y131.55 E14.55156
G1 X131.735 Y132.098 E14.5757
G1 X131.201 Y132.591 E14.59988
G1 X130.616 Y133.021 E14.62402
G1 X129.987 Y133.385 E14.64819
G1 X129.322 Y133.678 E14.67236
G1 X128.629 Y133.896 E14.69653
G1 X127.917 Y134.036 E14.72066
G1 X127 Y134.1 E14.75124
G1 X108 Y134.1 E15.38318
G1 X107.275 Y134.06 E15.40733
G1 X106.558 Y133.941 E15.4315
G1 X105.859 Y133.743 E15.45567
G1 X105.186 Y133.47 E15.47982
G1 X104.547 Y133.125 E15.50397
G1 X103.95 Y132.711 E15.52814
G1 X103.402 Y132.235 E15.55228
G1 X102.909 Y131.701 E15.57645
G1 X102.479 Y131.116 E15.6006
G1 X102.115 Y130.487 E15.62477
G1 X101.822 Y129.822 E15.64894
G1 X101.604 Y129.129 E15.6731
G1 X101.464 Y128.417 E15.69724
G1 X101.4 Y127.5 E15.72781
G1 X101.4 Y107.5 E16.39302
G0 F6000 X101.8 Y107.5
G1 F900 X101.84 Y106.797 E16.41644
G1 X101.959 Y106.103 E16.43985
G1 X102.157 Y105.428 E16.46325
G1 X102.429 Y104.779 E16.48666
G1 X102.774 Y104.165 E16.51008
G1 X103.185 Y103.594 E16.53348
G1 X103.659 Y103.073 E16.55691
G1 X104.189 Y102.609 E16.58034
G1 X104.768 Y102.209 E16.60374
G1 X105.389 Y101.877 E16.62716
G1 X106.043 Y101.617 E16.65057
G1 X106.723 Y101.433 E16.674
G1 X107.419 Y101.327 E16.69742
G1 X108 Y101.3 E16.71676
G1 X127 Y101.3 E17.34871
G1 X127.703 Y101.34 E17.37213
G1 X128.397 Y101.459 E17.39554
G1 X129.072 Y101.657 E17.41894
G1 X129.721 Y101.929 E17.44235
G1 X130.335 Y102.274 E17.46577
G1 X130.906 Y102.685 E17.48917
G1 X131.427 Y103.159 E17.5126
G1 X131.891 Y103.689 E17.53603
G1 X132.291 Y104.268 E17.55943
G1 X132.623 Y104.889 E17.58285
G1 X132.883 Y105.543 E17.60626
G1 X133.067 Y106.223 E17.62969
G1 X133.173 Y106.919 E17.65311
G1 X133.2 Y107.5 E17.67245
G1 X133.2 Y127.5 E18.33766
G1 X133.16 Y128.203 E18.36108
G1 X133.041 Y128.897 E18.38449
G1 X132.843 Y129.572 E18.40789
G1 X132.571 Y130.221 E18.4313
G1 X132.226 Y130.835 E18.45472
G1 X131.815 Y131.406 E18.47812
G1 X131.341 Y131.927 E18.50155
G1 X130.811 Y132.391 E18.52498
G1 X130.232 Y132.791 E18.54838
G1 X129.611 Y133.123 E18.5718
G1 X128.957 Y133.383 E18.59521
G1 X128.277 Y133.567 E18.61864
G1 X127.581 Y133.673 E18.64206
G1 X127 Y133.7 E18.6614
G1 X108 Y133.7 E19.29335
G1 X107.297 Y133.66 E19.31676
G1 X106.603 Y133.541 E19.34018
G1 X105.928 Y133.343 E19.36358
G1 X105.279 Y133.071 E19.38699
G1 X104.665 Y132.726 E19.41041
G1 X104.094 Y132.315 E19.43381
G1 X103.573 Y131.841 E19.45724
G1 X103.109 Y131.311 E19.48067
G1 X102.709 Y130.732 E19.50407
G1 X102.377 Y130.111 E19.52749
G1 X102.117 Y129.457 E19.5509
G1 X101.933 Y128.777 E19.57433
G1 X101.827 Y128.081 E19.59775
G1 X101.8 Y127.5 E19.61709
G1 X101.8 Y107.5 E20.2823
G0 F6000 X102.2 Y107.5
G1 F900 X102.24 Y106.82 E20.30495
G1 X102.359 Y106.15 E20.32758
G1 X102.556 Y105.498 E20.35024
G1 X102.828 Y104.874 E20.37288
G1 X103.172 Y104.286 E20.39554
G1 X103.582 Y103.742 E20.41819
G1 X104.053 Y103.251 E20.44082
G1 X104.578 Y102.817 E20.46348
G1 X105.15 Y102.448 E20.48612
G1 X105.762 Y102.149 E20.50877
G1 X106.404 Y101.924 E20.5314
G1 X107.069 Y101.775 E20.55407
G1 X108 Y101.7 E20.58513
G1 X127 Y101.7 E21.21707
G1 X127.68 Y101.74 E21.23973
G1 X128.35 Y101.859 E21.26236
G1 X129.002 Y102.056 E21.28502
G1 X129.626 Y102.328 E21.30766
G1 X130.214 Y102.672 E21.33032
G1 X130.758 Y103.082 E21.35297
G1 X131.249 Y103.553 E21.3756
G1 X131.683 Y104.078 E21.39826
G1 X132.052 Y104.65 E21.4209
G1 X132.351 Y105.262 E21.44355
G1 X132.576 Y105.904 E21.46618
G1 X132.725 Y106.569 E21.48884
G1 X132.8 Y107.5 E21.51991
G1 X132.8 Y127.5 E22.18511
G1 X132.76 Y128.18 E22.20777
G1 X132.641 Y128.85 E22.2304
G1 X132.444 Y129.502 E22.25306
G1 X132.172 Y130.126 E22.2757
G1 X131.828 Y130.714 E22.29835
G1 X131.418 Y131.258 E22.32101
G1 X130.947 Y131.749 E22.34364
G1 X130.422 Y132.183 E22.3663
G1 X129.85 Y132.552 E22.38894
G1 X129.238 Y132.851 E22.41159
G1 X128.596 Y133.076 E22.43422
G1 X127.931 Y133.225 E22.45688
G1 X127 Y133.3 E22.48795
G1 X108 Y133.3 E23.11989
G1 X107.32 Y133.26 E23.14255
G1 X106.65 Y133.141 E23.16518
G1 X105.998 Y132.944 E23.18783
G1 X105.374 Y132.672 E23.21047
G1 X104.786 Y132.328 E23.23313
G1 X104.242 Y131.918 E23.25579
G1 X103.751 Y131.447 E23.27842
G1 X103.317 Y130.922 E23.30107
G1 X102.948 Y130.35 E23.32371
G1 X102.649 Y129.738 E23.34637
G1 X102.424 Y129.096 E23.369
G1 X102.275 Y128.431 E23.39166
G1 X102.2 Y127.5 E23.42273
G1 X102.2 Y107.5 E24.08793
G0 F6000 X102.6 Y107.5
G1 F900 X102.64 Y106.844 E24.10979
G1 X102.759 Y106.198 E24.13164
G1 X102.956 Y105.571 E24.1535
G1 X103.228 Y104.973 E24.17535
G1 X103.57 Y104.412 E24.1972
G1 X103.978 Y103.897 E24.21905
G1 X104.445 Y103.435 E24.2409
G1 X104.965 Y103.034 E24.26274
G1 X105.529 Y102.698 E24.28458
G1 X106.131 Y102.434 E24.30644
G1 X106.76 Y102.244 E24.32829
G1 X107.407 Y102.133 E24.35013
G1 X108 Y102.1 E24.36988
G1 X127 Y102.1 E25.00183
G1 X127.656 Y102.14 E25.02368
G1 X128.302 Y102.259 E25.04553
G1 X128.929 Y102.456 E25.06739
G1 X129.527 Y102.728 E25.08924
G1 X130.088 Y103.07 E25.11109
G1 X130.603 Y103.478 E25.13295
G1 X131.065 Y103.945 E25.1548
G1 X131.466 Y104.465 E25.17664
G1 X131.802 Y105.029 E25.19847
G1 X132.066 Y105.631 E25.22034
G1 X132.256 Y106.26 E25.24219
G1 X132.367 Y106.907 E25.26402
G1 X132.4 Y107.5 E25.28378
G1 X132.4 Y127.5 E25.94898
G1 X132.36 Y128.156 E25.97084
G1 X132.241 Y128.802 E25.99269
G1 X132.044 Y129.429 E26.01455
G1 X131.772 Y130.027 E26.0364
G1 X131.43 Y130.588 E26.05825
G1 X131.022 Y131.103 E26.0801
G1 X130.555 Y131.565 E26.10195
G1 X130.035 Y131.966 E26.12379
G1 X129.471 Y132.302 E26.14563
G1 X128.869 Y132.566 E26.16749
G1 X128.24 Y132.756 E26.18934
G1 X127.593 Y132.867 E26.21118
G1 X127 Y132.9 E26.23093
G1 X108 Y132.9 E26.86287
G1 X107.344 Y132.86 E26.88473
G1 X106.698 Y132.741 E26.90658
G1 X106.071 Y132.544 E26.92844
G1 X105.473 Y132.272 E26.95029
G1 X104.912 Y131.93 E26.97214
G1 X104.397 Y131.522 E26.994
G1 X103.935 Y131.055 E27.01585
G1 X103.534 Y130.535 E27.03769
G1 X103.198 Y129.971 E27.05952
G1 X102.934 Y129.369 E27.08138
G1 X102.744 Y128.74 E27.10324
G1 X102.633 Y128.093 E27.12507
G1 X102.6 Y127.5 E27.14483
G1 X102.6 Y107.5 E27.81003
G0 F6000 X103 Y107.5
G1 F900 X103.04 Y106.869 E27.83106
G1 X103.159 Y106.248 E27.85209
G1 X103.356 Y105.648 E27.87309
G1 X103.627 Y105.076 E27.89414
G1 X103.967 Y104.544 E27.91514
G1 X104.373 Y104.059 E27.93618
G1 X104.836 Y103.629 E27.9572
G1 X105.35 Y103.26 E27.97824
G1 X105.906 Y102.96 E27.99926
G1 X106.495 Y102.732 E28.02026
G1 X107.109 Y102.58 E28.0413
G1 X108 Y102.5 E28.07105
G1 X127 Y102.5 E28.703
G1 X127.631 Y102.54 E28.72403
G1 X128.252 Y102.659 E28.74506
G1 X128.852 Y102.856 E28.76606
G1 X129.424 Y103.127 E28.78711
G1 X129.956 Y103.467 E28.80811
G1 X130.441 Y103.873 E28.82915
G1 X130.871 Y104.336 E28.85017
G1 X131.24 Y104.85 E28.87121
G1 X131.54 Y105.406 E28.89222
G1 X131.768 Y105.995 E28.91323
G1 X131.92 Y106.609 E28.93427
G1 X132 Y107.5 E28.96402
G1 X132 Y127.5 E29.62922
G1 X131.96 Y128.131 E29.65025
G1 X131.841 Y128.752 E29.67128
G1 X131.644 Y129.352 E29.69229
G1 X131.373 Y129.924 E29.71334
G1 X131.033 Y130.456 E29.73434
G1 X130.627 Y130.941 E29.75538
G1 X130.164 Y131.371 E29.77639
G1 X129.65 Y131.74 E29.79744
G1 X129.094 Y132.04 E29.81845
G1 X128.505 Y132.268 E29.83946
G1 X127.891 Y132.42 E29.8605
G1 X127 Y132.5 E29.89025
G1 X108 Y132.5 E30.52219
G1 X107.369 Y132.46 E30.54322
G1 X106.748 Y132.341 E30.56425
G1 X106.148 Y132.144 E30.58526
G1 X105.576 Y131.873 E30.60631
G1 X105.044 Y131.533 E30.62731
G1 X104.559 Y131.127 E30.64834
G1 X104.129 Y130.664 E30.66936
G1 X103.76 Y130.15 E30.69041
G1 X103.46 Y129.594 E30.71142
G1 X103.232 Y129.005 E30.73243
G1 X103.08 Y128.391 E30.75346
G1 X103 Y127.5 E30.78322
G1 X103 Y107.5 E31.44842
G0 F6000 X103.4 Y107.5
G1 F900 X103.44 Y106.895 E31.46859
G1 X103.559 Y106.301 E31.48874
G1 X103.755 Y105.727 E31.50891
G1 X104.026 Y105.184 E31.52909
