;FLAVOR:Marlin
;TIME:1372
;Filament used: 1.00499m
;Layer height: 0.2
;MINX:101.206
;MINY:98.206
;MINZ:0.2
;MAXX:133.794
;MAXY:134.561
;MAXZ:19.6
;Generated with Cura_SteamEngine main
M140 S65
M105
M190 S65
M104 S240
M105
M109 S240
M82 ;absolute extrusion mode
; Ender 3 Custom Start G-code
G92 E0 ; Reset Extruder
G28 ; Home all axes
G1 Z2.0 F3000 ; Move Z Axis up little to prevent scratching of Heat Bed
G1 X0.1 Y20 Z0.3 F5000.0 ; Move to start position
G1 X0.1 Y200.0 Z0.3 F1500.0 E15 ; Draw the first line
G1 X0.4 Y200.0 Z0.3 F5000.0 ; Move to side a little
G1 X0.4 Y20 Z0.3 F1500.0 E30 ; Draw the second line
G92 E0 ; Reset Extruder
G1 Z2.0 F3000 ; Move Z Axis up little to prevent scratching of Heat Bed
G1 X5 Y20 Z0.3 F5000.0 ; Move over to prevent blob squish
G92 E0
G92 E0
G1 F2700 E-5
;LAYER_COUNT:98
;LAYER:0
M107
G0 F6000 X105.762 Y103.197 Z0.2
G0 X101.206 Y114.199
;TYPE:SKIRT
G1 F2700 E0
G1 F900 X101.232 Y113.528 E0.02233
G1 X101.281 Y112.906 E0.04309
G1 X101.36 Y112.244 E0.06526
G1 X101.456 Y111.641 E0.08557
G1 X101.587 Y110.985 E0.10782
G1 X101.73 Y110.392 E0.12811
G1 X101.911 Y109.751 E0.15026
G1 X102.1 Y109.168 E0.17064
G1 X102.332 Y108.54 E0.19291
G1 X102.559 Y107.991 E0.21267
G1 X102.836 Y107.387 E0.23477
G1 X103.134 Y106.803 E0.25658
G1 X103.461 Y106.224 E0.2787
G1 X103.763 Y105.733 E0.29787
G1 X104.135 Y105.175 E0.32017
G1 X104.509 Y104.661 E0.34132
G1 X104.923 Y104.138 E0.3635
G1 X105.311 Y103.685 E0.38334
G1 X105.762 Y103.197 E0.40544
G1 X106.195 Y102.764 E0.42581
G1 X106.686 Y102.31 E0.44805
G1 X107.141 Y101.92 E0.46798
G1 X107.663 Y101.507 E0.49012
G1 X108.179 Y101.132 E0.51133
G1 X108.736 Y100.761 E0.53359
G1 X109.229 Y100.458 E0.55284
G1 X109.809 Y100.131 E0.57499
G1 X110.388 Y99.836 E0.5966
G1 X110.994 Y99.558 E0.61877
G1 X111.533 Y99.335 E0.63818
G1 X112.161 Y99.102 E0.66045
G1 X112.776 Y98.902 E0.68196
G1 X113.417 Y98.723 E0.7041
G1 X113.992 Y98.586 E0.72376
G1 X114.655 Y98.454 E0.74624
G1 X115.264 Y98.358 E0.76675
G1 X115.925 Y98.28 E0.78889
G1 X116.533 Y98.232 E0.80917
G1 X117.195 Y98.206 E0.83121
G1 X117.805 Y98.206 E0.8515
G1 X118.471 Y98.232 E0.87366
G1 X119.091 Y98.281 E0.89435
G1 X119.753 Y98.36 E0.91652
G1 X120.345 Y98.454 E0.93646
G1 X121.001 Y98.584 E0.9587
G1 X121.605 Y98.729 E0.97936
G1 X122.246 Y98.91 E1.00152
G1 X122.829 Y99.099 E1.0219
G1 X123.457 Y99.331 E1.04417
G1 X124.006 Y99.558 E1.06393
G1 X124.61 Y99.835 E1.08603
G1 X125.188 Y100.13 E1.10761
G1 X125.77 Y100.458 E1.12983
G1 X126.264 Y100.761 E1.14911
G1 X126.821 Y101.132 E1.17137
G1 X127.337 Y101.507 E1.19258
G1 X127.859 Y101.92 E1.21472
G1 X128.314 Y102.31 E1.23465
G1 X128.804 Y102.763 E1.25685
G1 X129.236 Y103.195 E1.27717
G1 X129.69 Y103.686 E1.29941
G1 X130.08 Y104.141 E1.31934
G1 X130.493 Y104.663 E1.34148
G1 X130.868 Y105.179 E1.36269
G1 X131.239 Y105.736 E1.38495
G1 X131.542 Y106.229 E1.4042
G1 X131.869 Y106.809 E1.42635
G1 X132.164 Y107.388 E1.44796
G1 X132.442 Y107.994 E1.47013
G1 X132.665 Y108.533 E1.48954
G1 X132.898 Y109.161 E1.51181
G1 X133.098 Y109.776 E1.53332
G1 X133.277 Y110.417 E1.55546
G1 X133.412 Y110.983 E1.57481
G1 X133.543 Y111.637 E1.597
G1 X133.64 Y112.246 E1.61751
G1 X133.719 Y112.909 E1.63971
G1 X133.768 Y113.528 E1.66037
G1 X133.794 Y114.195 E1.68257
G1 X133.794 Y114.802 E1.70276
G1 X133.768 Y115.47 E1.72499
G1 X133.719 Y116.091 E1.74571
G1 X133.64 Y116.753 E1.76789
G1 X133.546 Y117.345 E1.78782
G1 X133.416 Y118.001 E1.81006
G1 X133.271 Y118.605 E1.83072
G1 X133.09 Y119.246 E1.85288
G1 X132.901 Y119.829 E1.87326
G1 X132.669 Y120.457 E1.89553
G1 X132.442 Y121.006 E1.91529
G1 X132.165 Y121.61 E1.93739
G1 X131.87 Y122.188 E1.95897
G1 X131.542 Y122.77 E1.98119
G1 X131.241 Y123.261 E2.00035
G1 X130.871 Y123.817 E2.02256
G1 X130.493 Y124.337 E2.04394
G1 X130.079 Y124.86 E2.06613
G1 X129.69 Y125.315 E2.08604
G1 X129.235 Y125.807 E2.10833
G1 X128.803 Y126.238 E2.12862
G1 X128.312 Y126.692 E2.15087
G1 X127.854 Y127.084 E2.17092
G1 X127.26 Y127.55 E2.19603
G1 X127.141 Y128.33 E2.22227
G1 X126.943 Y129.095 E2.24855
G1 X126.669 Y129.835 E2.2748
G1 X126.321 Y130.544 E2.30107
G1 X125.903 Y131.215 E2.32736
G1 X125.42 Y131.839 E2.35361
G1 X124.877 Y132.412 E2.37986
G1 X124.278 Y132.927 E2.40614
G1 X123.63 Y133.378 E2.4324
G1 X122.939 Y133.762 E2.45869
G1 X122.214 Y134.074 E2.48494
G1 X121.461 Y134.311 E2.5112
G1 X120.687 Y134.47 E2.53748
G1 X119.902 Y134.551 E2.56372
G1 X119.5 Y134.561 E2.5771
G1 X115.5 Y134.561 E2.71014
G1 X114.711 Y134.521 E2.73642
G1 X113.931 Y134.402 E2.76266
G1 X113.166 Y134.204 E2.78894
G1 X112.426 Y133.93 E2.81519
G1 X111.717 Y133.582 E2.84146
G1 X111.046 Y133.164 E2.86775
G1 X110.422 Y132.681 E2.89399
G1 X109.849 Y132.138 E2.92025
G1 X109.334 Y131.539 E2.94652
G1 X108.883 Y130.891 E2.97278
G1 X108.499 Y130.2 E2.99908
G1 X108.187 Y129.475 E3.02533
G1 X107.95 Y128.722 E3.05158
G1 X107.791 Y127.948 E3.07787
G1 X107.751 Y127.556 E3.09097
G1 X107.139 Y127.078 E3.1168
G1 X106.684 Y126.688 E3.13673
G1 X106.193 Y126.234 E3.15897
G1 X105.761 Y125.802 E3.17929
G1 X105.308 Y125.312 E3.20149
G1 X104.917 Y124.855 E3.22149
G1 X104.505 Y124.334 E3.24358
G1 X104.124 Y123.809 E3.26516
G1 X103.753 Y123.25 E3.28747
G1 X103.457 Y122.767 E3.30632
G1 X103.129 Y122.185 E3.32854
G1 X102.834 Y121.607 E3.35012
G1 X102.557 Y121.003 E3.37222
G1 X102.334 Y120.464 E3.39162
G1 X102.101 Y119.836 E3.4139
G1 X101.898 Y119.21 E3.43579
G1 X101.72 Y118.569 E3.45791
G1 X101.587 Y118.009 E3.47706
G1 X101.456 Y117.353 E3.49931
G1 X101.36 Y116.75 E3.51962
G1 X101.281 Y116.088 E3.54179
G1 X101.232 Y115.47 E3.56241
G1 X101.206 Y114.807 E3.58448
G1 X101.206 Y114.199 E3.6047
G0 F6000 X101.606 Y114.214
G1 F900 X101.632 Y113.543 E3.62703
G1 X101.678 Y112.953 E3.64672
G1 X101.757 Y112.291 E3.66889
G1 X101.848 Y111.719 E3.68816
G1 X101.979 Y111.063 E3.71041
G1 X102.114 Y110.501 E3.72963
G1 X102.295 Y109.86 E3.75178
G1 X102.476 Y109.307 E3.77114
G1 X102.708 Y108.679 E3.7934
G1 X102.923 Y108.158 E3.81215
G1 X103.2 Y107.554 E3.83425
G1 X103.483 Y107 E3.85494
G1 X103.81 Y106.421 E3.87706
G1 X104.096 Y105.955 E3.89524
G1 X104.468 Y105.397 E3.91755
G1 X104.823 Y104.909 E3.93762
G1 X105.237 Y104.386 E3.9598
G1 X105.604 Y103.956 E3.97861
G1 X106.055 Y103.468 E4.00071
G1 X106.466 Y103.058 E4.02002
G1 X106.957 Y102.604 E4.04226
G1 X107.39 Y102.234 E4.0612
G1 X107.912 Y101.821 E4.08334
G1 X108.401 Y101.465 E4.10346
G1 X108.958 Y101.094 E4.12572
G1 X109.426 Y100.807 E4.14398
G1 X110.006 Y100.48 E4.16612
G1 X110.554 Y100.2 E4.18659
G1 X111.16 Y99.922 E4.20877
G1 X111.672 Y99.71 E4.2272
G1 X112.3 Y99.477 E4.24948
G1 X112.884 Y99.288 E4.26989
G1 X113.525 Y99.109 E4.29203
G1 X114.07 Y98.978 E4.31067
G1 X114.733 Y98.846 E4.33315
G1 X115.311 Y98.755 E4.35262
G1 X115.972 Y98.677 E4.37475
G1 X116.549 Y98.632 E4.394
G1 X117.211 Y98.606 E4.41604
G1 X117.79 Y98.606 E4.4353
G1 X118.456 Y98.632 E4.45746
G1 X119.044 Y98.678 E4.47708
G1 X119.706 Y98.757 E4.49925
G1 X120.267 Y98.846 E4.51815
G1 X120.923 Y98.976 E4.54039
G1 X121.496 Y99.113 E4.55999
G1 X122.137 Y99.294 E4.58214
G1 X122.69 Y99.475 E4.60149
G1 X123.318 Y99.707 E4.62376
G1 X123.839 Y99.922 E4.6425
G1 X124.443 Y100.199 E4.66461
G1 X124.991 Y100.478 E4.68506
G1 X125.573 Y100.806 E4.70728
G1 X126.042 Y101.094 E4.72558
G1 X126.599 Y101.465 E4.74784
G1 X127.088 Y101.821 E4.76796
G1 X127.61 Y102.234 E4.7901
G1 X128.042 Y102.603 E4.809
G1 X128.532 Y103.056 E4.83119
G1 X128.942 Y103.466 E4.85048
G1 X129.396 Y103.957 E4.87272
G1 X129.766 Y104.39 E4.89166
G1 X130.179 Y104.912 E4.9138
G1 X130.535 Y105.401 E4.93392
G1 X130.906 Y105.958 E4.95618
G1 X131.193 Y106.426 E4.97444
G1 X131.52 Y107.006 E4.99658
G1 X131.8 Y107.554 E5.01705
G1 X132.078 Y108.16 E5.03923
G1 X132.29 Y108.672 E5.05766
G1 X132.523 Y109.3 E5.07994
G1 X132.712 Y109.884 E5.10035
G1 X132.891 Y110.525 E5.12249
G1 X133.02 Y111.062 E5.14086
G1 X133.151 Y111.716 E5.16304
G1 X133.243 Y112.293 E5.18247
G1 X133.322 Y112.956 E5.20468
G1 X133.368 Y113.544 E5.2243
G1 X133.394 Y114.211 E5.2465
G1 X133.394 Y114.787 E5.26566
G1 X133.368 Y115.455 E5.28789
G1 X133.322 Y116.044 E5.30754
G1 X133.243 Y116.706 E5.32972
G1 X133.154 Y117.267 E5.34861
G1 X133.024 Y117.923 E5.37085
G1 X132.887 Y118.496 E5.39045
G1 X132.706 Y119.137 E5.4126
G1 X132.525 Y119.69 E5.43195
G1 X132.293 Y120.318 E5.45422
G1 X132.078 Y120.839 E5.47297
G1 X131.801 Y121.443 E5.49507
G1 X131.522 Y121.991 E5.51552
G1 X131.194 Y122.573 E5.53774
G1 X130.908 Y123.04 E5.55595
G1 X130.538 Y123.596 E5.57817
G1 X130.179 Y124.089 E5.59845
G1 X129.765 Y124.612 E5.62064
G1 X129.396 Y125.043 E5.63951
G1 X128.941 Y125.535 E5.6618
G1 X128.532 Y125.944 E5.68103
G1 X128.041 Y126.398 E5.70328
G1 X127.606 Y126.771 E5.72233
G1 X127.086 Y127.182 E5.74438
G1 X126.87 Y127.339 E5.75326
G1 X126.86 Y127.529 E5.75959
G1 X126.741 Y128.289 E5.78518
G1 X126.543 Y129.032 E5.81075
G1 X126.269 Y129.751 E5.83634
G1 X125.922 Y130.437 E5.86191
G1 X125.506 Y131.084 E5.88749
G1 X125.025 Y131.684 E5.91307
G1 X124.484 Y132.231 E5.93866
G1 X123.889 Y132.719 E5.96425
G1 X123.247 Y133.142 E5.98983
G1 X122.564 Y133.497 E6.01543
G1 X121.849 Y133.778 E6.04098
G1 X121.107 Y133.984 E6.06659
G1 X120.349 Y134.112 E6.09216
G1 X119.5 Y134.161 E6.12044
G1 X115.5 Y134.161 E6.25349
G1 X114.732 Y134.121 E6.27906
G1 X113.972 Y134.002 E6.30465
G1 X113.229 Y133.804 E6.33022
G1 X112.51 Y133.53 E6.35582
G1 X111.824 Y133.183 E6.38139
G1 X111.177 Y132.767 E6.40697
G1 X110.577 Y132.286 E6.43255
G1 X110.03 Y131.745 E6.45813
G1 X109.542 Y131.15 E6.48373
G1 X109.119 Y130.508 E6.5093
G1 X108.764 Y129.825 E6.5349
G1 X108.483 Y129.11 E6.56045
G1 X108.277 Y128.368 E6.58607
G1 X108.149 Y127.61 E6.61163
G1 X108.133 Y127.339 E6.62066
G1 X107.91 Y127.177 E6.62983
G1 X107.388 Y126.764 E6.65197
G1 X106.955 Y126.394 E6.67091
G1 X106.464 Y125.94 E6.69315
G1 X106.054 Y125.53 E6.71244
G1 X105.601 Y125.04 E6.73464
G1 X105.231 Y124.607 E6.75358
G1 X104.819 Y124.086 E6.77567
G1 X104.457 Y123.588 E6.79615
G1 X104.086 Y123.029 E6.81846
G1 X103.805 Y122.57 E6.83636
G1 X103.477 Y121.988 E6.85858
G1 X103.198 Y121.44 E6.87903
G1 X102.921 Y120.836 E6.90114
G1 X102.709 Y120.325 E6.91954
G1 X102.476 Y119.697 E6.94182
G1 X102.284 Y119.103 E6.96258
G1 X102.106 Y118.462 E6.9847
G1 X101.979 Y117.931 E7.00286
G1 X101.848 Y117.275 E7.02511
G1 X101.757 Y116.703 E7.04438
G1 X101.678 Y116.041 E7.06655
G1 X101.632 Y115.454 E7.08614
G1 X101.606 Y114.791 E7.1082
G1 X101.606 Y114.214 E7.12739
G0 F6000 X102.005 Y114.23
G1 F900 X102.031 Y113.559 E7.14973
G1 X102.075 Y113.001 E7.16835
G1 X102.154 Y112.339 E7.19052
G1 X102.241 Y111.797 E7.20878
G1 X102.372 Y111.141 E7.23103
G1 X102.499 Y110.61 E7.24919
G1 X102.68 Y109.969 E7.27134
G1 X102.851 Y109.445 E7.28967
G1 X103.083 Y108.817 E7.31194
G1 X103.286 Y108.325 E7.32964
G1 X103.563 Y107.721 E7.35174
G1 X103.831 Y107.197 E7.37132
G1 X104.158 Y106.618 E7.39344
G1 X104.429 Y106.177 E7.41065
G1 X104.801 Y105.619 E7.43296
G1 X105.136 Y105.157 E7.45194
G1 X105.55 Y104.634 E7.47412
G1 X105.898 Y104.228 E7.49191
G1 X106.349 Y103.74 E7.51401
G1 X106.738 Y103.351 E7.53231
G1 X107.229 Y102.897 E7.55455
G1 X107.638 Y102.547 E7.57245
G1 X108.16 Y102.134 E7.59459
G1 X108.623 Y101.798 E7.61362
G1 X109.18 Y101.427 E7.63588
G1 X109.622 Y101.155 E7.65314
G1 X110.202 Y100.828 E7.67528
G1 X110.721 Y100.564 E7.69465
G1 X111.327 Y100.286 E7.71683
G1 X111.811 Y100.085 E7.73426
G1 X112.439 Y99.852 E7.75654
G1 X112.991 Y99.673 E7.77584
G1 X113.632 Y99.494 E7.79797
G1 X114.148 Y99.371 E7.81562
G1 X114.811 Y99.239 E7.8381
G1 X115.358 Y99.152 E7.85652
G1 X116.019 Y99.074 E7.87866
G1 X116.564 Y99.031 E7.89684
G1 X117.226 Y99.005 E7.91888
G1 X117.774 Y99.005 E7.9371
G1 X118.44 Y99.031 E7.95927
G1 X118.996 Y99.075 E7.97782
G1 X119.658 Y99.154 E8
G1 X120.19 Y99.239 E8.01792
G1 X120.846 Y99.369 E8.04016
G1 X121.387 Y99.498 E8.05866
G1 X122.028 Y99.679 E8.08081
G1 X122.552 Y99.85 E8.09914
G1 X123.18 Y100.082 E8.12141
G1 X123.672 Y100.285 E8.13911
G1 X124.276 Y100.562 E8.16121
G1 X124.795 Y100.827 E8.1806
G1 X125.377 Y101.155 E8.20282
G1 X125.82 Y101.427 E8.22011
G1 X126.377 Y101.798 E8.24236
G1 X126.84 Y102.134 E8.26139
G1 X127.362 Y102.547 E8.28353
G1 X127.771 Y102.897 E8.30144
G1 X128.261 Y103.35 E8.32363
G1 X128.649 Y103.738 E8.34188
G1 X129.103 Y104.229 E8.36412
G1 X129.453 Y104.638 E8.38203
G1 X129.866 Y105.16 E8.40417
G1 X130.202 Y105.623 E8.42319
G1 X130.573 Y106.18 E8.44545
G1 X130.845 Y106.622 E8.46271
G1 X131.172 Y107.202 E8.48486
G1 X131.436 Y107.721 E8.50423
G1 X131.714 Y108.327 E8.5264
G1 X131.915 Y108.811 E8.54383
G1 X132.148 Y109.439 E8.56611
G1 X132.327 Y109.991 E8.58541
G1 X132.506 Y110.632 E8.60755
G1 X132.628 Y111.14 E8.62492
G1 X132.759 Y111.794 E8.64711
G1 X132.846 Y112.341 E8.66553
G1 X132.925 Y113.004 E8.68774
G1 X132.969 Y113.559 E8.70625
G1 X132.995 Y114.226 E8.72846
G1 X132.995 Y114.771 E8.74658
G1 X132.969 Y115.439 E8.76882
G1 X132.925 Y115.996 E8.7874
G1 X132.846 Y116.658 E8.80958
G1 X132.761 Y117.19 E8.82749
G1 X132.631 Y117.846 E8.84974
G1 X132.502 Y118.387 E8.86824
G1 X132.321 Y119.028 E8.89039
G1 X132.15 Y119.552 E8.90872
G1 X131.918 Y120.18 E8.93099
G1 X131.715 Y120.672 E8.94869
G1 X131.438 Y121.276 E8.97079
G1 X131.173 Y121.795 E8.99017
G1 X130.845 Y122.377 E9.01239
G1 X130.575 Y122.818 E9.02959
G1 X130.205 Y123.374 E9.05181
G1 X129.866 Y123.841 E9.071
G1 X129.452 Y124.364 E9.09318
G1 X129.102 Y124.772 E9.11106
G1 X128.647 Y125.264 E9.13335
G1 X128.26 Y125.651 E9.15156
G1 X127.769 Y126.105 E9.1738
G1 X127.358 Y126.457 E9.1918
G1 X126.838 Y126.868 E9.21384
G1 X126.48 Y127.127 E9.22854
G1 X126.46 Y127.508 E9.24123
G1 X126.341 Y128.246 E9.26609
G1 X126.143 Y128.968 E9.29099
G1 X125.87 Y129.664 E9.31586
G1 X125.523 Y130.327 E9.34075
G1 X125.108 Y130.95 E9.36564
G1 X124.629 Y131.524 E9.39051
G1 X124.092 Y132.045 E9.41539
G1 X123.502 Y132.504 E9.44026
G1 X122.866 Y132.899 E9.46516
G1 X122.192 Y133.223 E9.49003
G1 X121.487 Y133.473 E9.51491
G1 X120.759 Y133.647 E9.53981
G1 X120.017 Y133.742 E9.56469
G1 X119.5 Y133.761 E9.58189
G1 X115.5 Y133.761 E9.71493
G1 X114.753 Y133.721 E9.73981
G1 X114.015 Y133.602 E9.76468
G1 X113.293 Y133.404 E9.78958
G1 X112.597 Y133.131 E9.81444
G1 X111.934 Y132.784 E9.83933
G1 X111.311 Y132.369 E9.86423
G1 X110.737 Y131.89 E9.8891
G1 X110.216 Y131.353 E9.91398
G1 X109.757 Y130.763 E9.93884
G1 X109.362 Y130.127 E9.96374
G1 X109.038 Y129.453 E9.98862
G1 X108.788 Y128.748 E10.0135
G1 X108.614 Y128.02 E10.03839
G1 X108.498 Y127.111 E10.06887
G1 X108.158 Y126.864 E10.08285
G1 X107.636 Y126.451 E10.10499
G1 X107.227 Y126.101 E10.12289
G1 X106.736 Y125.647 E10.14513
G1 X106.348 Y125.259 E10.16338
G1 X105.895 Y124.769 E10.18558
G1 X105.544 Y124.359 E10.20353
G1 X105.132 Y123.838 E10.22562
G1 X104.791 Y123.367 E10.24496
G1 X104.42 Y122.808 E10.26728
G1 X104.154 Y122.374 E10.28421
G1 X103.826 Y121.792 E10.30643
G1 X103.561 Y121.273 E10.32581
G1 X103.284 Y120.669 E10.34791
G1 X103.084 Y120.186 E10.3653
G1 X102.851 Y119.558 E10.38758
G1 X102.669 Y118.996 E10.40722
G1 X102.491 Y118.355 E10.42935
G1 X102.372 Y117.853 E10.44651
G1 X102.241 Y117.197 E10.46876
G1 X102.154 Y116.655 E10.48702
G1 X102.075 Y115.993 E10.50919
G1 X102.031 Y115.438 E10.52771
G1 X102.005 Y114.775 E10.54978
G1 X102.005 Y114.23 E10.5679
G0 F6000 X102.405 Y114.245
G1 F900 X102.431 Y113.574 E10.59024
G1 X102.472 Y113.048 E10.60779
G1 X102.551 Y112.386 E10.62996
G1 X102.633 Y111.876 E10.64714
G1 X102.764 Y111.22 E10.66939
G1 X102.884 Y110.718 E10.68656
G1 X103.065 Y110.077 E10.70871
G1 X103.226 Y109.584 E10.72596
G1 X103.458 Y108.956 E10.74823
G1 X103.65 Y108.492 E10.76493
G1 X103.927 Y107.888 E10.78703
G1 X104.179 Y107.393 E10.8055
