;FLAVOR:Marlin
;TIME:2554
;Filament used: 1.46128m
;Layer height: 0.2
;MINX:70.7
;MINY:103.2
;MINZ:0.2
;MAXX:164.3
;MAXY:131.8
;MAXZ:11.2
;Generated with Cura_SteamEngine main
M140 S65
M105
M190 S65
M104 S240
M105
M109 S240
M82 ;absolute extrusion mode
; Ender 3 Custom Start G-code
G92 E0 ; Reset Extruder
G28 ; Home all axes
G1 Z2.0 F3000 ; Move Z Axis up little to prevent scratching of Heat Bed
G1 X0.1 Y20 Z0.3 F5000.0 ; Move to start position
G1 X0.1 Y200.0 Z0.3 F1500.0 E15 ; Draw the first line
G1 X0.4 Y200.0 Z0.3 F5000.0 ; Move to side a little
G1 X0.4 Y20 Z0.3 F1500.0 E30 ; Draw the second line
G92 E0 ; Reset Extruder
G1 Z2.0 F3000 ; Move Z Axis up little to prevent scratching of Heat Bed
G1 X5 Y20 Z0.3 F5000.0 ; Move over to prevent blob squish
G92 E0
G92 E0
G1 F2700 E-5
;LAYER_COUNT:65
;LAYER:0
M107
G0 F6000 X73.722 Y104.834 Z0.2
G0 X70.7 Y111
;TYPE:SKIRT
G1 F2700 E0
G1 F900 X70.74 Y110.211 E0.02628
G1 X70.859 Y109.431 E0.05252
G1 X71.057 Y108.666 E0.0788
G1 X71.331 Y107.926 E0.10505
G1 X71.679 Y107.217 E0.13132
G1 X72.097 Y106.546 E0.15761
G1 X72.58 Y105.922 E0.18385
G1 X73.123 Y105.349 E0.21011
G1 X73.722 Y104.834 E0.23638
G1 X74.37 Y104.383 E0.26264
G1 X75.061 Y103.999 E0.28894
G1 X75.786 Y103.687 E0.31519
G1 X76.539 Y103.45 E0.34144
G1 X77.313 Y103.291 E0.36773
G1 X78.098 Y103.21 E0.39397
G1 X78.5 Y103.2 E0.40735
G1 X156.5 Y103.2 E3.00164
G1 X157.289 Y103.24 E3.02791
G1 X158.069 Y103.359 E3.05416
G1 X158.834 Y103.557 E3.08044
G1 X159.574 Y103.831 E3.10669
G1 X160.283 Y104.179 E3.13295
G1 X160.954 Y104.597 E3.15925
G1 X161.578 Y105.08 E3.18549
G1 X162.151 Y105.623 E3.21175
G1 X162.666 Y106.222 E3.23802
G1 X163.117 Y106.87 E3.26428
G1 X163.501 Y107.561 E3.29058
G1 X163.813 Y108.286 E3.31683
G1 X164.05 Y109.039 E3.34308
G1 X164.209 Y109.813 E3.36936
G1 X164.29 Y110.598 E3.39561
G1 X164.3 Y111 E3.40899
G1 X164.3 Y124 E3.84137
G1 X164.26 Y124.789 E3.86764
G1 X164.141 Y125.569 E3.89389
G1 X163.943 Y126.334 E3.92017
G1 X163.669 Y127.074 E3.94642
G1 X163.321 Y127.783 E3.97268
G1 X162.903 Y128.454 E3.99898
G1 X162.42 Y129.078 E4.02522
G1 X161.877 Y129.651 E4.05148
G1 X161.278 Y130.166 E4.07775
G1 X160.63 Y130.617 E4.10401
G1 X159.939 Y131.001 E4.13031
G1 X159.214 Y131.313 E4.15656
G1 X158.461 Y131.55 E4.18281
G1 X157.687 Y131.709 E4.20909
G1 X156.902 Y131.79 E4.23534
G1 X156.5 Y131.8 E4.24872
G1 X78.5 Y131.8 E6.84301
G1 X77.711 Y131.76 E6.86928
G1 X76.931 Y131.641 E6.89553
G1 X76.166 Y131.443 E6.92181
G1 X75.426 Y131.169 E6.94805
G1 X74.717 Y130.821 E6.97432
G1 X74.046 Y130.403 E7.00062
G1 X73.422 Y129.92 E7.02686
G1 X72.849 Y129.377 E7.05312
G1 X72.334 Y128.778 E7.07939
G1 X71.883 Y128.13 E7.10565
G1 X71.499 Y127.439 E7.13194
G1 X71.187 Y126.714 E7.1582
G1 X70.95 Y125.961 E7.18445
G1 X70.791 Y125.187 E7.21073
G1 X70.71 Y124.402 E7.23698
G1 X70.7 Y124 E7.25035
G1 X70.7 Y111 E7.68274
G0 F6000 X71.1 Y111
G1 F900 X71.14 Y110.232 E7.70832
G1 X71.259 Y109.472 E7.7339
G1 X71.457 Y108.729 E7.75948
G1 X71.731 Y108.01 E7.78507
G1 X72.078 Y107.324 E7.81064
G1 X72.494 Y106.677 E7.83622
G1 X72.975 Y106.077 E7.8618
G1 X73.516 Y105.53 E7.88739
G1 X74.111 Y105.042 E7.91298
G1 X74.753 Y104.619 E7.93855
G1 X75.436 Y104.264 E7.96415
G1 X76.151 Y103.983 E7.9897
G1 X76.893 Y103.777 E8.01532
G1 X77.651 Y103.649 E8.04089
G1 X78.5 Y103.6 E8.06917
G1 X156.5 Y103.6 E10.66346
G1 X157.268 Y103.64 E10.68904
G1 X158.028 Y103.759 E10.71462
G1 X158.771 Y103.957 E10.7402
G1 X159.49 Y104.231 E10.76579
G1 X160.176 Y104.578 E10.79136
G1 X160.823 Y104.994 E10.81694
G1 X161.423 Y105.475 E10.84252
G1 X161.97 Y106.016 E10.86811
G1 X162.458 Y106.611 E10.8937
G1 X162.881 Y107.253 E10.91928
G1 X163.236 Y107.936 E10.94488
G1 X163.517 Y108.651 E10.97043
G1 X163.723 Y109.393 E10.99604
G1 X163.851 Y110.151 E11.02161
G1 X163.9 Y111 E11.04989
G1 X163.9 Y124 E11.48228
G1 X163.86 Y124.768 E11.50785
G1 X163.741 Y125.528 E11.53344
G1 X163.543 Y126.271 E11.55902
G1 X163.269 Y126.99 E11.58461
G1 X162.922 Y127.676 E11.61018
G1 X162.506 Y128.323 E11.63576
G1 X162.025 Y128.923 E11.66134
G1 X161.484 Y129.47 E11.68693
G1 X160.889 Y129.958 E11.71252
G1 X160.247 Y130.381 E11.73809
G1 X159.564 Y130.736 E11.76369
G1 X158.849 Y131.017 E11.78924
G1 X158.107 Y131.223 E11.81486
G1 X157.349 Y131.351 E11.84043
G1 X156.5 Y131.4 E11.86871
G1 X78.5 Y131.4 E14.463
G1 X77.732 Y131.36 E14.48858
G1 X76.972 Y131.241 E14.51416
G1 X76.229 Y131.043 E14.53974
G1 X75.51 Y130.769 E14.56533
G1 X74.824 Y130.422 E14.5909
G1 X74.177 Y130.006 E14.61648
G1 X73.577 Y129.525 E14.64206
G1 X73.03 Y128.984 E14.66765
G1 X72.542 Y128.389 E14.69324
G1 X72.119 Y127.747 E14.71882
G1 X71.764 Y127.064 E14.74442
G1 X71.483 Y126.349 E14.76997
G1 X71.277 Y125.607 E14.79558
G1 X71.149 Y124.849 E14.82115
G1 X71.1 Y124 E14.84943
G1 X71.1 Y111 E15.28182
G0 F6000 X71.5 Y111
G1 F900 X71.54 Y110.253 E15.3067
G1 X71.659 Y109.515 E15.33156
G1 X71.857 Y108.793 E15.35646
G1 X72.13 Y108.097 E15.38133
G1 X72.477 Y107.434 E15.40622
G1 X72.892 Y106.811 E15.43111
G1 X73.371 Y106.237 E15.45598
G1 X73.908 Y105.716 E15.48086
G1 X74.498 Y105.257 E15.50573
G1 X75.134 Y104.862 E15.53063
G1 X75.808 Y104.538 E15.5555
G1 X76.513 Y104.288 E15.58038
G1 X77.241 Y104.114 E15.60528
G1 X77.983 Y104.019 E15.63016
G1 X78.5 Y104 E15.64736
G1 X156.5 Y104 E18.24165
G1 X157.247 Y104.04 E18.26653
G1 X157.985 Y104.159 E18.2914
G1 X158.707 Y104.357 E18.3163
G1 X159.403 Y104.63 E18.34116
G1 X160.066 Y104.977 E18.36605
G1 X160.689 Y105.392 E18.39095
G1 X161.263 Y105.871 E18.41582
G1 X161.784 Y106.408 E18.4407
G1 X162.243 Y106.998 E18.46556
G1 X162.638 Y107.634 E18.49047
G1 X162.962 Y108.308 E18.51534
G1 X163.212 Y109.013 E18.54022
G1 X163.386 Y109.741 E18.56511
G1 X163.481 Y110.483 E18.58999
G1 X163.5 Y111 E18.6072
G1 X163.5 Y124 E19.03958
G1 X163.46 Y124.747 E19.06446
G1 X163.341 Y125.485 E19.08933
G1 X163.143 Y126.207 E19.11423
G1 X162.87 Y126.903 E19.13909
G1 X162.523 Y127.566 E19.16398
G1 X162.108 Y128.189 E19.18888
G1 X161.629 Y128.763 E19.21374
G1 X161.092 Y129.284 E19.23863
G1 X160.502 Y129.743 E19.26349
G1 X159.866 Y130.138 E19.28839
G1 X159.192 Y130.462 E19.31327
G1 X158.487 Y130.712 E19.33815
G1 X157.759 Y130.886 E19.36304
G1 X157.017 Y130.981 E19.38792
G1 X156.5 Y131 E19.40513
G1 X78.5 Y131 E21.99942
G1 X77.753 Y130.96 E22.0243
G1 X77.015 Y130.841 E22.04916
G1 X76.293 Y130.643 E22.07406
G1 X75.597 Y130.37 E22.09893
G1 X74.934 Y130.023 E22.12382
G1 X74.311 Y129.608 E22.14872
G1 X73.737 Y129.129 E22.17358
G1 X73.216 Y128.592 E22.19847
G1 X72.757 Y128.002 E22.22333
G1 X72.362 Y127.366 E22.24823
G1 X72.038 Y126.692 E22.2731
G1 X71.788 Y125.987 E22.29798
G1 X71.614 Y125.259 E22.32288
G1 X71.519 Y124.517 E22.34776
G1 X71.5 Y124 E22.36497
G1 X71.5 Y111 E22.79735
G0 F6000 X71.9 Y111
G1 F900 X71.94 Y110.275 E22.8215
G1 X72.059 Y109.558 E22.84567
G1 X72.257 Y108.859 E22.86984
G1 X72.53 Y108.186 E22.89399
G1 X72.875 Y107.547 E22.91814
G1 X73.289 Y106.95 E22.94231
G1 X73.765 Y106.402 E22.96645
G1 X74.299 Y105.909 E22.99062
G1 X74.884 Y105.479 E23.01477
G1 X75.513 Y105.115 E23.03894
G1 X76.178 Y104.822 E23.06311
G1 X76.871 Y104.604 E23.08727
G1 X77.583 Y104.464 E23.11141
G1 X78.5 Y104.4 E23.14198
G1 X156.5 Y104.4 E25.73627
G1 X157.225 Y104.44 E25.76042
G1 X157.942 Y104.559 E25.7846
G1 X158.641 Y104.757 E25.80876
G1 X159.314 Y105.03 E25.83292
G1 X159.953 Y105.375 E25.85707
G1 X160.55 Y105.789 E25.88123
G1 X161.098 Y106.265 E25.90538
G1 X161.591 Y106.799 E25.92955
G1 X162.021 Y107.384 E25.9537
G1 X162.385 Y108.013 E25.97787
G1 X162.678 Y108.678 E26.00204
G1 X162.896 Y109.371 E26.0262
G1 X163.036 Y110.083 E26.05033
G1 X163.1 Y111 E26.08091
G1 X163.1 Y124 E26.51329
G1 X163.06 Y124.725 E26.53744
G1 X162.941 Y125.442 E26.56161
G1 X162.743 Y126.141 E26.58578
G1 X162.47 Y126.814 E26.60993
G1 X162.125 Y127.453 E26.63409
G1 X161.711 Y128.05 E26.65825
G1 X161.235 Y128.598 E26.68239
G1 X160.701 Y129.091 E26.70656
G1 X160.116 Y129.521 E26.73071
G1 X159.487 Y129.885 E26.75488
G1 X158.822 Y130.178 E26.77905
G1 X158.129 Y130.396 E26.80322
G1 X157.417 Y130.536 E26.82735
G1 X156.5 Y130.6 E26.85792
G1 X78.5 Y130.6 E29.45221
G1 X77.775 Y130.56 E29.47637
G1 X77.058 Y130.441 E29.50054
G1 X76.359 Y130.243 E29.5247
G1 X75.686 Y129.97 E29.54886
G1 X75.047 Y129.625 E29.57301
G1 X74.45 Y129.211 E29.59717
G1 X73.902 Y128.735 E29.62132
G1 X73.409 Y128.201 E29.64549
G1 X72.979 Y127.616 E29.66964
G1 X72.615 Y126.987 E29.69381
G1 X72.322 Y126.322 E29.71798
G1 X72.104 Y125.629 E29.74214
G1 X71.964 Y124.917 E29.76628
G1 X71.9 Y124 E29.79685
G1 X71.9 Y111 E30.22923
G0 F6000 X72.3 Y111
G1 F900 X72.34 Y110.297 E30.25265
G1 X72.459 Y109.603 E30.27607
G1 X72.657 Y108.928 E30.29947
G1 X72.929 Y108.279 E30.32287
G1 X73.274 Y107.665 E30.3463
G1 X73.685 Y107.094 E30.3697
G1 X74.159 Y106.573 E30.39312
G1 X74.689 Y106.109 E30.41655
G1 X75.268 Y105.709 E30.43996
G1 X75.889 Y105.377 E30.46338
G1 X76.543 Y105.117 E30.48679
G1 X77.223 Y104.933 E30.51022
G1 X77.919 Y104.827 E30.53363
G1 X78.5 Y104.8 E30.55298
G1 X156.5 Y104.8 E33.14727
G1 X157.203 Y104.84 E33.17069
G1 X157.897 Y104.959 E33.19411
G1 X158.572 Y105.157 E33.21751
G1 X159.221 Y105.429 E33.24091
G1 X159.835 Y105.774 E33.26433
G1 X160.406 Y106.185 E33.28773
G1 X160.927 Y106.659 E33.31116
G1 X161.391 Y107.189 E33.33459
G1 X161.791 Y107.768 E33.358
G1 X162.123 Y108.389 E33.38142
G1 X162.383 Y109.043 E33.40483
G1 X162.567 Y109.723 E33.42826
G1 X162.673 Y110.419 E33.45167
G1 X162.7 Y111 E33.47102
G1 X162.7 Y124 E33.9034
G1 X162.66 Y124.703 E33.92682
G1 X162.541 Y125.397 E33.95024
G1 X162.343 Y126.072 E33.97363
G1 X162.071 Y126.721 E33.99704
G1 X161.726 Y127.335 E34.02046
G1 X161.315 Y127.906 E34.04386
G1 X160.841 Y128.427 E34.06729
G1 X160.311 Y128.891 E34.09072
G1 X159.732 Y129.291 E34.11413
G1 X159.111 Y129.623 E34.13755
G1 X158.457 Y129.883 E34.16095
G1 X157.777 Y130.067 E34.18438
G1 X157.081 Y130.173 E34.2078
G1 X156.5 Y130.2 E34.22715
G1 X78.5 Y130.2 E36.82144
G1 X77.797 Y130.16 E36.84486
G1 X77.103 Y130.041 E36.86828
G1 X76.428 Y129.843 E36.89167
G1 X75.779 Y129.571 E36.91508
G1 X75.165 Y129.226 E36.9385
G1 X74.594 Y128.815 E36.9619
G1 X74.073 Y128.341 E36.98533
G1 X73.609 Y127.811 E37.00876
G1 X73.209 Y127.232 E37.03216
G1 X72.877 Y126.611 E37.05558
G1 X72.617 Y125.957 E37.07899
G1 X72.433 Y125.277 E37.10242
G1 X72.327 Y124.581 E37.12584
G1 X72.3 Y124 E37.14518
G1 X72.3 Y111 E37.57757
G0 F6000 X72.7 Y111
G1 F900 X72.74 Y110.32 E37.60022
G1 X72.859 Y109.65 E37.62285
G1 X73.056 Y108.998 E37.64551
G1 X73.328 Y108.374 E37.66815
G1 X73.672 Y107.786 E37.69081
G1 X74.082 Y107.242 E37.71346
G1 X74.553 Y106.751 E37.73609
G1 X75.078 Y106.317 E37.75875
G1 X75.65 Y105.948 E37.78139
G1 X76.262 Y105.649 E37.80404
G1 X76.904 Y105.424 E37.82667
G1 X77.569 Y105.275 E37.84934
G1 X78.5 Y105.2 E37.8804
G1 X156.5 Y105.2 E40.47469
G1 X157.18 Y105.24 E40.49735
G1 X157.85 Y105.359 E40.51998
G1 X158.502 Y105.556 E40.54264
G1 X159.126 Y105.828 E40.56528
G1 X159.714 Y106.172 E40.58793
G1 X160.258 Y106.582 E40.61059
G1 X160.749 Y107.053 E40.63322
G1 X161.183 Y107.578 E40.65588
G1 X161.552 Y108.15 E40.67852
G1 X161.851 Y108.762 E40.70117
G1 X162.076 Y109.404 E40.7238
G1 X162.225 Y110.069 E40.74646
G1 X162.3 Y111 E40.77753
G1 X162.3 Y124 E41.20991
G1 X162.26 Y124.68 E41.23257
G1 X162.141 Y125.35 E41.2552
G1 X161.944 Y126.002 E41.27785
G1 X161.672 Y126.626 E41.30049
G1 X161.328 Y127.214 E41.32315
G1 X160.918 Y127.758 E41.34581
G1 X160.447 Y128.249 E41.36844
G1 X159.922 Y128.683 E41.39109
G1 X159.35 Y129.052 E41.41373
G1 X158.738 Y129.351 E41.43639
G1 X158.096 Y129.576 E41.45901
G1 X157.431 Y129.725 E41.48168
G1 X156.5 Y129.8 E41.51275
G1 X78.5 Y129.8 E44.10704
G1 X77.82 Y129.76 E44.12969
G1 X77.15 Y129.641 E44.15233
G1 X76.498 Y129.444 E44.17498
G1 X75.874 Y129.172 E44.19762
G1 X75.286 Y128.828 E44.22028
G1 X74.742 Y128.418 E44.24293
G1 X74.251 Y127.947 E44.26556
G1 X73.817 Y127.422 E44.28822
G1 X73.448 Y126.85 E44.31086
G1 X73.149 Y126.238 E44.33351
G1 X72.924 Y125.596 E44.35614
G1 X72.775 Y124.931 E44.37881
G1 X72.7 Y124 E44.40987
G1 X72.7 Y111 E44.84225
G0 F6000 X73.1 Y111
G1 F900 X73.14 Y110.344 E44.86411
G1 X73.259 Y109.698 E44.88596
G1 X73.456 Y109.071 E44.90782
G1 X73.728 Y108.473 E44.92967
G1 X74.07 Y107.912 E44.95152
G1 X74.478 Y107.397 E44.97338
G1 X74.945 Y106.935 E44.99523
G1 X75.465 Y106.534 E45.01707
G1 X76.029 Y106.198 E45.0389
G1 X76.631 Y105.934 E45.06077
G1 X77.26 Y105.744 E45.08262
G1 X77.907 Y105.633 E45.10445
G1 X78.5 Y105.6 E45.12421
G1 X156.5 Y105.6 E47.7185
G1 X157.156 Y105.64 E47.74036
G1 X157.802 Y105.759 E47.7622
G1 X158.429 Y105.956 E47.78406
G1 X159.027 Y106.228 E47.80591
G1 X159.588 Y106.57 E47.82777
G1 X160.103 Y106.978 E47.84962
G1 X160.565 Y107.445 E47.87147
G1 X160.966 Y107.965 E47.89331
G1 X161.302 Y108.529 E47.91514
G1 X161.566 Y109.131 E47.93701
G1 X161.756 Y109.76 E47.95886
G1 X161.867 Y110.407 E47.9807
G1 X161.9 Y111 E48.00045
G1 X161.9 Y124 E48.43283
G1 X161.86 Y124.656 E48.45469
G1 X161.741 Y125.302 E48.47654
G1 X161.544 Y125.929 E48.4984
G1 X161.272 Y126.527 E48.52025
G1 X160.93 Y127.088 E48.5421
G1 X160.522 Y127.603 E48.56395
G1 X160.055 Y128.065 E48.5858
G1 X159.535 Y128.466 E48.60764
G1 X158.971 Y128.802 E48.62948
G1 X158.369 Y129.066 E48.65134
G1 X157.74 Y129.256 E48.6732
G1 X157.093 Y129.367 E48.69503
G1 X156.5 Y129.4 E48.71478
G1 X78.5 Y129.4 E51.30907
G1 X77.844 Y129.36 E51.33093
G1 X77.198 Y129.241 E51.35278
G1 X76.571 Y129.044 E51.37464
G1 X75.973 Y128.772 E51.39649
G1 X75.412 Y128.43 E51.41834
G1 X74.897 Y128.022 E51.4402
G1 X74.435 Y127.555 E51.46204
G1 X74.034 Y127.035 E51.48388
G1 X73.698 Y126.471 E51.50572
G1 X73.434 Y125.869 E51.52758
G1 X73.244 Y125.24 E51.54944
G1 X73.133 Y124.593 E51.57127
G1 X73.1 Y124 E51.59103
G1 X73.1 Y111 E52.02341
G0 F6000 X73.5 Y111
G1 F900 X73.54 Y110.369 E52.04444
G1 X73.659 Y109.748 E52.06547
G1 X73.856 Y109.148 E52.08647
G1 X74.127 Y108.576 E52.10752
G1 X74.467 Y108.044 E52.12852
G1 X74.873 Y107.559 E52.14956
G1 X75.336 Y107.129 E52.17058
G1 X75.85 Y106.76 E52.19162
G1 X76.406 Y106.46 E52.21263
G1 X76.995 Y106.232 E52.23364
G1 X77.609 Y106.08 E52.25468
G1 X78.5 Y106 E52.28443
G1 X156.5 Y106 E54.87872
G1 X157.131 Y106.04 E54.89975
G1 X157.752 Y106.159 E54.92078
G1 X158.352 Y106.356 E54.94179
G1 X158.924 Y106.627 E54.96284
G1 X159.456 Y106.967 E54.98384
G1 X159.941 Y107.373 E55.00488
G1 X160.371 Y107.836 E55.02589
G1 X160.74 Y108.35 E55.04694
G1 X161.04 Y108.906 E55.06795
G1 X161.268 Y109.495 E55.08896
G1 X161.42 Y110.109 E55.10999
G1 X161.5 Y111 E55.13975
G1 X161.5 Y124 E55.57213
G1 X161.46 Y124.631 E55.59316
G1 X161.341 Y125.252 E55.61419
G1 X161.144 Y125.852 E55.63519
G1 X160.873 Y126.424 E55.65625
G1 X160.533 Y126.956 E55.67725
G1 X160.127 Y127.441 E55.69828
G1 X159.664 Y127.871 E55.7193
G1 X159.15 Y128.24 E55.74034
G1 X158.594 Y128.54 E55.76136
G1 X158.005 Y128.768 E55.78236
G1 X157.391 Y128.92 E55.8034
G1 X156.5 Y129 E55.83316
G1 X78.5 Y129 E58.42745
G1 X77.869 Y128.96 E58.44848
G1 X77.248 Y128.841 E58.46951
G1 X76.648 Y128.644 E58.49051
G1 X76.076 Y128.373 E58.51156
G1 X75.544 Y128.033 E58.53256
G1 X75.059 Y127.627 E58.5536
G1 X74.629 Y127.164 E58.57461
G1 X74.26 Y126.65 E58.59566
G1 X73.96 Y126.094 E58.61667
G1 X73.732 Y125.505 E58.63768
G1 X73.58 Y124.891 E58.65872
G1 X73.5 Y124 E58.68847
G1 X73.5 Y111 E59.12085
G0 F6000 X73.9 Y111
G1 F900 X73.94 Y110.395 E59.14102
G1 X74.059 Y109.801 E59.16117
G1 X74.255 Y109.227 E59.18134
G1 X74.526 Y108.684 E59.20153
G1 X74.865 Y108.181 E59.2217
G1 X75.267 Y107.728 E59.24185
G1 X75.725 Y107.331 E59.262
G1 X76.232 Y106.998 E59.28218
G1 X76.778 Y106.734 E59.30235
G1 X77.354 Y106.545 E59.32251
