;FLAVOR:Marlin
;TIME:7112
;Filament used: 4.35505m
;Layer height: 0.2
;MINX:23.401
;MINY:96.2
;MINZ:0.2
;MAXX:211.596
;MAXY:138.8
;MAXZ:3
;Generated with Cura_SteamEngine main
M140 S65
M105
M190 S65
M104 S240
M105
M109 S240
M82 ;absolute extrusion mode
; Ender 3 Custom Start G-code
G92 E0 ; Reset Extruder
G28 ; Home all axes
G1 Z2.0 F3000 ; Move Z Axis up little to prevent scratching of Heat Bed
G1 X0.1 Y20 Z0.3 F5000.0 ; Move to start position
G1 X0.1 Y200.0 Z0.3 F1500.0 E15 ; Draw the first line
G1 X0.4 Y200.0 Z0.3 F5000.0 ; Move to side a little
G1 X0.4 Y20 Z0.3 F1500.0 E30 ; Draw the second line
G92 E0 ; Reset Extruder
G1 Z2.0 F3000 ; Move Z Axis up little to prevent scratching of Heat Bed
G1 X5 Y20 Z0.3 F5000.0 ; Move over to prevent blob squish
G92 E0
G92 E0
G1 F2700 E-5
;LAYER_COUNT:15
;LAYER:0
M107
G0 F6000 X29.105 Y96.487 Z0.2
G0 X23.401 Y104.14
;TYPE:SKIRT
G1 F2700 E0
G1 F900 X23.427 Y103.35 E0.02629
G1 X23.533 Y102.568 E0.05254
G1 X23.717 Y101.8 E0.0788
G1 X23.978 Y101.054 E0.10509
G1 X24.312 Y100.339 E0.13134
G1 X24.718 Y99.662 E0.15759
G1 X25.19 Y99.028 E0.18388
G1 X25.723 Y98.446 E0.21013
G1 X26.313 Y97.921 E0.2364
G1 X26.953 Y97.458 E0.26267
G1 X27.636 Y97.062 E0.28893
G1 X28.356 Y96.737 E0.3152
G1 X29.105 Y96.487 E0.34147
G1 X29.875 Y96.313 E0.36772
G1 X30.659 Y96.219 E0.39399
G1 X31.2 Y96.2 E0.41199
G1 X200.2 Y96.2 E6.03295
G1 X200.989 Y96.24 E6.05923
G1 X201.769 Y96.359 E6.08547
G1 X202.534 Y96.557 E6.11176
G1 X203.274 Y96.831 E6.138
G1 X203.983 Y97.179 E6.16427
G1 X204.654 Y97.597 E6.19056
G1 X205.278 Y98.08 E6.21681
G1 X205.851 Y98.623 E6.24306
G1 X206.366 Y99.222 E6.26934
G1 X206.817 Y99.87 E6.2956
G1 X207.201 Y100.561 E6.32189
G1 X207.513 Y101.286 E6.34814
G1 X207.75 Y102.039 E6.3744
G1 X207.932 Y102.969 E6.40592
G1 X211.532 Y129.969 E7.31189
G1 X211.596 Y130.756 E7.33815
G1 X211.581 Y131.546 E7.36443
G1 X211.486 Y132.33 E7.3907
G1 X211.312 Y133.1 E7.41695
G1 X211.061 Y133.849 E7.44323
G1 X210.736 Y134.568 E7.46947
G1 X210.34 Y135.251 E7.49573
G1 X209.876 Y135.891 E7.52202
G1 X209.351 Y136.48 E7.54826
G1 X208.768 Y137.013 E7.57454
G1 X208.135 Y137.485 E7.6008
G1 X207.457 Y137.89 E7.62707
G1 X206.741 Y138.224 E7.65334
G1 X205.996 Y138.485 E7.6796
G1 X205.228 Y138.668 E7.70586
G1 X204.445 Y138.773 E7.73213
G1 X203.8 Y138.8 E7.75361
G1 X40.2 Y138.8 E13.19496
G1 X39.411 Y138.76 E13.22124
G1 X38.631 Y138.641 E13.24748
G1 X37.866 Y138.443 E13.27377
G1 X37.126 Y138.169 E13.30001
G1 X36.417 Y137.821 E13.32628
G1 X35.746 Y137.403 E13.35257
G1 X35.122 Y136.92 E13.37882
G1 X34.549 Y136.377 E13.40508
G1 X34.034 Y135.778 E13.43135
G1 X33.583 Y135.13 E13.45761
G1 X33.199 Y134.439 E13.4839
G1 X32.8 Y133.467 E13.51885
G1 X23.8 Y106.467 E14.46545
G1 X23.589 Y105.706 E14.49171
G1 X23.455 Y104.927 E14.518
G1 X23.401 Y104.14 E14.54424
G0 F6000 X23.8 Y104.072
G1 F900 X23.833 Y103.304 E14.56981
G1 X23.945 Y102.543 E14.59539
G1 X24.135 Y101.798 E14.62096
G1 X24.402 Y101.076 E14.64657
G1 X24.742 Y100.387 E14.67212
G1 X25.152 Y99.736 E14.69771
G1 X25.627 Y99.131 E14.72329
G1 X26.163 Y98.579 E14.74888
G1 X26.753 Y98.085 E14.77448
G1 X27.391 Y97.656 E14.80005
G1 X28.07 Y97.295 E14.82563
G1 X28.783 Y97.006 E14.85121
G1 X29.522 Y96.793 E14.87679
G1 X30.279 Y96.658 E14.90237
G1 X31.2 Y96.6 E14.93306
G1 X200.2 Y96.6 E20.55403
G1 X200.968 Y96.64 E20.5796
G1 X201.728 Y96.759 E20.60519
G1 X202.471 Y96.957 E20.63076
G1 X203.19 Y97.231 E20.65636
G1 X203.876 Y97.578 E20.68193
G1 X204.523 Y97.994 E20.70751
G1 X205.123 Y98.475 E20.73309
G1 X205.67 Y99.016 E20.75867
G1 X206.158 Y99.611 E20.78427
G1 X206.581 Y100.253 E20.80984
G1 X206.936 Y100.936 E20.83544
G1 X207.217 Y101.651 E20.86099
G1 X207.423 Y102.393 E20.88661
G1 X207.535 Y103.022 E20.90786
G1 X211.135 Y130.022 E21.81383
G1 X211.197 Y130.789 E21.83942
G1 X211.179 Y131.558 E21.86501
G1 X211.081 Y132.321 E21.89059
G1 X210.905 Y133.069 E21.91615
G1 X210.652 Y133.795 E21.94172
G1 X210.324 Y134.492 E21.96734
G1 X209.927 Y135.15 E21.9929
G1 X209.463 Y135.763 E22.01847
G1 X208.938 Y136.326 E22.04408
G1 X208.357 Y136.83 E22.06966
G1 X207.728 Y137.272 E22.09523
G1 X207.055 Y137.645 E22.12082
G1 X206.348 Y137.947 E22.14639
G1 X205.613 Y138.174 E22.17197
G1 X204.859 Y138.324 E22.19754
G1 X203.8 Y138.4 E22.23286
G1 X40.2 Y138.4 E27.67422
G1 X39.432 Y138.36 E27.69979
G1 X38.672 Y138.241 E27.72538
G1 X37.929 Y138.043 E27.75095
G1 X37.21 Y137.769 E27.77655
G1 X36.524 Y137.422 E27.80212
G1 X35.877 Y137.006 E27.8277
G1 X35.277 Y136.525 E27.85328
G1 X34.73 Y135.984 E27.87886
G1 X34.242 Y135.389 E27.90446
G1 X33.819 Y134.747 E27.93003
G1 X33.464 Y134.064 E27.95563
G1 X33.18 Y133.34 E27.9815
G1 X24.18 Y106.34 E28.9281
G1 X23.975 Y105.599 E28.95367
G1 X23.848 Y104.84 E28.97927
G1 X23.8 Y104.072 E29.00486
G0 F6000 X24.2 Y104.007
G1 F900 X24.239 Y103.26 E29.02974
G1 X24.358 Y102.521 E29.05463
G1 X24.555 Y101.8 E29.07949
G1 X24.828 Y101.103 E29.10439
G1 X25.173 Y100.44 E29.12925
G1 X25.587 Y99.817 E29.15413
G1 X26.066 Y99.242 E29.17902
G1 X26.603 Y98.721 E29.2039
G1 X27.193 Y98.261 E29.22879
G1 X27.828 Y97.866 E29.25366
G1 X28.502 Y97.541 E29.27855
G1 X29.206 Y97.29 E29.30341
G1 X29.934 Y97.115 E29.32831
G1 X30.676 Y97.02 E29.35319
G1 X31.2 Y97 E29.37063
G1 X200.2 Y97 E34.99159
G1 X200.947 Y97.04 E35.01648
G1 X201.685 Y97.159 E35.04134
G1 X202.407 Y97.357 E35.06624
G1 X203.103 Y97.63 E35.0911
G1 X203.766 Y97.977 E35.11599
G1 X204.389 Y98.392 E35.14089
G1 X204.963 Y98.871 E35.16576
G1 X205.484 Y99.408 E35.19064
G1 X205.943 Y99.998 E35.2155
G1 X206.338 Y100.634 E35.24041
G1 X206.662 Y101.308 E35.26528
G1 X206.912 Y102.013 E35.29016
G1 X207.139 Y103.075 E35.32628
G1 X210.739 Y130.075 E36.23225
G1 X210.798 Y130.821 E36.25714
G1 X210.777 Y131.568 E36.28199
G1 X210.676 Y132.31 E36.3069
G1 X210.497 Y133.036 E36.33177
G1 X210.242 Y133.739 E36.35664
G1 X209.913 Y134.411 E36.38153
G1 X209.514 Y135.044 E36.40642
G1 X209.05 Y135.63 E36.43128
G1 X208.526 Y136.164 E36.45616
G1 X207.948 Y136.639 E36.48104
G1 X207.322 Y137.049 E36.50593
G1 X206.657 Y137.391 E36.5308
G1 X205.958 Y137.659 E36.5557
G1 X205.235 Y137.851 E36.58058
G1 X204.496 Y137.965 E36.60545
G1 X203.8 Y138 E36.62863
G1 X40.2 Y138 E42.06999
G1 X39.453 Y137.96 E42.09487
G1 X38.715 Y137.841 E42.11973
G1 X37.993 Y137.643 E42.14463
G1 X37.297 Y137.37 E42.1695
G1 X36.634 Y137.023 E42.19439
G1 X36.011 Y136.608 E42.21929
G1 X35.437 Y136.129 E42.24415
G1 X34.916 Y135.592 E42.26904
G1 X34.457 Y135.002 E42.2939
G1 X34.062 Y134.366 E42.3188
G1 X33.738 Y133.692 E42.34367
G1 X33.559 Y133.214 E42.36065
G1 X24.559 Y106.214 E43.30725
G1 X24.361 Y105.492 E43.33215
G1 X24.241 Y104.754 E43.35702
G1 X24.2 Y104.007 E43.3819
G0 F6000 X24.6 Y103.943
G1 F900 X24.646 Y103.218 E43.40606
G1 X24.772 Y102.503 E43.43021
G1 X24.975 Y101.806 E43.45436
G1 X25.254 Y101.135 E43.47853
G1 X25.605 Y100.499 E43.50269
G1 X26.024 Y99.905 E43.52687
G1 X26.505 Y99.361 E43.55102
G1 X27.043 Y98.874 E43.57515
G1 X27.632 Y98.448 E43.59933
G1 X28.263 Y98.089 E43.62348
G1 X28.931 Y97.802 E43.64766
G1 X29.625 Y97.591 E43.67178
G1 X30.339 Y97.456 E43.69595
G1 X31.2 Y97.4 E43.72465
G1 X200.2 Y97.4 E49.34561
G1 X200.925 Y97.44 E49.36976
G1 X201.642 Y97.559 E49.39394
G1 X202.341 Y97.757 E49.4181
G1 X203.014 Y98.03 E49.44226
G1 X203.653 Y98.375 E49.46641
G1 X204.25 Y98.789 E49.49057
G1 X204.798 Y99.265 E49.51472
G1 X205.291 Y99.799 E49.53889
G1 X205.721 Y100.384 E49.56304
G1 X206.085 Y101.013 E49.58721
G1 X206.378 Y101.678 E49.61138
G1 X206.596 Y102.371 E49.63554
G1 X206.742 Y103.128 E49.66118
G1 X210.342 Y130.128 E50.56715
G1 X210.398 Y130.852 E50.5913
G1 X210.375 Y131.578 E50.61546
G1 X210.271 Y132.297 E50.63963
G1 X210.09 Y133 E50.66377
G1 X209.832 Y133.679 E50.68793
G1 X209.501 Y134.326 E50.7121
G1 X209.101 Y134.932 E50.73625
G1 X208.637 Y135.491 E50.76042
G1 X208.114 Y135.995 E50.78457
G1 X207.539 Y136.439 E50.80874
G1 X206.919 Y136.817 E50.83289
G1 X206.26 Y137.124 E50.85707
G1 X205.573 Y137.358 E50.88121
G1 X204.863 Y137.514 E50.90538
G1 X203.8 Y137.6 E50.94086
G1 X40.2 Y137.6 E56.38221
G1 X39.475 Y137.56 E56.40636
G1 X38.758 Y137.441 E56.43054
G1 X38.059 Y137.243 E56.4547
G1 X37.386 Y136.97 E56.47886
G1 X36.747 Y136.625 E56.50301
G1 X36.15 Y136.211 E56.52717
G1 X35.602 Y135.735 E56.55132
G1 X35.109 Y135.201 E56.57549
G1 X34.679 Y134.616 E56.59964
G1 X34.315 Y133.987 E56.62381
G1 X33.939 Y133.087 E56.65625
G1 X24.939 Y106.087 E57.60285
G1 X24.747 Y105.386 E57.62702
G1 X24.634 Y104.669 E57.65116
G1 X24.6 Y103.943 E57.67534
G0 F6000 X25.001 Y103.882
G1 F900 X25.054 Y103.18 E57.69875
G1 X25.187 Y102.488 E57.72219
G1 X25.397 Y101.817 E57.74558
G1 X25.682 Y101.173 E57.769
G1 X26.038 Y100.565 E57.79243
G1 X26.461 Y100.002 E57.81585
G1 X26.945 Y99.491 E57.83926
G1 X27.483 Y99.038 E57.86266
G1 X28.07 Y98.648 E57.8861
G1 X28.697 Y98.328 E57.90951
G1 X29.356 Y98.081 E57.93292
G1 X30.039 Y97.91 E57.95633
G1 X30.737 Y97.817 E57.97975
G1 X31.2 Y97.8 E57.99516
G1 X200.2 Y97.8 E63.61613
G1 X200.903 Y97.84 E63.63955
G1 X201.597 Y97.959 E63.66297
G1 X202.272 Y98.157 E63.68636
G1 X202.921 Y98.429 E63.70977
G1 X203.535 Y98.774 E63.73319
G1 X204.106 Y99.185 E63.75659
G1 X204.627 Y99.659 E63.78002
G1 X205.091 Y100.189 E63.80345
G1 X205.491 Y100.768 E63.82685
G1 X205.823 Y101.389 E63.85028
G1 X206.083 Y102.043 E63.87368
G1 X206.267 Y102.723 E63.89711
G1 X206.346 Y103.181 E63.91257
G1 X209.946 Y130.181 E64.81854
G1 X209.999 Y130.883 E64.84196
G1 X209.972 Y131.586 E64.86536
G1 X209.866 Y132.282 E64.88877
G1 X209.682 Y132.961 E64.91217
G1 X209.421 Y133.615 E64.93559
G1 X209.089 Y134.236 E64.95901
G1 X208.688 Y134.815 E64.98244
G1 X208.224 Y135.344 E65.00584
G1 X207.703 Y135.818 E65.02927
G1 X207.131 Y136.229 E65.0527
G1 X206.517 Y136.573 E65.0761
G1 X205.868 Y136.845 E65.09951
G1 X205.192 Y137.042 E65.12293
G1 X204.498 Y137.161 E65.14635
G1 X203.8 Y137.2 E65.1696
G1 X40.2 Y137.2 E70.61096
G1 X39.497 Y137.16 E70.63438
G1 X38.803 Y137.041 E70.6578
G1 X38.128 Y136.843 E70.68119
G1 X37.479 Y136.571 E70.7046
G1 X36.865 Y136.226 E70.72802
G1 X36.294 Y135.815 E70.75142
G1 X35.773 Y135.341 E70.77485
G1 X35.309 Y134.811 E70.79828
G1 X34.909 Y134.232 E70.82168
G1 X34.577 Y133.611 E70.84511
G1 X34.318 Y132.961 E70.86838
G1 X25.318 Y105.961 E71.81498
G1 X25.134 Y105.281 E71.83841
G1 X25.028 Y104.585 E71.86182
G1 X25.001 Y103.882 E71.88522
G0 F6000 X25.403 Y103.822
G1 F900 X25.463 Y103.144 E71.90786
G1 X25.603 Y102.478 E71.9305
G1 X25.82 Y101.832 E71.95316
G1 X26.111 Y101.217 E71.97579
G1 X26.473 Y100.64 E71.99845
G1 X26.899 Y100.109 E72.02109
G1 X27.385 Y99.632 E72.04374
G1 X27.923 Y99.215 E72.06638
G1 X28.506 Y98.864 E72.08901
G1 X29.127 Y98.583 E72.11168
G1 X29.776 Y98.378 E72.13432
G1 X30.444 Y98.249 E72.15695
G1 X31.2 Y98.2 E72.18215
G1 X200.2 Y98.2 E77.80311
G1 X200.88 Y98.24 E77.82576
G1 X201.55 Y98.359 E77.8484
G1 X202.202 Y98.556 E77.87105
G1 X202.826 Y98.828 E77.89369
G1 X203.414 Y99.172 E77.91635
G1 X203.958 Y99.582 E77.93901
G1 X204.449 Y100.053 E77.96164
G1 X204.883 Y100.578 E77.98429
G1 X205.252 Y101.15 E78.00693
G1 X205.551 Y101.762 E78.02959
G1 X205.776 Y102.404 E78.05221
G1 X205.949 Y103.233 E78.08038
G1 X209.549 Y130.233 E78.98635
G1 X209.599 Y130.912 E79.00899
G1 X209.57 Y131.593 E79.03167
G1 X209.46 Y132.265 E79.05431
G1 X209.273 Y132.919 E79.07694
G1 X209.011 Y133.548 E79.0996
G1 X208.676 Y134.141 E79.12225
G1 X208.274 Y134.69 E79.14489
G1 X207.811 Y135.189 E79.16753
G1 X207.293 Y135.631 E79.19017
G1 X206.726 Y136.008 E79.21282
G1 X206.119 Y136.316 E79.23546
G1 X205.48 Y136.551 E79.2581
G1 X204.818 Y136.71 E79.28075
G1 X204.141 Y136.79 E79.30342
G1 X203.8 Y136.8 E79.31477
G1 X40.2 Y136.8 E84.75613
G1 X39.52 Y136.76 E84.77878
G1 X38.85 Y136.641 E84.80142
G1 X38.198 Y136.444 E84.82407
G1 X37.574 Y136.172 E84.84671
G1 X36.986 Y135.828 E84.86937
G1 X36.442 Y135.418 E84.89203
G1 X35.951 Y134.947 E84.91466
G1 X35.517 Y134.422 E84.93731
G1 X35.148 Y133.85 E84.95995
G1 X34.849 Y133.238 E84.98261
G1 X34.698 Y132.834 E84.99695
G1 X25.698 Y105.834 E85.94355
G1 X25.521 Y105.177 E85.96618
G1 X25.422 Y104.503 E85.98884
G1 X25.403 Y103.822 E86.0115
G0 F6000 X25.805 Y103.765
G1 F900 X25.874 Y103.112 E86.03334
G1 X26.021 Y102.472 E86.05518
G1 X26.245 Y101.854 E86.07704
G1 X26.542 Y101.268 E86.09889
G1 X26.908 Y100.723 E86.12073
G1 X27.338 Y100.226 E86.14259
G1 X27.825 Y99.785 E86.16444
G1 X28.362 Y99.406 E86.1863
G1 X28.94 Y99.095 E86.20813
G1 X29.553 Y98.857 E86.23
G1 X30.189 Y98.695 E86.25183
G1 X30.841 Y98.612 E86.27369
G1 X31.2 Y98.6 E86.28564
G1 X200.2 Y98.6 E91.9066
G1 X200.856 Y98.64 E91.92846
G1 X201.502 Y98.759 E91.95031
G1 X202.129 Y98.956 E91.97217
G1 X202.727 Y99.228 E91.99402
G1 X203.288 Y99.57 E92.01587
G1 X203.803 Y99.978 E92.03772
G1 X204.265 Y100.445 E92.05957
G1 X204.666 Y100.965 E92.08141
G1 X205.002 Y101.529 E92.10325
G1 X205.266 Y102.131 E92.12511
G1 X205.456 Y102.76 E92.14697
G1 X205.553 Y103.286 E92.16476
G1 X209.153 Y130.286 E93.07073
G1 X209.2 Y130.942 E93.0926
G1 X209.167 Y131.598 E93.11445
G1 X209.055 Y132.245 E93.13629
G1 X208.864 Y132.874 E93.15815
G1 X208.599 Y133.475 E93.18
G1 X208.263 Y134.04 E93.20186
G1 X207.861 Y134.559 E93.22369
G1 X207.399 Y135.026 E93.24554
G1 X206.883 Y135.433 E93.2674
G1 X206.322 Y135.775 E93.28925
G1 X205.724 Y136.046 E93.31109
G1 X205.097 Y136.242 E93.33294
G1 X204.451 Y136.361 E93.35479
G1 X203.8 Y136.4 E93.37648
G1 X40.2 Y136.4 E98.81784
G1 X39.544 Y136.36 E98.8397
G1 X38.898 Y136.241 E98.86154
G1 X38.271 Y136.044 E98.8834
G1 X37.673 Y135.772 E98.90525
G1 X37.112 Y135.43 E98.92711
G1 X36.597 Y135.022 E98.94896
G1 X36.135 Y134.555 E98.97081
G1 X35.734 Y134.035 E98.99265
G1 X35.398 Y133.471 E99.01448
G1 X35.077 Y132.708 E99.04202
G1 X26.077 Y105.708 E99.98862
G1 X25.908 Y105.073 E100.01047
G1 X25.817 Y104.422 E100.03233
G1 X25.805 Y103.765 E100.05419
G0 F6000 X26.208 Y103.711
G1 F900 X26.285 Y103.084 E100.0752
G1 X26.44 Y102.471 E100.09623
G1 X26.671 Y101.882 E100.11727
G1 X26.974 Y101.328 E100.13828
G1 X27.345 Y100.816 E100.15931
G1 X27.777 Y100.355 E100.18032
G1 X28.265 Y99.952 E100.20137
G1 X28.799 Y99.614 E100.22239
G1 X29.371 Y99.346 E100.2434
G1 X29.973 Y99.153 E100.26442
G1 X30.595 Y99.037 E100.28547
G1 X31.2 Y99 E100.30563
G1 X200.2 Y99 E105.92659
G1 X200.831 Y99.04 E105.94762
G1 X201.452 Y99.159 E105.96865
G1 X202.052 Y99.356 E105.98966
G1 X202.624 Y99.627 E106.01071
G1 X203.156 Y99.967 E106.03171
G1 X203.641 Y100.373 E106.05274
G1 X204.071 Y100.836 E106.07376
G1 X204.44 Y101.35 E106.09481
G1 X204.74 Y101.906 E106.11582
G1 X204.968 Y102.495 E106.13683
G1 X205.156 Y103.339 E106.16558
G1 X208.756 Y130.339 E107.07156
G1 X208.8 Y130.97 E107.09259
G1 X208.764 Y131.601 E107.11362
G1 X208.648 Y132.222 E107.13463
G1 X208.455 Y132.824 E107.15565
G1 X208.188 Y133.397 E107.17668
G1 X207.85 Y133.932 E107.19773
G1 X207.448 Y134.419 E107.21873
G1 X206.988 Y134.852 E107.23974
G1 X206.476 Y135.224 E107.26079
G1 X205.922 Y135.528 E107.28181
G1 X205.333 Y135.759 E107.30285
G1 X204.721 Y135.914 E107.32385
G1 X203.8 Y136 E107.35462
G1 X40.2 Y136 E112.79597
G1 X39.569 Y135.96 E112.817
G1 X38.948 Y135.841 E112.83803
G1 X38.348 Y135.644 E112.85904
G1 X37.776 Y135.373 E112.88009
G1 X37.244 Y135.033 E112.90109
G1 X36.759 Y134.627 E112.92213
G1 X36.329 Y134.164 E112.94314
G1 X35.96 Y133.65 E112.96419
G1 X35.66 Y133.094 E112.9852
G1 X35.457 Y132.581 E113.00355
G1 X26.457 Y105.581 E113.95015
G1 X26.295 Y104.97 E113.97117
G1 X26.212 Y104.343 E113.99221
G1 X26.208 Y103.711 E114.01323
G0 F6000 X26.608 Y104.266
G1 F900 X26.613 Y103.66 E114.03339
G1 X26.697 Y103.06 E114.05354
G1 X26.86 Y102.476 E114.0737
G1 X27.098 Y101.918 E114.09388
