;FLAVOR:Marlin
;TIME:486
;Filament used: 0.17015m
;Layer height: 0.2
;MINX:103.403
;MINY:103.403
;MINZ:0.2
;MAXX:131.597
;MAXY:131.597
;MAXZ:20
;Generated with Cura_SteamEngine 5.2.1
M140 S70
M105
M190 S70
M104 S240
M105
M109 S240
M82 ;absolute extrusion mode
; Ender 3 Custom Start G-code
G92 E0 ; Reset Extruder
G28 ; Home all axes
G1 Z2.0 F3000 ; Move Z Axis up little to prevent scratching of Heat Bed
G1 X0.1 Y20 Z0.3 F5000.0 ; Move to start position
G1 X0.1 Y200.0 Z0.3 F1500.0 E15 ; Draw the first line
G1 X0.4 Y200.0 Z0.3 F5000.0 ; Move to side a little
G1 X0.4 Y20 Z0.3 F1500.0 E30 ; Draw the second line
G92 E0 ; Reset Extruder
G1 Z2.0 F3000 ; Move Z Axis up little to prevent scratching of Heat Bed
G1 X5 Y20 Z0.3 F5000.0 ; Move over to prevent blob squish
G92 E0
G92 E0
G1 F2700 E-5
;LAYER_COUNT:100
;LAYER:0
M107
G0 F6000 X107.39 Y107.673 Z0.2
;TYPE:SKIRT
G1 F2700 E0
G1 F900 X107.913 Y107.162 E0.02432
G1 X108.464 Y106.677 E0.04873
G1 X108.798 Y106.407 E0.06302
G1 X109.373 Y105.979 E0.08686
G1 X109.646 Y105.791 E0.09788
G1 X110.015 Y105.552 E0.11251
G1 X110.296 Y105.381 E0.12345
G1 X110.928 Y105.028 E0.14752
G1 X111.286 Y104.846 E0.16088
G1 X111.915 Y104.555 E0.18393
G1 X112.217 Y104.428 E0.19483
G1 X112.655 Y104.259 E0.21044
G1 X113.352 Y104.025 E0.2349
G1 X113.668 Y103.932 E0.24585
G1 X114.372 Y103.753 E0.27001
G1 X115.095 Y103.608 E0.29454
G1 X115.825 Y103.502 E0.31908
G1 X116.557 Y103.433 E0.34353
G1 X117.288 Y103.403 E0.36786
G1 X117.715 Y103.403 E0.38207
G1 X118.442 Y103.433 E0.40627
G1 X119.176 Y103.502 E0.43079
G1 X119.883 Y103.604 E0.45454
G1 X120.207 Y103.663 E0.4655
G1 X120.652 Y103.758 E0.48063
G1 X121.34 Y103.934 E0.50425
G1 X122.019 Y104.144 E0.52789
G1 X122.331 Y104.253 E0.53888
G1 X122.785 Y104.428 E0.55507
G1 X123.089 Y104.556 E0.56604
G1 X123.735 Y104.856 E0.58973
G1 X124.373 Y105.191 E0.61369
G1 X124.96 Y105.536 E0.63634
G1 X125.368 Y105.8 E0.6525
G1 X125.64 Y105.988 E0.6635
G1 X126.21 Y106.413 E0.68715
G1 X126.538 Y106.678 E0.70117
G1 X127.1 Y107.174 E0.72611
G1 X127.611 Y107.674 E0.74988
G1 X127.838 Y107.913 E0.76085
G1 X128.311 Y108.45 E0.78465
G1 X128.593 Y108.798 E0.79955
G1 X129.021 Y109.373 E0.82339
G1 X129.209 Y109.646 E0.83441
G1 X129.452 Y110.022 E0.8493
G1 X129.81 Y110.628 E0.87271
G1 X129.968 Y110.919 E0.88373
G1 X130.154 Y111.286 E0.89741
G1 X130.452 Y111.932 E0.92107
G1 X130.579 Y112.236 E0.93203
G1 X130.733 Y112.635 E0.94626
G1 X130.977 Y113.357 E0.9716
G1 X131.169 Y114.045 E0.99536
G1 X131.246 Y114.365 E1.00631
G1 X131.392 Y115.099 E1.0312
G1 X131.455 Y115.498 E1.04463
G1 X131.541 Y116.226 E1.06902
G1 X131.567 Y116.554 E1.07996
G1 X131.597 Y117.286 E1.10433
G1 X131.597 Y117.712 E1.11849
G1 X131.567 Y118.442 E1.1428
G1 X131.498 Y119.179 E1.16742
G1 X131.397 Y119.878 E1.19091
G1 X131.338 Y120.203 E1.20189
G1 X131.244 Y120.646 E1.21695
G1 X131.064 Y121.347 E1.24103
G1 X130.856 Y122.019 E1.26442
G1 X130.747 Y122.331 E1.27541
G1 X130.575 Y122.776 E1.29128
G1 X130.288 Y123.437 E1.31525
G1 X129.978 Y124.063 E1.33848
G1 X129.821 Y124.354 E1.34948
G1 X129.443 Y124.994 E1.3742
G1 X129.204 Y125.362 E1.3888
G1 X128.797 Y125.936 E1.4122
G1 X128.597 Y126.198 E1.42317
G1 X128.323 Y126.537 E1.43766
G1 X127.838 Y127.087 E1.46205
G1 X127.327 Y127.611 E1.4864
G1 X127.088 Y127.838 E1.49736
G1 X126.538 Y128.322 E1.52173
G1 X126.202 Y128.593 E1.53608
G1 X125.627 Y129.021 E1.55992
G1 X125.354 Y129.209 E1.57095
G1 X124.978 Y129.452 E1.58584
G1 X124.362 Y129.815 E1.60962
G1 X123.742 Y130.141 E1.63292
G1 X123.445 Y130.284 E1.64388
G1 X123.048 Y130.462 E1.65835
G1 X122.744 Y130.588 E1.6693
G1 X122.047 Y130.846 E1.69402
G1 X121.648 Y130.975 E1.70797
G1 X120.955 Y131.169 E1.7319
G1 X120.635 Y131.246 E1.74285
G1 X119.901 Y131.392 E1.76774
G1 X119.502 Y131.455 E1.78117
G1 X118.771 Y131.541 E1.80565
G1 X118.441 Y131.567 E1.81666
G1 X117.712 Y131.597 E1.84093
G1 X117.286 Y131.597 E1.8551
G1 X116.556 Y131.567 E1.8794
G1 X115.821 Y131.498 E1.90395
G1 X115.122 Y131.397 E1.92745
G1 X114.797 Y131.338 E1.93843
G1 X114.348 Y131.242 E1.9537
G1 X113.66 Y131.066 E1.97732
G1 X112.981 Y130.856 E2.00096
G1 X112.669 Y130.747 E2.01195
G1 X112.215 Y130.572 E2.02814
G1 X111.911 Y130.444 E2.03911
G1 X111.276 Y130.15 E2.06238
G1 X110.646 Y129.821 E2.08602
G1 X110.006 Y129.443 E2.11074
G1 X109.644 Y129.208 E2.1251
G1 X109.054 Y128.79 E2.14915
G1 X108.794 Y128.591 E2.16004
G1 X108.461 Y128.321 E2.1743
G1 X107.912 Y127.838 E2.19862
G1 X107.673 Y127.611 E2.20958
G1 X107.162 Y127.087 E2.23392
G1 X106.677 Y126.537 E2.25831
G1 X106.403 Y126.198 E2.27281
G1 X106.203 Y125.936 E2.28377
G1 X105.791 Y125.354 E2.30749
G1 X105.548 Y124.978 E2.32238
G1 X105.19 Y124.372 E2.34579
G1 X104.85 Y123.724 E2.37013
G1 X104.551 Y123.077 E2.39384
G1 X104.424 Y122.774 E2.40476
G1 X104.259 Y122.345 E2.42005
G1 X104.025 Y121.648 E2.4445
G1 X103.831 Y120.955 E2.46844
G1 X103.754 Y120.635 E2.47939
G1 X103.608 Y119.901 E2.50428
G1 X103.545 Y119.502 E2.51771
G1 X103.459 Y118.772 E2.54216
G1 X103.433 Y118.443 E2.55314
G1 X103.403 Y117.715 E2.57737
G1 X103.403 Y117.288 E2.59157
G1 X103.433 Y116.557 E2.61591
G1 X103.502 Y115.825 E2.64036
G1 X103.603 Y115.126 E2.66385
G1 X103.662 Y114.8 E2.67487
G1 X103.759 Y114.342 E2.69044
G1 X103.934 Y113.66 E2.71386
G1 X104.144 Y112.981 E2.7375
G1 X104.253 Y112.669 E2.74849
G1 X104.428 Y112.215 E2.76467
G1 X104.708 Y111.573 E2.78797
G1 X105.013 Y110.954 E2.81092
G1 X105.168 Y110.665 E2.82183
G1 X105.387 Y110.284 E2.83645
G1 X105.56 Y110.001 E2.84748
G1 X105.791 Y109.645 E2.86159
G1 X105.979 Y109.372 E2.87262
G1 X106.412 Y108.791 E2.89672
G1 X106.677 Y108.463 E2.91074
G1 X106.891 Y108.213 E2.92169
G1 X107.39 Y107.673 E2.94614
G0 F6000 X107.452 Y108.188
G1 F900 X107.948 Y107.68 E2.96976
G1 X108.188 Y107.452 E2.98077
G1 X108.724 Y106.981 E3.0045
G1 X109.041 Y106.724 E3.01807
G1 X109.6 Y106.308 E3.04125
G1 X109.873 Y106.12 E3.05227
G1 X110.223 Y105.893 E3.06615
G1 X110.828 Y105.536 E3.08951
G1 X111.458 Y105.207 E3.11315
G1 X112.07 Y104.924 E3.13558
G1 X112.372 Y104.797 E3.14647
G1 X112.787 Y104.637 E3.16127
G1 X113.465 Y104.409 E3.18506
G1 X114.144 Y104.219 E3.20851
G1 X114.465 Y104.142 E3.21949
G1 X115.168 Y104.002 E3.24333
G1 X115.877 Y103.898 E3.26716
G1 X116.588 Y103.832 E3.29091
G1 X117.299 Y103.803 E3.31458
G1 X117.704 Y103.803 E3.32805
G1 X118.41 Y103.832 E3.35155
G1 X119.124 Y103.898 E3.3754
G1 X119.451 Y103.941 E3.38637
G1 X120.136 Y104.057 E3.40948
G1 X120.557 Y104.146 E3.42379
G1 X120.878 Y104.224 E3.43478
G1 X121.541 Y104.411 E3.45769
G1 X122.199 Y104.631 E3.48077
G1 X122.63 Y104.797 E3.49613
G1 X123.263 Y105.073 E3.5191
G1 X123.891 Y105.385 E3.54242
G1 X124.471 Y105.708 E3.5645
G1 X124.753 Y105.878 E3.57545
G1 X125.14 Y106.129 E3.59079
G1 X125.706 Y106.53 E3.61386
G1 X125.967 Y106.73 E3.6248
G1 X126.528 Y107.196 E3.64906
G1 X126.824 Y107.464 E3.66234
G1 X127.321 Y107.95 E3.68546
G1 X127.548 Y108.189 E3.69642
G1 X128.008 Y108.711 E3.71956
G1 X128.276 Y109.041 E3.7337
G1 X128.692 Y109.6 E3.75688
G1 X128.88 Y109.873 E3.7679
G1 X129.11 Y110.23 E3.78203
G1 X129.458 Y110.819 E3.80478
G1 X129.793 Y111.458 E3.82878
G1 X130.083 Y112.086 E3.85179
G1 X130.356 Y112.768 E3.87622
G1 X130.466 Y113.078 E3.88716
G1 X130.593 Y113.47 E3.90086
G1 X130.78 Y114.139 E3.92397
G1 X130.857 Y114.459 E3.93491
G1 X130.939 Y114.847 E3.9481
G1 X131.059 Y115.55 E3.97183
G1 X131.142 Y116.257 E3.9955
G1 X131.168 Y116.585 E4.00644
G1 X131.197 Y117.297 E4.03015
G1 X131.197 Y117.701 E4.04358
G1 X131.168 Y118.41 E4.06718
G1 X131.101 Y119.127 E4.09114
G1 X131.003 Y119.807 E4.11399
G1 X130.944 Y120.132 E4.12497
G1 X130.855 Y120.552 E4.13925
G1 X130.68 Y121.233 E4.16264
G1 X130.478 Y121.887 E4.1854
G1 X130.369 Y122.199 E4.1964
G1 X130.206 Y122.622 E4.21147
G1 X129.927 Y123.264 E4.23476
G1 X129.626 Y123.873 E4.25735
G1 X129.469 Y124.164 E4.26835
G1 X129.102 Y124.785 E4.29234
G1 X128.875 Y125.135 E4.30621
G1 X128.688 Y125.406 E4.31717
G1 X128.279 Y125.955 E4.33994
G1 X128.019 Y126.277 E4.3537
G1 X127.548 Y126.812 E4.37741
G1 X127.051 Y127.321 E4.40107
G1 X126.812 Y127.548 E4.41203
G1 X126.278 Y128.018 E4.43569
G1 X125.959 Y128.276 E4.44934
G1 X125.4 Y128.692 E4.47251
G1 X125.127 Y128.88 E4.48354
G1 X124.77 Y129.11 E4.49766
G1 X124.172 Y129.463 E4.52076
G1 X123.88 Y129.621 E4.5318
G1 X123.271 Y129.923 E4.55441
G1 X122.894 Y130.092 E4.56815
G1 X122.225 Y130.358 E4.5921
G1 X121.535 Y130.591 E4.61632
G1 X120.861 Y130.78 E4.6396
G1 X120.541 Y130.857 E4.65055
G1 X120.153 Y130.939 E4.66374
G1 X119.45 Y131.059 E4.68746
G1 X119.123 Y131.102 E4.69843
G1 X118.409 Y131.168 E4.72228
G1 X117.701 Y131.197 E4.74585
G1 X117.297 Y131.197 E4.75928
G1 X116.587 Y131.168 E4.78292
G1 X115.873 Y131.101 E4.80677
G1 X115.193 Y131.003 E4.82962
G1 X114.868 Y130.944 E4.84061
G1 X114.443 Y130.854 E4.85506
G1 X114.122 Y130.776 E4.86604
G1 X113.459 Y130.589 E4.88896
G1 X112.801 Y130.369 E4.91203
G1 X112.37 Y130.203 E4.92739
G1 X112.066 Y130.075 E4.93836
G1 X111.449 Y129.789 E4.96098
G1 X110.836 Y129.469 E4.98398
G1 X110.215 Y129.102 E5.00797
G1 X109.871 Y128.879 E5.02161
G1 X109.598 Y128.691 E5.03263
G1 X109.037 Y128.273 E5.0559
G1 X108.721 Y128.017 E5.06943
G1 X108.188 Y127.548 E5.09304
G1 X107.68 Y127.052 E5.11666
G1 X107.452 Y126.812 E5.12767
G1 X106.981 Y126.277 E5.15138
G1 X106.721 Y125.955 E5.16514
G1 X106.308 Y125.4 E5.18815
G1 X106.12 Y125.127 E5.19917
G1 X105.89 Y124.77 E5.2133
G1 X105.542 Y124.181 E5.23605
G1 X105.211 Y123.551 E5.25972
G1 X104.92 Y122.923 E5.28274
G1 X104.793 Y122.62 E5.29367
G1 X104.637 Y122.213 E5.30817
G1 X104.409 Y121.535 E5.33196
G1 X104.22 Y120.861 E5.35524
G1 X104.143 Y120.541 E5.36619
G1 X104.061 Y120.153 E5.37938
G1 X103.941 Y119.45 E5.4031
G1 X103.898 Y119.123 E5.41407
G1 X103.832 Y118.412 E5.43782
G1 X103.803 Y117.704 E5.46139
G1 X103.803 Y117.299 E5.47486
G1 X103.832 Y116.588 E5.49852
G1 X103.898 Y115.877 E5.52227
G1 X103.996 Y115.197 E5.54512
G1 X104.055 Y114.871 E5.55614
G1 X104.147 Y114.437 E5.5709
G1 X104.225 Y114.117 E5.58185
G1 X104.411 Y113.459 E5.6046
G1 X104.631 Y112.801 E5.62767
G1 X104.797 Y112.37 E5.64303
G1 X105.069 Y111.746 E5.66567
G1 X105.366 Y111.143 E5.68803
G1 X105.728 Y110.492 E5.71281
G1 X105.901 Y110.209 E5.72384
G1 X106.308 Y109.599 E5.74823
G1 X106.729 Y109.034 E5.77166
G1 X106.981 Y108.723 E5.78498
G1 X107.452 Y108.188 E5.80868
G0 F6000 X107.97 Y108.224
G1 F900 X108.464 Y107.742 E5.83164
G1 X108.984 Y107.285 E5.85467
G1 X109.283 Y107.042 E5.86748
G1 X109.546 Y106.841 E5.87849
G1 X110.1 Y106.45 E5.90104
G1 X110.431 Y106.235 E5.91417
G1 X111.018 Y105.888 E5.93685
G1 X111.63 Y105.568 E5.95982
G1 X112.225 Y105.292 E5.98164
G1 X112.527 Y105.165 E5.99253
G1 X112.92 Y105.014 E6.00653
G1 X113.578 Y104.793 E6.02962
G1 X114.237 Y104.608 E6.05239
G1 X114.916 Y104.455 E6.07554
G1 X115.24 Y104.395 E6.0865
G1 X115.929 Y104.295 E6.10965
G1 X116.62 Y104.231 E6.13273
G1 X117.31 Y104.203 E6.1557
G1 X117.693 Y104.203 E6.16844
G1 X118.379 Y104.231 E6.19128
G1 X119.072 Y104.295 E6.21442
G1 X119.74 Y104.391 E6.23687
G1 X120.064 Y104.45 E6.24782
G1 X120.463 Y104.535 E6.26139
G1 X121.113 Y104.701 E6.2837
G1 X121.428 Y104.794 E6.29463
G1 X122.067 Y105.009 E6.31705
G1 X122.474 Y105.166 E6.33156
G1 X123.09 Y105.434 E6.35391
G1 X123.7 Y105.736 E6.37654
G1 X123.991 Y105.894 E6.38756
G1 X124.547 Y106.221 E6.40901
G1 X124.913 Y106.458 E6.42351
G1 X125.463 Y106.848 E6.44594
G1 X126.018 Y107.286 E6.46945
G1 X126.548 Y107.753 E6.49295
G1 X127.031 Y108.225 E6.51541
G1 X127.258 Y108.464 E6.52637
G1 X127.705 Y108.971 E6.54886
G1 X127.958 Y109.283 E6.56222
G1 X128.159 Y109.546 E6.57322
G1 X128.55 Y110.1 E6.59578
G1 X128.769 Y110.437 E6.60915
G1 X128.939 Y110.717 E6.62004
G1 X129.265 Y111.301 E6.64229
G1 X129.432 Y111.63 E6.65456
G1 X129.714 Y112.241 E6.67694
G1 X129.979 Y112.902 E6.70063
G1 X130.209 Y113.582 E6.7245
G1 X130.391 Y114.232 E6.74695
G1 X130.546 Y114.919 E6.77038
G1 X130.606 Y115.244 E6.78137
G1 X130.705 Y115.929 E6.80439
G1 X130.769 Y116.617 E6.82737
G1 X130.797 Y117.308 E6.85037
G1 X130.797 Y117.69 E6.86308
G1 X130.769 Y118.379 E6.88601
G1 X130.705 Y119.074 E6.90923
G1 X130.662 Y119.4 E6.92016
G1 X130.55 Y120.06 E6.94243
G1 X130.466 Y120.458 E6.95596
G1 X130.297 Y121.12 E6.97868
G1 X130.204 Y121.434 E6.98957
G1 X129.991 Y122.067 E7.01179
G1 X129.838 Y122.467 E7.02603
G1 X129.566 Y123.091 E7.04867
G1 X129.274 Y123.683 E7.07063
G1 X129.117 Y123.974 E7.08162
G1 X128.76 Y124.577 E7.10493
G1 X128.545 Y124.908 E7.11806
G1 X128.358 Y125.179 E7.12901
G1 X127.961 Y125.712 E7.15111
G1 X127.715 Y126.017 E7.16415
G1 X127.258 Y126.536 E7.18715
G1 X126.776 Y127.031 E7.21013
G1 X126.537 Y127.258 E7.22109
G1 X126.018 Y127.714 E7.24407
G1 X125.717 Y127.958 E7.25696
G1 X125.454 Y128.159 E7.26797
G1 X124.9 Y128.55 E7.29052
G1 X124.563 Y128.769 E7.30389
G1 X124.283 Y128.939 E7.31478
G1 X123.689 Y129.27 E7.3374
G1 X123.098 Y129.563 E7.35934
G1 X122.741 Y129.723 E7.37235
G1 X122.437 Y129.849 E7.38329
G1 X121.78 Y130.091 E7.40658
G1 X121.422 Y130.207 E7.4191
G1 X120.768 Y130.391 E7.4417
G1 X120.081 Y130.546 E7.46512
G1 X119.756 Y130.606 E7.47611
G1 X119.071 Y130.705 E7.49913
G1 X118.378 Y130.769 E7.52228
G1 X117.69 Y130.797 E7.54518
G1 X117.308 Y130.797 E7.55789
G1 X116.619 Y130.769 E7.58082
G1 X115.926 Y130.705 E7.60397
G1 X115.6 Y130.662 E7.61491
G1 X114.94 Y130.55 E7.63717
G1 X114.537 Y130.465 E7.65087
G1 X113.887 Y130.299 E7.67318
G1 X113.572 Y130.206 E7.68411
G1 X112.933 Y129.991 E7.70653
G1 X112.526 Y129.834 E7.72104
G1 X111.919 Y129.57 E7.74306
G1 X111.317 Y129.274 E7.76537
G1 X111.026 Y129.117 E7.77636
G1 X110.423 Y128.76 E7.79967
G1 X110.098 Y128.549 E7.81256
G1 X109.54 Y128.155 E7.83528
G1 X109.28 Y127.956 E7.84617
G1 X108.981 Y127.713 E7.85898
G1 X108.463 Y127.258 E7.88192
G1 X108.224 Y127.031 E7.89288
G1 X107.742 Y126.536 E7.91586
G1 X107.285 Y126.017 E7.93886
G1 X107.039 Y125.712 E7.95189
G1 X106.638 Y125.173 E7.97424
G1 X106.231 Y124.563 E7.99863
G1 X106.061 Y124.283 E8.00952
G1 X105.735 Y123.699 E8.03177
G1 X105.572 Y123.378 E8.04374
G1 X105.289 Y122.768 E8.06611
G1 X105.162 Y122.465 E8.07703
G1 X105.014 Y122.08 E8.09075
G1 X104.793 Y121.422 E8.11384
G1 X104.609 Y120.768 E8.13644
G1 X104.454 Y120.081 E8.15986
G1 X104.394 Y119.756 E8.17085
G1 X104.295 Y119.071 E8.19387
G1 X104.231 Y118.38 E8.21695
G1 X104.203 Y117.693 E8.23982
G1 X104.203 Y117.31 E8.25256
G1 X104.231 Y116.62 E8.27553
G1 X104.295 Y115.929 E8.29861
G1 X104.39 Y115.268 E8.32082
G1 X104.449 Y114.942 E8.33184
G1 X104.536 Y114.531 E8.34581
G1 X104.701 Y113.887 E8.36792
G1 X104.794 Y113.572 E8.37885
G1 X105.009 Y112.933 E8.40127
G1 X105.166 Y112.526 E8.41578
G1 X105.43 Y111.919 E8.4378
G1 X105.718 Y111.332 E8.45954
G1 X105.873 Y111.043 E8.47045
G1 X106.243 Y110.418 E8.49461
G1 X106.45 Y110.099 E8.50726
G1 X106.847 Y109.538 E8.53011
G1 X107.285 Y108.983 E8.55363
G1 X107.499 Y108.733 E8.56457
G1 X107.97 Y108.224 E8.58764
G0 F6000 X108.032 Y108.739
G1 F900 X108.499 Y108.26 E8.60989
G1 X108.739 Y108.032 E8.6209
G1 X109.244 Y107.589 E8.64324
G1 X109.526 Y107.36 E8.65533
G1 X109.789 Y107.159 E8.66634
G1 X110.327 Y106.779 E8.68824
G1 X110.639 Y106.577 E8.70061
G1 X111.209 Y106.24 E8.72263
G1 X111.802 Y105.929 E8.7449
G1 X112.381 Y105.661 E8.76612
G1 X112.683 Y105.534 E8.77702
G1 X113.053 Y105.391 E8.79021
G1 X113.691 Y105.177 E8.81259
G1 X114.33 Y104.997 E8.83467
G1 X114.989 Y104.848 E8.85714
G1 X115.313 Y104.788 E8.8681
G1 X115.982 Y104.691 E8.89059
G1 X116.322 Y104.656 E8.90196
G1 X116.991 Y104.611 E8.92426
G1 X117.682 Y104.602 E8.94724
G1 X118.01 Y104.611 E8.95816
G1 X118.677 Y104.655 E8.98039
G1 X119.346 Y104.734 E9.00279
G1 X119.992 Y104.844 E9.02459
