;FLAVOR:Marlin
;TIME:1281
;Filament used: 0.538529m
;Layer height: 0.2
;MINX:102.704
;MINY:102.704
;MINZ:0.2
;MAXX:132.297
;MAXY:132.296
;MAXZ:19
;Generated with Cura_SteamEngine 5.2.1
M140 S65
M105
M190 S65
M104 S240
M105
M109 S240
M82 ;absolute extrusion mode
; Ender 3 Custom Start G-code
G92 E0 ; Reset Extruder
G28 ; Home all axes
G1 Z2.0 F3000 ; Move Z Axis up little to prevent scratching of Heat Bed
G1 X0.1 Y20 Z0.3 F5000.0 ; Move to start position
G1 X0.1 Y200.0 Z0.3 F1500.0 E15 ; Draw the first line
G1 X0.4 Y200.0 Z0.3 F5000.0 ; Move to side a little
G1 X0.4 Y20 Z0.3 F1500.0 E30 ; Draw the second line
G92 E0 ; Reset Extruder
G1 Z2.0 F3000 ; Move Z Axis up little to prevent scratching of Heat Bed
G1 X5 Y20 Z0.3 F5000.0 ; Move over to prevent blob squish
G92 E0
G92 E0
G1 F2700 E-5
;LAYER_COUNT:95
;LAYER:0
M107
G0 F6000 X107.194 Y106.88 Z0.2
;TYPE:SKIRT
G1 F2700 E0
G1 F900 X107.57 Y106.527 E0.01715
G1 X107.9 Y106.238 E0.03174
G1 X108.26 Y105.941 E0.04727
G1 X108.607 Y105.672 E0.06187
G1 X109.002 Y105.385 E0.07811
G1 X109.367 Y105.137 E0.09279
G1 X109.775 Y104.879 E0.10884
G1 X110.153 Y104.655 E0.12346
G1 X110.591 Y104.413 E0.1401
G1 X110.984 Y104.213 E0.15477
G1 X111.43 Y104.004 E0.17115
G1 X111.833 Y103.83 E0.18575
G1 X112.289 Y103.65 E0.20205
G1 X112.704 Y103.501 E0.21672
G1 X113.181 Y103.347 E0.23339
G1 X113.601 Y103.226 E0.24793
G1 X114.044 Y103.112 E0.26314
G1 X114.474 Y103.015 E0.2778
G1 X114.968 Y102.92 E0.29453
G1 X115.403 Y102.851 E0.30918
G1 X115.9 Y102.789 E0.32584
G1 X116.339 Y102.748 E0.34051
G1 X116.815 Y102.718 E0.35637
G1 X117.254 Y102.704 E0.37098
G1 X117.752 Y102.704 E0.38754
G1 X118.19 Y102.718 E0.40212
G1 X118.668 Y102.748 E0.41805
G1 X119.106 Y102.789 E0.43268
G1 X119.581 Y102.848 E0.4486
G1 X120.017 Y102.916 E0.46328
G1 X120.56 Y103.021 E0.48167
G1 X120.987 Y103.119 E0.49624
G1 X121.425 Y103.233 E0.51129
G1 X121.847 Y103.356 E0.52591
G1 X122.3 Y103.503 E0.54175
G1 X122.715 Y103.652 E0.55642
G1 X123.171 Y103.832 E0.57273
G1 X123.574 Y104.006 E0.58733
G1 X124.02 Y104.215 E0.60371
G1 X124.413 Y104.415 E0.61837
G1 X124.851 Y104.657 E0.63502
G1 X125.229 Y104.881 E0.64963
G1 X125.633 Y105.137 E0.66554
G1 X125.997 Y105.384 E0.68017
G1 X126.407 Y105.682 E0.69703
G1 X126.754 Y105.952 E0.71165
G1 X127.11 Y106.247 E0.72703
G1 X127.438 Y106.535 E0.74155
G1 X127.807 Y106.881 E0.75837
G1 X128.118 Y107.192 E0.773
G1 X128.462 Y107.558 E0.78971
G1 X128.752 Y107.888 E0.80432
G1 X129.058 Y108.258 E0.82029
G1 X129.327 Y108.605 E0.83489
G1 X129.614 Y109 E0.85113
G1 X129.862 Y109.365 E0.86581
G1 X130.12 Y109.773 E0.88186
G1 X130.344 Y110.151 E0.89648
G1 X130.586 Y110.589 E0.91312
G1 X130.786 Y110.982 E0.92779
G1 X130.995 Y111.428 E0.94417
G1 X131.169 Y111.831 E0.95877
G1 X131.347 Y112.282 E0.9749
G1 X131.496 Y112.696 E0.98953
G1 X131.649 Y113.166 E1.00597
G1 X131.771 Y113.587 E1.02055
G1 X131.887 Y114.038 E1.03604
G1 X131.984 Y114.467 E1.05067
G1 X132.08 Y114.965 E1.06753
G1 X132.149 Y115.4 E1.08218
G1 X132.211 Y115.895 E1.09878
G1 X132.252 Y116.333 E1.11341
G1 X132.282 Y116.811 E1.12934
G1 X132.296 Y117.25 E1.14395
G1 X132.297 Y117.731 E1.15994
G1 X132.284 Y118.168 E1.17448
G1 X132.252 Y118.676 E1.19141
G1 X132.21 Y119.117 E1.20615
G1 X132.149 Y119.599 E1.22231
G1 X132.08 Y120.034 E1.23696
G1 X131.985 Y120.528 E1.25369
G1 X131.888 Y120.958 E1.26835
G1 X131.775 Y121.399 E1.28349
G1 X131.655 Y121.816 E1.29792
G1 X131.495 Y122.309 E1.31516
G1 X131.344 Y122.727 E1.32994
G1 X131.169 Y123.169 E1.34576
G1 X130.995 Y123.572 E1.36036
G1 X130.789 Y124.011 E1.37648
G1 X130.59 Y124.403 E1.39111
G1 X130.342 Y124.854 E1.40822
G1 X130.117 Y125.233 E1.42288
G1 X129.864 Y125.631 E1.43857
G1 X129.617 Y125.995 E1.4532
G1 X129.328 Y126.394 E1.46959
G1 X129.059 Y126.741 E1.48419
G1 X128.756 Y127.107 E1.49999
G1 X128.469 Y127.434 E1.51446
G1 X128.122 Y127.804 E1.53134
G1 X127.806 Y128.12 E1.5462
G1 X127.43 Y128.473 E1.56335
G1 X127.1 Y128.762 E1.57794
G1 X126.74 Y129.059 E1.59347
G1 X126.393 Y129.328 E1.60807
G1 X125.998 Y129.615 E1.62431
G1 X125.633 Y129.863 E1.63899
G1 X125.225 Y130.121 E1.65504
G1 X124.847 Y130.345 E1.66965
G1 X124.409 Y130.587 E1.6863
G1 X124.016 Y130.787 E1.70096
G1 X123.57 Y130.996 E1.71735
G1 X123.167 Y131.17 E1.73195
G1 X122.711 Y131.35 E1.74825
G1 X122.296 Y131.499 E1.76292
G1 X121.819 Y131.653 E1.77959
G1 X121.399 Y131.774 E1.79413
G1 X120.956 Y131.888 E1.80934
G1 X120.526 Y131.985 E1.824
G1 X120.032 Y132.08 E1.84073
G1 X119.597 Y132.149 E1.85538
G1 X119.1 Y132.211 E1.87204
G1 X118.661 Y132.252 E1.88671
G1 X118.185 Y132.282 E1.90257
G1 X117.746 Y132.296 E1.91718
G1 X117.248 Y132.296 E1.93374
G1 X116.81 Y132.282 E1.94832
G1 X116.332 Y132.252 E1.96425
G1 X115.894 Y132.211 E1.97888
G1 X115.419 Y132.152 E1.9948
G1 X114.983 Y132.084 E2.00947
G1 X114.44 Y131.979 E2.02787
G1 X114.013 Y131.881 E2.04244
G1 X113.575 Y131.767 E2.05749
G1 X113.153 Y131.644 E2.07211
G1 X112.7 Y131.497 E2.08795
G1 X112.285 Y131.348 E2.10262
G1 X111.829 Y131.168 E2.11893
G1 X111.426 Y130.994 E2.13353
G1 X110.98 Y130.785 E2.14991
G1 X110.587 Y130.585 E2.16457
G1 X110.149 Y130.343 E2.18122
G1 X109.771 Y130.119 E2.19583
G1 X109.363 Y129.861 E2.21189
G1 X108.998 Y129.613 E2.22656
G1 X108.592 Y129.317 E2.24328
G1 X108.245 Y129.047 E2.2579
G1 X107.889 Y128.752 E2.27328
G1 X107.561 Y128.464 E2.28779
G1 X107.192 Y128.118 E2.30462
G1 X106.881 Y127.807 E2.31925
G1 X106.537 Y127.441 E2.33595
G1 X106.247 Y127.111 E2.35057
G1 X105.941 Y126.741 E2.36653
G1 X105.672 Y126.394 E2.38114
G1 X105.383 Y125.995 E2.39752
G1 X105.136 Y125.631 E2.41215
G1 X104.883 Y125.233 E2.42784
G1 X104.658 Y124.854 E2.4425
G1 X104.41 Y124.403 E2.45962
G1 X104.211 Y124.011 E2.47424
G1 X104.005 Y123.572 E2.49037
G1 X103.831 Y123.169 E2.50497
G1 X103.651 Y122.713 E2.52127
G1 X103.502 Y122.298 E2.53594
G1 X103.353 Y121.838 E2.55202
G1 X103.231 Y121.418 E2.56657
G1 X103.112 Y120.958 E2.58237
G1 X103.015 Y120.528 E2.59703
G1 X102.92 Y120.034 E2.61377
G1 X102.851 Y119.599 E2.62841
G1 X102.789 Y119.104 E2.64501
G1 X102.748 Y118.666 E2.65964
G1 X102.718 Y118.188 E2.67557
G1 X102.704 Y117.75 E2.69014
G1 X102.704 Y117.253 E2.70667
G1 X102.718 Y116.813 E2.72132
G1 X102.748 Y116.334 E2.73728
G1 X102.789 Y115.896 E2.75191
G1 X102.851 Y115.401 E2.7685
G1 X102.92 Y114.966 E2.78315
G1 X103.015 Y114.472 E2.79988
G1 X103.112 Y114.042 E2.81454
G1 X103.225 Y113.601 E2.82969
G1 X103.345 Y113.184 E2.84412
G1 X103.505 Y112.691 E2.86136
G1 X103.656 Y112.273 E2.87614
G1 X103.831 Y111.831 E2.89195
G1 X104.005 Y111.428 E2.90655
G1 X104.211 Y110.989 E2.92268
G1 X104.41 Y110.597 E2.9373
G1 X104.658 Y110.146 E2.95442
G1 X104.883 Y109.767 E2.96908
G1 X105.136 Y109.369 E2.98477
G1 X105.383 Y109.005 E2.9994
G1 X105.672 Y108.606 E3.01578
G1 X105.941 Y108.259 E3.03039
G1 X106.244 Y107.893 E3.04619
G1 X106.531 Y107.566 E3.06066
G1 X106.878 Y107.196 E3.07753
G1 X107.194 Y106.88 E3.09239
G0 F6000 X107.476 Y107.162
G1 F900 X107.834 Y106.828 E3.10868
G1 X108.164 Y106.539 E3.12327
G1 X108.505 Y106.258 E3.13797
G1 X108.852 Y105.989 E3.15257
G1 X109.227 Y105.716 E3.168
G1 X109.592 Y105.468 E3.18267
G1 X109.978 Y105.223 E3.19788
G1 X110.356 Y104.999 E3.21249
G1 X110.773 Y104.77 E3.22832
G1 X111.166 Y104.57 E3.24298
G1 X111.589 Y104.371 E3.25853
G1 X111.992 Y104.197 E3.27313
G1 X112.424 Y104.026 E3.28858
G1 X112.839 Y103.877 E3.30325
G1 X113.291 Y103.731 E3.31905
G1 X113.711 Y103.61 E3.33359
G1 X114.132 Y103.502 E3.34804
G1 X114.562 Y103.405 E3.3627
G1 X115.031 Y103.315 E3.37859
G1 X115.466 Y103.246 E3.39324
G1 X115.937 Y103.187 E3.40902
G1 X116.376 Y103.146 E3.42369
G1 X116.828 Y103.118 E3.43875
G1 X117.267 Y103.104 E3.45336
G1 X117.739 Y103.104 E3.46906
G1 X118.177 Y103.118 E3.48363
G1 X118.631 Y103.146 E3.49876
G1 X119.069 Y103.187 E3.51339
G1 X119.519 Y103.243 E3.52848
G1 X119.955 Y103.311 E3.54315
G1 X120.47 Y103.411 E3.5606
G1 X120.897 Y103.509 E3.57517
G1 X121.313 Y103.617 E3.58947
G1 X121.735 Y103.74 E3.60409
G1 X122.165 Y103.879 E3.61912
G1 X122.58 Y104.028 E3.63378
G1 X123.012 Y104.199 E3.64924
G1 X123.415 Y104.373 E3.66384
G1 X123.838 Y104.572 E3.67939
G1 X124.231 Y104.772 E3.69405
G1 X124.648 Y105.001 E3.70988
G1 X125.026 Y105.225 E3.72449
G1 X125.408 Y105.468 E3.73955
G1 X125.772 Y105.715 E3.75418
G1 X126.161 Y105.998 E3.77018
G1 X126.508 Y106.268 E3.7848
G1 X126.847 Y106.547 E3.7994
G1 X127.175 Y106.835 E3.81392
G1 X127.525 Y107.163 E3.82988
G1 X127.836 Y107.474 E3.8445
G1 X128.162 Y107.822 E3.86036
G1 X128.452 Y108.152 E3.87498
G1 X128.741 Y108.503 E3.8901
G1 X129.01 Y108.85 E3.9047
G1 X129.283 Y109.225 E3.92013
G1 X129.531 Y109.59 E3.93481
G1 X129.776 Y109.976 E3.95001
G1 X130 Y110.354 E3.96463
G1 X130.229 Y110.771 E3.98045
G1 X130.429 Y111.164 E3.99512
G1 X130.628 Y111.587 E4.01066
G1 X130.802 Y111.99 E4.02526
G1 X130.971 Y112.417 E4.04054
G1 X131.12 Y112.831 E4.05517
G1 X131.265 Y113.277 E4.07077
G1 X131.387 Y113.698 E4.08535
G1 X131.497 Y114.126 E4.10005
G1 X131.594 Y114.555 E4.11468
G1 X131.685 Y115.028 E4.1307
G1 X131.754 Y115.463 E4.14535
G1 X131.813 Y115.932 E4.16107
G1 X131.854 Y116.37 E4.1757
G1 X131.882 Y116.824 E4.19083
G1 X131.896 Y117.263 E4.20544
G1 X131.897 Y117.719 E4.2206
G1 X131.884 Y118.156 E4.23514
G1 X131.854 Y118.638 E4.25121
G1 X131.812 Y119.079 E4.26594
G1 X131.754 Y119.536 E4.28126
G1 X131.685 Y119.971 E4.29591
G1 X131.595 Y120.44 E4.3118
G1 X131.498 Y120.87 E4.32646
G1 X131.39 Y121.288 E4.34082
G1 X131.27 Y121.705 E4.35525
G1 X131.119 Y122.173 E4.3716
G1 X130.968 Y122.591 E4.38639
G1 X130.802 Y123.01 E4.40138
G1 X130.628 Y123.413 E4.41598
G1 X130.432 Y123.83 E4.4313
G1 X130.233 Y124.222 E4.44592
G1 X129.998 Y124.65 E4.46216
G1 X129.773 Y125.029 E4.47682
G1 X129.533 Y125.406 E4.49169
G1 X129.286 Y125.77 E4.50632
G1 X129.011 Y126.149 E4.52189
G1 X128.742 Y126.496 E4.5365
G1 X128.456 Y126.843 E4.55145
G1 X128.169 Y127.17 E4.56592
G1 X127.84 Y127.522 E4.58195
G1 X127.524 Y127.838 E4.59681
G1 X127.166 Y128.172 E4.6131
G1 X126.836 Y128.461 E4.62769
G1 X126.495 Y128.742 E4.64238
G1 X126.148 Y129.011 E4.65698
G1 X125.773 Y129.284 E4.67241
G1 X125.408 Y129.532 E4.68709
G1 X125.022 Y129.777 E4.7023
G1 X124.644 Y130.001 E4.71691
G1 X124.227 Y130.23 E4.73273
G1 X123.834 Y130.43 E4.7474
G1 X123.411 Y130.629 E4.76295
G1 X123.008 Y130.803 E4.77755
G1 X122.576 Y130.974 E4.793
G1 X122.161 Y131.123 E4.80767
G1 X121.709 Y131.269 E4.82346
G1 X121.289 Y131.39 E4.838
G1 X120.868 Y131.498 E4.85246
G1 X120.438 Y131.595 E4.86712
G1 X119.969 Y131.685 E4.883
G1 X119.534 Y131.754 E4.89765
G1 X119.063 Y131.813 E4.91344
G1 X118.624 Y131.854 E4.9281
G1 X118.172 Y131.882 E4.94317
G1 X117.733 Y131.896 E4.95778
G1 X117.261 Y131.896 E4.97347
G1 X116.823 Y131.882 E4.98805
G1 X116.369 Y131.854 E5.00318
G1 X115.931 Y131.813 E5.01781
G1 X115.481 Y131.757 E5.03289
G1 X115.045 Y131.689 E5.04757
G1 X114.53 Y131.589 E5.06502
G1 X114.103 Y131.491 E5.07959
G1 X113.687 Y131.383 E5.09388
G1 X113.265 Y131.26 E5.1085
G1 X112.835 Y131.121 E5.12353
G1 X112.42 Y130.972 E5.1382
G1 X111.988 Y130.801 E5.15365
G1 X111.585 Y130.627 E5.16825
G1 X111.162 Y130.428 E5.1838
G1 X110.769 Y130.228 E5.19847
G1 X110.352 Y129.999 E5.21429
G1 X109.974 Y129.775 E5.22891
G1 X109.588 Y129.53 E5.24411
G1 X109.223 Y129.282 E5.25879
G1 X108.838 Y129.001 E5.27464
G1 X108.491 Y128.731 E5.28927
G1 X108.152 Y128.452 E5.30387
G1 X107.824 Y128.164 E5.31839
G1 X107.474 Y127.836 E5.33434
G1 X107.163 Y127.525 E5.34897
G1 X106.837 Y127.177 E5.36483
G1 X106.547 Y126.847 E5.37944
G1 X106.258 Y126.496 E5.39456
G1 X105.989 Y126.149 E5.40917
G1 X105.714 Y125.77 E5.42474
G1 X105.467 Y125.406 E5.43937
G1 X105.227 Y125.029 E5.45423
G1 X105.002 Y124.65 E5.46889
G1 X104.767 Y124.222 E5.48513
G1 X104.568 Y123.83 E5.49976
G1 X104.372 Y123.413 E5.51508
G1 X104.198 Y123.01 E5.52968
G1 X104.027 Y122.578 E5.54513
G1 X103.878 Y122.163 E5.5598
G1 X103.737 Y121.726 E5.57507
G1 X103.615 Y121.306 E5.58962
G1 X103.502 Y120.87 E5.6046
G1 X103.405 Y120.44 E5.61926
G1 X103.315 Y119.971 E5.63514
G1 X103.246 Y119.536 E5.64979
G1 X103.187 Y119.067 E5.66552
G1 X103.146 Y118.629 E5.68015
G1 X103.118 Y118.175 E5.69528
G1 X103.104 Y117.737 E5.70985
G1 X103.104 Y117.266 E5.72552
G1 X103.118 Y116.826 E5.74016
G1 X103.146 Y116.371 E5.75532
G1 X103.187 Y115.933 E5.76995
G1 X103.246 Y115.464 E5.78567
G1 X103.315 Y115.029 E5.80032
G1 X103.405 Y114.56 E5.81621
G1 X103.502 Y114.13 E5.83087
G1 X103.61 Y113.712 E5.84523
G1 X103.73 Y113.295 E5.85966
G1 X103.881 Y112.827 E5.87602
G1 X104.032 Y112.409 E5.8908
G1 X104.198 Y111.99 E5.90579
G1 X104.372 Y111.587 E5.92039
G1 X104.568 Y111.17 E5.93571
G1 X104.767 Y110.778 E5.95033
G1 X105.002 Y110.35 E5.96657
G1 X105.227 Y109.971 E5.98123
G1 X105.467 Y109.594 E5.9961
G1 X105.714 Y109.23 E6.01073
G1 X105.989 Y108.851 E6.0263
G1 X106.258 Y108.504 E6.04091
G1 X106.544 Y108.157 E6.05586
G1 X106.831 Y107.83 E6.07033
G1 X107.16 Y107.478 E6.08636
G1 X107.476 Y107.162 E6.10122
G0 F6000 X107.759 Y107.445
G1 F900 X108.097 Y107.129 E6.11661
G1 X108.427 Y106.84 E6.1312
G1 X108.75 Y106.574 E6.14512
G1 X109.097 Y106.305 E6.15972
G1 X109.452 Y106.047 E6.17432
G1 X109.817 Y105.799 E6.189
G1 X110.182 Y105.567 E6.20338
G1 X110.56 Y105.343 E6.21799
G1 X110.954 Y105.126 E6.23295
G1 X111.347 Y104.926 E6.24762
G1 X111.747 Y104.738 E6.26232
G1 X112.15 Y104.564 E6.27692
G1 X112.56 Y104.403 E6.29157
G1 X112.975 Y104.254 E6.30624
G1 X113.402 Y104.116 E6.32116
G1 X113.822 Y103.995 E6.3357
G1 X114.22 Y103.893 E6.34937
G1 X114.65 Y103.796 E6.36403
G1 X115.093 Y103.71 E6.37904
G1 X115.528 Y103.641 E6.39368
G1 X115.974 Y103.585 E6.40864
G1 X116.413 Y103.544 E6.4233
G1 X116.841 Y103.518 E6.43756
G1 X117.28 Y103.504 E6.45217
G1 X117.727 Y103.504 E6.46704
G1 X118.165 Y103.518 E6.48161
G1 X118.593 Y103.544 E6.49587
G1 X119.031 Y103.585 E6.51051
G1 X119.458 Y103.639 E6.52482
G1 X119.894 Y103.707 E6.5395
G1 X120.381 Y103.8 E6.55599
G1 X120.808 Y103.898 E6.57056
G1 X121.201 Y104.001 E6.58407
G1 X121.623 Y104.124 E6.59869
G1 X122.029 Y104.256 E6.61289
G1 X122.444 Y104.405 E6.62756
G1 X122.854 Y104.566 E6.64221
G1 X123.257 Y104.74 E6.65681
G1 X123.657 Y104.928 E6.67151
G1 X124.05 Y105.128 E6.68617
G1 X124.444 Y105.345 E6.70114
G1 X124.822 Y105.569 E6.71575
G1 X125.184 Y105.799 E6.73001
G1 X125.548 Y106.046 E6.74464
G1 X125.916 Y106.313 E6.75977
G1 X126.263 Y106.583 E6.77439
G1 X126.583 Y106.848 E6.78821
G1 X126.911 Y107.136 E6.80273
G1 X127.242 Y107.446 E6.81781
G1 X127.553 Y107.757 E6.83244
G1 X127.861 Y108.086 E6.84743
G1 X128.151 Y108.416 E6.86204
G1 X128.425 Y108.748 E6.87636
G1 X128.694 Y109.095 E6.89096
G1 X128.952 Y109.45 E6.90556
G1 X129.2 Y109.815 E6.92023
G1 X129.432 Y110.18 E6.93462
G1 X129.656 Y110.558 E6.94923
G1 X129.873 Y110.952 E6.96419
G1 X130.073 Y111.345 E6.97886
G1 X130.261 Y111.745 E6.99356
G1 X130.435 Y112.148 E7.00816
G1 X130.594 Y112.553 E7.02263
G1 X130.743 Y112.967 E7.03727
G1 X130.88 Y113.389 E7.05202
G1 X131.002 Y113.81 E7.0666
G1 X131.107 Y114.214 E7.08048
G1 X131.204 Y114.643 E7.09511
G1 X131.29 Y115.09 E7.11025
G1 X131.359 Y115.525 E7.1249
G1 X131.415 Y115.97 E7.13982
G1 X131.456 Y116.408 E7.15445
G1 X131.482 Y116.837 E7.16875
G1 X131.496 Y117.276 E7.18335
G1 X131.497 Y117.707 E7.19769
G1 X131.484 Y118.144 E7.21223
G1 X131.455 Y118.6 E7.22743
G1 X131.413 Y119.041 E7.24216
G1 X131.359 Y119.474 E7.25668
G1 X131.29 Y119.909 E7.27132
G1 X131.204 Y120.352 E7.28633
G1 X131.107 Y120.782 E7.30099
G1 X131.006 Y121.178 E7.31459
G1 X130.886 Y121.595 E7.32902
G1 X130.743 Y122.037 E7.34447
G1 X130.592 Y122.455 E7.35925
G1 X130.435 Y122.852 E7.37345
G1 X130.261 Y123.255 E7.38805
G1 X130.076 Y123.649 E7.40253
G1 X129.877 Y124.041 E7.41715
