;FLAVOR:Marlin
;TIME:1679
;Filament used: 0.946893m
;Layer height: 0.2
;MINX:98.954
;MINY:98.949
;MINZ:0.2
;MAXX:156.593
;MAXY:146.32
;MAXZ:7.6
;Generated with Cura_SteamEngine 5.2.1
M140 S65
M105
M190 S65
M104 S240
M105
M109 S240
M82 ;absolute extrusion mode
; Ender 3 Custom Start G-code
G92 E0 ; Reset Extruder
G28 ; Home all axes
G1 Z2.0 F3000 ; Move Z Axis up little to prevent scratching of Heat Bed
G1 X0.1 Y20 Z0.3 F5000.0 ; Move to start position
G1 X0.1 Y200.0 Z0.3 F1500.0 E15 ; Draw the first line
G1 X0.4 Y200.0 Z0.3 F5000.0 ; Move to side a little
G1 X0.4 Y20 Z0.3 F1500.0 E30 ; Draw the second line
G92 E0 ; Reset Extruder
G1 Z2.0 F3000 ; Move Z Axis up little to prevent scratching of Heat Bed
G1 X5 Y20 Z0.3 F5000.0 ; Move over to prevent blob squish
G92 E0
G92 E0
G1 F2700 E-5
;LAYER_COUNT:38
;LAYER:0
M107
G0 F6000 X104.153 Y104.62 Z0.2
;TYPE:SKIRT
G1 F2700 E0
G1 F900 X104.637 Y104.137 E0.02274
G1 X105.002 Y103.796 E0.03936
G1 X105.509 Y103.351 E0.06179
G1 X105.869 Y103.053 E0.07734
G1 X106.402 Y102.639 E0.09978
G1 X106.815 Y102.339 E0.11676
G1 X107.375 Y101.96 E0.13925
G1 X107.773 Y101.708 E0.15492
G1 X108.354 Y101.364 E0.17738
G1 X108.798 Y101.12 E0.19423
G1 X109.401 Y100.814 E0.21672
G1 X109.836 Y100.61 E0.2327
G1 X110.456 Y100.342 E0.25516
G1 X110.919 Y100.16 E0.27171
G1 X111.555 Y99.932 E0.29418
G1 X112.024 Y99.78 E0.31058
G1 X112.672 Y99.593 E0.33301
G1 X113.128 Y99.476 E0.34867
G1 X113.788 Y99.328 E0.37117
G1 X114.284 Y99.234 E0.38796
G1 X114.952 Y99.129 E0.41045
G1 X115.435 Y99.068 E0.42664
G1 X116.107 Y99.005 E0.44909
G1 X116.589 Y98.975 E0.46515
G1 X117.499 Y98.95 E0.49543
G1 X128.249 Y98.949 E0.85298
G1 X129.038 Y98.989 E0.87925
G1 X129.819 Y99.108 E0.90553
G1 X130.583 Y99.306 E0.93178
G1 X131.324 Y99.58 E0.95805
G1 X132.033 Y99.928 E0.98432
G1 X132.703 Y100.345 E1.01057
G1 X133.328 Y100.828 E1.03684
G1 X133.9 Y101.372 E1.0631
G1 X134.415 Y101.971 E1.08937
G1 X134.867 Y102.619 E1.11565
G1 X135.25 Y103.309 E1.1419
G1 X135.562 Y104.034 E1.16815
G1 X135.799 Y104.788 E1.19444
G1 X135.959 Y105.561 E1.22069
G1 X136.04 Y106.347 E1.24697
G1 X136.05 Y106.749 E1.26035
G1 X136.05 Y109.33 E1.34619
G1 X136.641 Y109.275 E1.36593
G1 X137.125 Y109.245 E1.38206
G1 X137.799 Y109.224 E1.40449
G1 X138.285 Y109.224 E1.42066
G1 X138.959 Y109.245 E1.44308
G1 X139.432 Y109.274 E1.45885
G1 X140.094 Y109.335 E1.48096
G1 X140.603 Y109.399 E1.49802
G1 X141.282 Y109.507 E1.52089
G1 X141.764 Y109.599 E1.53721
G1 X142.424 Y109.747 E1.5597
G1 X142.897 Y109.869 E1.57595
G1 X143.543 Y110.057 E1.59833
G1 X144.005 Y110.207 E1.61448
G1 X144.641 Y110.436 E1.63697
G1 X145.094 Y110.615 E1.65317
G1 X145.714 Y110.883 E1.67563
G1 X146.149 Y111.087 E1.69161
G1 X146.752 Y111.393 E1.7141
G1 X147.201 Y111.64 E1.73115
G1 X147.781 Y111.984 E1.75358
G1 X148.187 Y112.242 E1.76958
G1 X148.746 Y112.622 E1.79206
G1 X149.146 Y112.913 E1.80851
G1 X149.679 Y113.327 E1.83096
G1 X150.039 Y113.625 E1.8465
G1 X150.546 Y114.07 E1.86894
G1 X150.922 Y114.422 E1.88607
G1 X151.405 Y114.906 E1.90881
G1 X151.746 Y115.271 E1.92542
G1 X152.191 Y115.778 E1.94786
G1 X152.493 Y116.144 E1.96364
G1 X152.907 Y116.678 E1.98612
G1 X153.197 Y117.077 E2.00252
G1 X153.577 Y117.637 E2.02503
G1 X153.84 Y118.052 E2.04137
G1 X154.183 Y118.633 E2.06381
G1 X154.422 Y119.068 E2.08032
G1 X154.728 Y119.671 E2.10281
G1 X154.93 Y120.102 E2.11864
G1 X155.198 Y120.721 E2.14108
G1 X155.382 Y121.188 E2.15777
G1 X155.61 Y121.824 E2.18024
G1 X155.762 Y122.293 E2.19664
G1 X155.949 Y122.941 E2.21907
G1 X156.065 Y123.395 E2.23466
G1 X156.213 Y124.054 E2.25712
G1 X156.308 Y124.552 E2.27399
G1 X156.413 Y125.22 E2.29648
G1 X156.474 Y125.704 E2.3127
G1 X156.537 Y126.377 E2.33518
G1 X156.567 Y126.858 E2.35121
G1 X156.592 Y127.769 E2.38152
G1 X156.593 Y138.519 E2.73907
G1 X156.553 Y139.308 E2.76535
G1 X156.434 Y140.089 E2.79162
G1 X156.236 Y140.853 E2.81787
G1 X155.962 Y141.594 E2.84415
G1 X155.614 Y142.303 E2.87042
G1 X155.197 Y142.973 E2.89667
G1 X154.714 Y143.598 E2.92294
G1 X154.17 Y144.17 E2.94919
G1 X153.571 Y144.685 E2.97547
G1 X152.923 Y145.137 E3.00175
G1 X152.233 Y145.52 E3.02799
G1 X151.508 Y145.832 E3.05424
G1 X150.754 Y146.069 E3.08053
G1 X149.981 Y146.229 E3.10679
G1 X149.195 Y146.31 E3.13307
G1 X148.793 Y146.32 E3.14644
G1 X138.042 Y146.32 E3.50402
G1 X137.125 Y146.295 E3.53453
G1 X136.642 Y146.265 E3.55063
G1 X135.979 Y146.203 E3.57278
G1 X135.476 Y146.14 E3.58964
G1 X134.799 Y146.032 E3.61244
G1 X134.321 Y145.94 E3.62863
G1 X133.661 Y145.792 E3.65113
G1 X133.202 Y145.674 E3.66689
G1 X132.555 Y145.487 E3.68929
G1 X132.079 Y145.333 E3.70593
G1 X131.443 Y145.104 E3.72841
G1 X130.99 Y144.925 E3.74461
G1 X130.37 Y144.657 E3.76708
G1 X129.926 Y144.448 E3.7834
G1 X129.323 Y144.141 E3.80591
G1 X128.883 Y143.899 E3.82261
G1 X128.303 Y143.555 E3.84504
G1 X127.902 Y143.3 E3.86084
G1 X127.342 Y142.92 E3.88335
G1 X126.937 Y142.626 E3.9
G1 X126.404 Y142.212 E3.92244
G1 X126.037 Y141.908 E3.93829
G1 X125.53 Y141.462 E3.96075
G1 X125.161 Y141.116 E3.97758
G1 X124.678 Y140.632 E4.00032
G1 X124.337 Y140.267 E4.01693
G1 X123.892 Y139.76 E4.03937
G1 X123.59 Y139.394 E4.05515
G1 X123.176 Y138.86 E4.07763
G1 X122.882 Y138.456 E4.09424
G1 X122.504 Y137.898 E4.11666
G1 X122.252 Y137.5 E4.13233
G1 X121.907 Y136.918 E4.15483
G1 X121.659 Y136.466 E4.17198
G1 X121.252 Y135.662 E4.20195
G1 X120.716 Y135.766 E4.22011
G1 X120.048 Y135.871 E4.2426
G1 X119.565 Y135.932 E4.25879
G1 X118.893 Y135.995 E4.28124
G1 X118.408 Y136.025 E4.2974
G1 X117.734 Y136.046 E4.31983
G1 X117.237 Y136.046 E4.33636
G1 X116.563 Y136.024 E4.35879
G1 X116.079 Y135.993 E4.37492
G1 X115.406 Y135.929 E4.39741
G1 X114.92 Y135.867 E4.4137
G1 X114.253 Y135.761 E4.43617
G1 X113.757 Y135.666 E4.45296
G1 X113.098 Y135.517 E4.47544
G1 X112.642 Y135.399 E4.4911
G1 X111.995 Y135.211 E4.51351
G1 X111.529 Y135.06 E4.5298
G1 X110.893 Y134.831 E4.55229
G1 X110.43 Y134.648 E4.56885
G1 X109.81 Y134.379 E4.59132
G1 X109.371 Y134.172 E4.60747
G1 X108.769 Y133.865 E4.62994
G1 X108.325 Y133.62 E4.64681
G1 X107.745 Y133.275 E4.66925
G1 X107.353 Y133.025 E4.68472
G1 X106.793 Y132.645 E4.70723
G1 X106.381 Y132.345 E4.72418
G1 X105.848 Y131.93 E4.74665
G1 X105.487 Y131.632 E4.76222
G1 X104.987 Y131.192 E4.78437
G1 X104.625 Y130.851 E4.80091
G1 X104.148 Y130.374 E4.82335
G1 X103.807 Y130.011 E4.83991
G1 X103.361 Y129.504 E4.86237
G1 X103.057 Y129.137 E4.87822
G1 X102.643 Y128.604 E4.90067
G1 X102.352 Y128.204 E4.91712
G1 X101.972 Y127.645 E4.9396
G1 X101.711 Y127.234 E4.95579
G1 X101.367 Y126.653 E4.97825
G1 X101.126 Y126.213 E4.99494
G1 X100.82 Y125.611 E5.0174
G1 X100.613 Y125.172 E5.03354
G1 X100.345 Y124.552 E5.05601
G1 X100.166 Y124.099 E5.07221
G1 X99.937 Y123.463 E5.09469
G1 X99.783 Y122.987 E5.11133
G1 X99.596 Y122.34 E5.13373
G1 X99.48 Y121.892 E5.14912
G1 X99.331 Y121.232 E5.17163
G1 X99.235 Y120.727 E5.18872
G1 X99.13 Y120.06 E5.21118
G1 X99.07 Y119.585 E5.2271
G1 X99.006 Y118.912 E5.24959
G1 X98.975 Y118.417 E5.26609
G1 X98.954 Y117.744 E5.28848
G1 X98.954 Y117.258 E5.30464
G1 X98.975 Y116.583 E5.32711
G1 X99.005 Y116.099 E5.34324
G1 X99.067 Y115.437 E5.36535
G1 X99.128 Y114.948 E5.38174
G1 X99.235 Y114.27 E5.40457
G1 X99.331 Y113.768 E5.42157
G1 X99.48 Y113.108 E5.44407
G1 X99.596 Y112.66 E5.45946
G1 X99.783 Y112.013 E5.48186
G1 X99.937 Y111.537 E5.4985
G1 X100.166 Y110.901 E5.52099
G1 X100.345 Y110.448 E5.53719
G1 X100.613 Y109.828 E5.55965
G1 X100.82 Y109.389 E5.5758
G1 X101.126 Y108.787 E5.59826
G1 X101.367 Y108.347 E5.61494
G1 X101.711 Y107.766 E5.6374
G1 X101.972 Y107.355 E5.65359
G1 X102.352 Y106.796 E5.67608
G1 X102.643 Y106.396 E5.69253
G1 X103.057 Y105.863 E5.71497
G1 X103.361 Y105.496 E5.73082
G1 X103.807 Y104.989 E5.75328
G1 X104.153 Y104.62 E5.77011
G0 F6000 X104.436 Y104.903
G1 F900 X104.92 Y104.42 E5.79285
G1 X105.266 Y104.096 E5.80862
G1 X105.773 Y103.651 E5.83105
G1 X106.115 Y103.369 E5.8458
G1 X106.648 Y102.955 E5.86824
G1 X107.039 Y102.671 E5.88432
G1 X107.599 Y102.292 E5.90681
G1 X107.977 Y102.052 E5.9217
G1 X108.558 Y101.708 E5.94416
G1 X108.979 Y101.477 E5.96013
G1 X109.582 Y101.171 E5.98262
G1 X109.995 Y100.977 E5.9978
G1 X110.615 Y100.709 E6.02026
G1 X111.054 Y100.536 E6.03596
G1 X111.69 Y100.308 E6.05843
G1 X112.135 Y100.164 E6.07398
G1 X112.783 Y99.977 E6.09642
G1 X113.216 Y99.866 E6.11128
G1 X113.876 Y99.718 E6.13378
G1 X114.346 Y99.629 E6.14969
G1 X115.014 Y99.524 E6.17218
G1 X115.472 Y99.466 E6.18753
G1 X116.144 Y99.403 E6.20998
G1 X116.601 Y99.375 E6.22521
G1 X117.499 Y99.35 E6.25509
G1 X128.249 Y99.349 E6.61264
G1 X129.017 Y99.389 E6.63822
G1 X129.777 Y99.508 E6.6638
G1 X130.521 Y99.706 E6.68941
G1 X131.239 Y99.98 E6.71497
G1 X131.926 Y100.327 E6.74057
G1 X132.573 Y100.743 E6.76615
G1 X133.173 Y101.224 E6.79173
G1 X133.72 Y101.765 E6.81732
G1 X134.207 Y102.359 E6.84287
G1 X134.631 Y103.002 E6.86848
G1 X134.985 Y103.684 E6.89404
G1 X135.267 Y104.4 E6.91963
G1 X135.473 Y105.141 E6.94521
G1 X135.601 Y105.899 E6.97078
G1 X135.65 Y106.749 E6.9991
G1 X135.65 Y109.781 E7.09995
G1 X136.005 Y109.736 E7.11185
G1 X136.678 Y109.673 E7.13433
G1 X137.138 Y109.645 E7.14966
G1 X137.812 Y109.624 E7.17209
G1 X138.272 Y109.624 E7.18739
G1 X138.946 Y109.645 E7.20981
G1 X139.395 Y109.672 E7.22477
G1 X140.057 Y109.733 E7.24689
G1 X140.54 Y109.794 E7.26308
G1 X141.219 Y109.902 E7.28595
G1 X141.676 Y109.989 E7.30142
G1 X142.336 Y110.137 E7.32392
G1 X142.785 Y110.253 E7.33934
G1 X143.431 Y110.441 E7.36172
G1 X143.87 Y110.584 E7.37707
G1 X144.506 Y110.813 E7.39956
G1 X144.935 Y110.982 E7.41489
G1 X145.555 Y111.25 E7.43736
G1 X145.968 Y111.444 E7.45253
G1 X146.571 Y111.75 E7.47502
G1 X146.997 Y111.984 E7.49119
G1 X147.577 Y112.328 E7.51362
G1 X147.962 Y112.573 E7.5288
G1 X148.521 Y112.953 E7.55128
G1 X148.9 Y113.229 E7.56687
G1 X149.433 Y113.643 E7.58932
G1 X149.775 Y113.925 E7.60406
G1 X150.282 Y114.37 E7.6265
G1 X150.639 Y114.705 E7.64278
G1 X151.122 Y115.189 E7.66552
G1 X151.446 Y115.535 E7.68129
G1 X151.891 Y116.042 E7.70373
G1 X152.177 Y116.389 E7.71868
G1 X152.591 Y116.923 E7.74116
G1 X152.866 Y117.302 E7.75673
G1 X153.246 Y117.862 E7.77924
G1 X153.495 Y118.255 E7.79471
G1 X153.838 Y118.836 E7.81715
G1 X154.065 Y119.249 E7.83283
G1 X154.371 Y119.852 E7.85532
G1 X154.563 Y120.261 E7.87035
G1 X154.831 Y120.88 E7.89278
G1 X155.006 Y121.323 E7.90862
G1 X155.234 Y121.959 E7.9311
G1 X155.378 Y122.404 E7.94665
G1 X155.565 Y123.052 E7.96908
G1 X155.675 Y123.482 E7.98385
G1 X155.823 Y124.141 E8.00631
G1 X155.913 Y124.614 E8.02233
G1 X156.018 Y125.282 E8.04482
G1 X156.076 Y125.741 E8.0602
G1 X156.139 Y126.414 E8.08269
G1 X156.167 Y126.871 E8.09791
G1 X156.192 Y127.769 E8.12779
G1 X156.193 Y138.519 E8.48534
G1 X156.153 Y139.287 E8.51092
G1 X156.034 Y140.047 E8.5365
G1 X155.836 Y140.791 E8.56211
G1 X155.562 Y141.509 E8.58767
G1 X155.215 Y142.196 E8.61327
G1 X154.799 Y142.843 E8.63885
G1 X154.318 Y143.443 E8.66443
G1 X153.777 Y143.99 E8.69002
G1 X153.183 Y144.477 E8.71557
G1 X152.54 Y144.901 E8.74118
G1 X151.858 Y145.255 E8.76674
G1 X151.142 Y145.537 E8.79234
G1 X150.401 Y145.743 E8.81792
G1 X149.643 Y145.871 E8.84349
G1 X148.793 Y145.92 E8.8718
G1 X138.042 Y145.92 E9.22938
G1 X137.138 Y145.895 E9.25946
G1 X136.679 Y145.867 E9.27476
G1 X136.016 Y145.805 E9.2969
G1 X135.539 Y145.745 E9.31289
G1 X134.862 Y145.637 E9.3357
G1 X134.409 Y145.55 E9.35104
G1 X133.749 Y145.402 E9.37354
G1 X133.313 Y145.29 E9.38851
G1 X132.666 Y145.103 E9.41091
G1 X132.214 Y144.956 E9.42672
G1 X131.578 Y144.727 E9.4492
G1 X131.149 Y144.558 E9.46453
G1 X130.529 Y144.29 E9.487
G1 X130.108 Y144.092 E9.50247
G1 X129.505 Y143.785 E9.52498
G1 X129.087 Y143.555 E9.54085
G1 X128.507 Y143.211 E9.56328
G1 X128.127 Y142.969 E9.57826
G1 X127.567 Y142.589 E9.60077
G1 X127.183 Y142.31 E9.61656
G1 X126.65 Y141.896 E9.639
G1 X126.301 Y141.608 E9.65405
G1 X125.794 Y141.162 E9.67651
G1 X125.444 Y140.833 E9.69249
G1 X124.961 Y140.349 E9.71523
G1 X124.637 Y140.003 E9.731
G1 X124.192 Y139.496 E9.75343
G1 X123.906 Y139.149 E9.76839
G1 X123.492 Y138.615 E9.79086
G1 X123.213 Y138.231 E9.80665
G1 X122.835 Y137.673 E9.82907
G1 X122.596 Y137.296 E9.84391
G1 X122.251 Y136.714 E9.86642
G1 X122.016 Y136.285 E9.88269
G1 X121.711 Y135.683 E9.90513
G1 X121.487 Y135.201 E9.92281
G1 X121.124 Y135.282 E9.93518
G1 X120.654 Y135.371 E9.95109
G1 X119.986 Y135.476 E9.97358
G1 X119.528 Y135.534 E9.98894
G1 X118.856 Y135.597 E10.01138
G1 X118.395 Y135.625 E10.02675
G1 X117.721 Y135.646 E10.04917
G1 X117.25 Y135.646 E10.06484
G1 X116.576 Y135.624 E10.08727
G1 X116.116 Y135.595 E10.1026
G1 X115.443 Y135.531 E10.12508
G1 X114.983 Y135.472 E10.14051
G1 X114.316 Y135.366 E10.16297
G1 X113.845 Y135.276 E10.17892
G1 X113.186 Y135.127 E10.20139
G1 X112.753 Y135.015 E10.21627
G1 X112.106 Y134.827 E10.23868
G1 X111.664 Y134.683 E10.25414
G1 X111.028 Y134.454 E10.27662
G1 X110.59 Y134.281 E10.29229
G1 X109.97 Y134.012 E10.31476
G1 X109.553 Y133.815 E10.3301
G1 X108.951 Y133.508 E10.35258
G1 X108.53 Y133.276 E10.36857
G1 X107.95 Y132.931 E10.39101
G1 X107.578 Y132.694 E10.40568
G1 X107.018 Y132.314 E10.42819
G1 X106.627 Y132.03 E10.44427
G1 X106.094 Y131.615 E10.46673
G1 X105.751 Y131.331 E10.48154
G1 X105.251 Y130.891 E10.5037
G1 X104.907 Y130.569 E10.51937
G1 X104.43 Y130.092 E10.5418
G1 X104.107 Y129.747 E10.55752
G1 X103.661 Y129.24 E10.57998
G1 X103.373 Y128.891 E10.59503
G1 X102.959 Y128.358 E10.61748
G1 X102.683 Y127.979 E10.63307
G1 X102.303 Y127.42 E10.65555
G1 X102.055 Y127.03 E10.67093
G1 X101.711 Y126.449 E10.69338
G1 X101.482 Y126.032 E10.70921
G1 X101.176 Y125.43 E10.73167
G1 X100.98 Y125.013 E10.74699
G1 X100.712 Y124.393 E10.76946
G1 X100.543 Y123.964 E10.78479
G1 X100.314 Y123.328 E10.80728
G1 X100.167 Y122.876 E10.82309
G1 X99.98 Y122.229 E10.84549
G1 X99.871 Y121.804 E10.86008
G1 X99.722 Y121.144 E10.88258
G1 X99.63 Y120.665 E10.89881
G1 X99.525 Y119.998 E10.92126
G1 X99.468 Y119.548 E10.93635
G1 X99.404 Y118.875 E10.95884
G1 X99.375 Y118.405 E10.9745
G1 X99.354 Y117.732 E10.99689
G1 X99.354 Y117.271 E11.01223
G1 X99.375 Y116.596 E11.03469
G1 X99.403 Y116.136 E11.05001
G1 X99.465 Y115.474 E11.07213
G1 X99.523 Y115.01 E11.08768
G1 X99.63 Y114.332 E11.11051
G1 X99.722 Y113.856 E11.12664
G1 X99.871 Y113.196 E11.14914
G1 X99.98 Y112.771 E11.16373
G1 X100.167 Y112.124 E11.18613
G1 X100.314 Y111.672 E11.20194
G1 X100.543 Y111.036 E11.22443
G1 X100.712 Y110.607 E11.23976
G1 X100.98 Y109.987 E11.26223
G1 X101.176 Y109.57 E11.27755
G1 X101.482 Y108.968 E11.30001
G1 X101.711 Y108.551 E11.31584
G1 X102.055 Y107.97 E11.33829
G1 X102.303 Y107.58 E11.35366
G1 X102.683 Y107.021 E11.37615
G1 X102.959 Y106.642 E11.39174
G1 X103.373 Y106.109 E11.41419
G1 X103.661 Y105.76 E11.42924
G1 X104.107 Y105.253 E11.4517
G1 X104.436 Y104.903 E11.46767
G0 F6000 X104.718 Y105.186
G1 F900 X105.202 Y104.703 E11.49042
G1 X105.529 Y104.397 E11.50531
G1 X106.036 Y103.952 E11.52775
G1 X106.36 Y103.685 E11.54171
G1 X106.893 Y103.271 E11.56416
G1 X107.264 Y103.002 E11.5794
G1 X107.824 Y102.623 E11.60189
G1 X108.181 Y102.397 E11.61594
G1 X108.762 Y102.053 E11.6384
G1 X109.16 Y101.834 E11.65351
G1 X109.763 Y101.528 E11.676
G1 X110.154 Y101.345 E11.69036
G1 X110.774 Y101.077 E11.71282
G1 X111.189 Y100.913 E11.72767
G1 X111.825 Y100.685 E11.75014
G1 X112.246 Y100.548 E11.76486
G1 X112.894 Y100.361 E11.7873
G1 X113.303 Y100.257 E11.80133
G1 X113.963 Y100.109 E11.82383
G1 X114.408 Y100.024 E11.8389
G1 X115.076 Y99.919 E11.86139
G1 X115.51 Y99.865 E11.87593
G1 X116.182 Y99.802 E11.89838
G1 X116.614 Y99.774 E11.91278
G1 X117.499 Y99.75 E11.94223
G1 X128.249 Y99.749 E12.29977
G1 X128.996 Y99.789 E12.32465
