;FLAVOR:Marlin
;TIME:3328
;Filament used: 2.07393m
;Layer height: 0.2
;MINX:98.954
;MINY:79.204
;MINZ:0.2
;MAXX:136.051
;MAXY:155.796
;MAXZ:18
;Generated with Cura_SteamEngine 5.2.1
M140 S65
M105
M190 S65
M104 S240
M105
M109 S240
M82 ;absolute extrusion mode
; Ender 3 Custom Start G-code
G92 E0 ; Reset Extruder
G28 ; Home all axes
G1 Z2.0 F3000 ; Move Z Axis up little to prevent scratching of Heat Bed
G1 X0.1 Y20 Z0.3 F5000.0 ; Move to start position
G1 X0.1 Y200.0 Z0.3 F1500.0 E15 ; Draw the first line
G1 X0.4 Y200.0 Z0.3 F5000.0 ; Move to side a little
G1 X0.4 Y20 Z0.3 F1500.0 E30 ; Draw the second line
G92 E0 ; Reset Extruder
G1 Z2.0 F3000 ; Move Z Axis up little to prevent scratching of Heat Bed
G1 X5 Y20 Z0.3 F5000.0 ; Move over to prevent blob squish
G92 E0
G92 E0
G1 F2700 E-5
;LAYER_COUNT:90
;LAYER:0
M107
G0 F6000 X103.361 Y85.746 Z0.2
;TYPE:SKIRT
G1 F2700 E0
G1 F900 X103.807 Y85.239 E0.02246
G1 X104.153 Y84.87 E0.03928
G1 X104.634 Y84.39 E0.06188
G1 X104.992 Y84.055 E0.07819
G1 X105.499 Y83.609 E0.10065
G1 X105.866 Y83.305 E0.1165
G1 X106.399 Y82.891 E0.13895
G1 X106.804 Y82.597 E0.15559
G1 X107.364 Y82.217 E0.1781
G1 X107.774 Y81.957 E0.19425
G1 X108.354 Y81.614 E0.21666
G1 X108.785 Y81.377 E0.23302
G1 X109.388 Y81.07 E0.25553
G1 X109.835 Y80.86 E0.27195
G1 X110.451 Y80.594 E0.29427
G1 X110.909 Y80.413 E0.31065
G1 X111.55 Y80.183 E0.3333
G1 X112.018 Y80.032 E0.34966
G1 X112.665 Y79.845 E0.37206
G1 X113.113 Y79.729 E0.38745
G1 X113.773 Y79.58 E0.40995
G1 X114.291 Y79.482 E0.42749
G1 X114.959 Y79.378 E0.44997
G1 X115.419 Y79.32 E0.46539
G1 X116.091 Y79.256 E0.48784
G1 X116.588 Y79.225 E0.50441
G1 X117.262 Y79.204 E0.52684
G1 X117.748 Y79.204 E0.543
G1 X118.422 Y79.225 E0.56543
G1 X118.929 Y79.257 E0.58232
G1 X119.602 Y79.322 E0.60481
G1 X120.065 Y79.381 E0.62034
G1 X120.732 Y79.486 E0.64279
G1 X121.237 Y79.582 E0.65989
G1 X121.897 Y79.731 E0.6824
G1 X122.345 Y79.847 E0.69779
G1 X122.992 Y80.034 E0.72019
G1 X123.482 Y80.193 E0.73732
G1 X124.117 Y80.423 E0.75978
G1 X124.556 Y80.597 E0.77549
G1 X125.176 Y80.865 E0.79796
G1 X125.62 Y81.074 E0.81428
G1 X126.223 Y81.381 E0.83678
G1 X126.663 Y81.623 E0.85349
G1 X127.243 Y81.967 E0.87591
G1 X127.649 Y82.225 E0.89191
G1 X128.208 Y82.605 E0.9144
G1 X128.608 Y82.896 E0.93085
G1 X129.141 Y83.31 E0.95329
G1 X129.511 Y83.617 E0.96929
G1 X130.014 Y84.06 E0.99158
G1 X130.374 Y84.398 E1.008
G1 X130.851 Y84.875 E1.03044
G1 X131.192 Y85.238 E1.047
G1 X131.638 Y85.745 E1.06946
G1 X131.942 Y86.112 E1.08531
G1 X132.356 Y86.645 E1.10776
G1 X132.645 Y87.042 E1.12409
G1 X133.026 Y87.602 E1.14662
G1 X133.291 Y88.02 E1.16308
G1 X133.634 Y88.6 E1.18549
G1 X133.871 Y89.031 E1.20185
G1 X134.178 Y89.634 E1.22436
G1 X134.387 Y90.078 E1.24068
G1 X134.655 Y90.698 E1.26315
G1 X134.832 Y91.147 E1.2792
G1 X135.061 Y91.782 E1.30165
G1 X135.218 Y92.265 E1.31854
G1 X135.405 Y92.913 E1.34097
G1 X135.519 Y93.356 E1.35619
G1 X135.668 Y94.015 E1.37866
G1 X135.765 Y94.522 E1.39583
G1 X135.87 Y95.189 E1.41829
G1 X135.93 Y95.664 E1.43421
G1 X135.994 Y96.337 E1.4567
G1 X136.025 Y96.832 E1.47319
G1 X136.05 Y97.749 E1.5037
G1 X136.051 Y108.499 E1.86125
G1 X136.011 Y109.288 E1.88752
G1 X135.892 Y110.069 E1.9138
G1 X135.694 Y110.833 E1.94005
G1 X135.42 Y111.574 E1.96633
G1 X135.072 Y112.283 E1.9926
G1 X134.655 Y112.953 E2.01884
G1 X134.172 Y113.578 E2.04512
G1 X133.628 Y114.15 E2.07137
G1 X133.029 Y114.665 E2.09764
G1 X132.381 Y115.117 E2.12392
G1 X132.05 Y115.301 E2.13652
G1 X132.05 Y119.69 E2.2825
G1 X132.704 Y120.097 E2.30812
G1 X133.328 Y120.58 E2.33436
G1 X133.901 Y121.123 E2.36062
G1 X134.416 Y121.722 E2.38689
G1 X134.867 Y122.37 E2.41315
G1 X135.251 Y123.061 E2.43944
G1 X135.563 Y123.786 E2.4657
G1 X135.8 Y124.539 E2.49195
G1 X135.959 Y125.313 E2.51823
G1 X136.04 Y126.098 E2.54448
G1 X136.05 Y126.5 E2.55786
G1 X136.05 Y137.25 E2.9154
G1 X136.025 Y138.167 E2.94591
G1 X135.994 Y138.664 E2.96248
G1 X135.93 Y139.336 E2.98493
G1 X135.872 Y139.795 E3.00032
G1 X135.769 Y140.457 E3.0226
G1 X135.669 Y140.983 E3.04041
G1 X135.518 Y141.649 E3.06312
G1 X135.404 Y142.09 E3.07827
G1 X135.217 Y142.737 E3.10067
G1 X135.063 Y143.213 E3.11731
G1 X134.834 Y143.849 E3.13979
G1 X134.655 Y144.302 E3.15599
G1 X134.387 Y144.922 E3.17846
G1 X134.18 Y145.361 E3.1946
G1 X133.874 Y145.963 E3.21706
G1 X133.633 Y146.403 E3.23375
G1 X133.289 Y146.984 E3.25621
G1 X133.028 Y147.395 E3.2724
G1 X132.648 Y147.954 E3.29488
G1 X132.357 Y148.354 E3.31133
G1 X131.943 Y148.887 E3.33378
G1 X131.639 Y149.254 E3.34963
G1 X131.193 Y149.761 E3.37209
G1 X130.847 Y150.13 E3.38891
G1 X130.366 Y150.61 E3.41151
G1 X130.008 Y150.945 E3.42782
G1 X129.501 Y151.391 E3.45028
G1 X129.134 Y151.695 E3.46613
G1 X128.601 Y152.109 E3.48858
G1 X128.188 Y152.409 E3.50556
G1 X127.628 Y152.788 E3.52805
G1 X127.235 Y153.037 E3.54352
G1 X126.655 Y153.381 E3.56595
G1 X126.215 Y153.623 E3.58265
G1 X125.612 Y153.93 E3.60516
G1 X125.165 Y154.14 E3.62158
G1 X124.549 Y154.406 E3.6439
G1 X124.091 Y154.587 E3.66028
G1 X123.45 Y154.817 E3.68293
G1 X122.982 Y154.968 E3.69929
G1 X122.335 Y155.155 E3.72169
G1 X121.887 Y155.271 E3.73708
G1 X121.227 Y155.42 E3.75958
G1 X120.709 Y155.518 E3.77712
G1 X120.041 Y155.622 E3.7996
G1 X119.581 Y155.68 E3.81502
G1 X118.909 Y155.744 E3.83747
G1 X118.412 Y155.775 E3.85404
G1 X117.738 Y155.796 E3.87647
G1 X117.252 Y155.796 E3.89263
G1 X116.578 Y155.775 E3.91506
G1 X116.071 Y155.743 E3.93195
G1 X115.398 Y155.678 E3.95444
G1 X114.935 Y155.619 E3.96997
G1 X114.268 Y155.514 E3.99242
G1 X113.763 Y155.418 E4.00952
G1 X113.103 Y155.269 E4.03203
G1 X112.655 Y155.153 E4.04742
G1 X112.008 Y154.966 E4.06982
G1 X111.518 Y154.807 E4.08695
G1 X110.883 Y154.577 E4.10941
G1 X110.444 Y154.403 E4.12512
G1 X109.824 Y154.135 E4.14759
G1 X109.38 Y153.926 E4.16391
G1 X108.777 Y153.619 E4.18641
G1 X108.328 Y153.372 E4.20346
G1 X107.748 Y153.027 E4.2259
G1 X107.356 Y152.777 E4.24137
G1 X106.796 Y152.397 E4.26388
G1 X106.391 Y152.103 E4.28052
G1 X105.858 Y151.689 E4.30297
G1 X105.488 Y151.382 E4.31896
G1 X104.985 Y150.939 E4.34125
G1 X104.625 Y150.601 E4.35768
G1 X104.148 Y150.124 E4.38011
G1 X103.807 Y149.761 E4.39668
G1 X103.361 Y149.254 E4.41914
G1 X103.057 Y148.887 E4.43499
G1 X102.643 Y148.354 E4.45743
G1 X102.352 Y147.954 E4.47389
G1 X101.972 Y147.395 E4.49637
G1 X101.711 Y146.984 E4.51256
G1 X101.367 Y146.403 E4.53502
G1 X101.126 Y145.963 E4.55171
G1 X100.82 Y145.361 E4.57417
G1 X100.613 Y144.922 E4.59031
G1 X100.345 Y144.302 E4.61277
G1 X100.166 Y143.849 E4.62897
G1 X99.937 Y143.213 E4.65146
G1 X99.783 Y142.737 E4.6681
G1 X99.596 Y142.09 E4.6905
G1 X99.48 Y141.642 E4.70589
G1 X99.331 Y140.982 E4.72839
G1 X99.235 Y140.477 E4.74549
G1 X99.13 Y139.81 E4.76795
G1 X99.07 Y139.335 E4.78387
G1 X99.006 Y138.662 E4.80636
G1 X98.975 Y138.167 E4.82285
G1 X98.954 Y137.494 E4.84525
G1 X98.954 Y137.008 E4.86141
G1 X98.975 Y136.333 E4.88387
G1 X99.006 Y135.836 E4.90044
G1 X99.07 Y135.164 E4.92289
G1 X99.128 Y134.705 E4.93828
G1 X99.231 Y134.043 E4.96056
G1 X99.331 Y133.517 E4.97837
G1 X99.482 Y132.851 E5.00108
G1 X99.596 Y132.41 E5.01623
G1 X99.783 Y131.763 E5.03863
G1 X99.937 Y131.287 E5.05527
G1 X100.166 Y130.651 E5.07775
G1 X100.345 Y130.198 E5.09395
G1 X100.613 Y129.578 E5.11642
G1 X100.82 Y129.139 E5.13256
G1 X101.126 Y128.537 E5.15502
G1 X101.367 Y128.097 E5.17171
G1 X101.711 Y127.516 E5.19417
G1 X101.972 Y127.105 E5.21036
G1 X102.352 Y126.546 E5.23284
G1 X102.643 Y126.146 E5.24929
G1 X103.057 Y125.613 E5.27174
G1 X103.361 Y125.246 E5.28759
G1 X103.807 Y124.739 E5.31005
G1 X104.153 Y124.37 E5.32687
G1 X104.634 Y123.89 E5.34948
G1 X104.992 Y123.555 E5.36578
G1 X105.499 Y123.109 E5.38824
G1 X105.866 Y122.805 E5.40409
G1 X106.399 Y122.391 E5.42654
G1 X106.812 Y122.091 E5.44352
G1 X107.372 Y121.712 E5.46601
G1 X107.765 Y121.463 E5.48148
G1 X108.345 Y121.119 E5.50391
G1 X108.785 Y120.877 E5.52061
G1 X109.2 Y120.666 E5.5361
G1 X109.2 Y114.334 E5.7467
G1 X108.777 Y114.119 E5.76248
G1 X108.337 Y113.877 E5.77918
G1 X107.757 Y113.533 E5.80161
G1 X107.348 Y113.273 E5.81773
G1 X106.788 Y112.892 E5.84026
G1 X106.391 Y112.603 E5.85659
G1 X105.858 Y112.189 E5.87904
G1 X105.488 Y111.882 E5.89503
G1 X104.985 Y111.439 E5.91732
G1 X104.625 Y111.101 E5.93375
G1 X104.148 Y110.624 E5.95618
G1 X103.807 Y110.261 E5.97275
G1 X103.361 Y109.754 E5.99521
G1 X103.057 Y109.387 E6.01106
G1 X102.643 Y108.854 E6.03351
G1 X102.352 Y108.454 E6.04996
G1 X101.972 Y107.895 E6.07244
G1 X101.711 Y107.484 E6.08863
G1 X101.367 Y106.903 E6.11109
G1 X101.126 Y106.463 E6.12778
G1 X100.82 Y105.861 E6.15024
G1 X100.613 Y105.422 E6.16638
G1 X100.345 Y104.802 E6.18884
G1 X100.166 Y104.349 E6.20505
G1 X99.937 Y103.713 E6.22753
G1 X99.783 Y103.237 E6.24417
G1 X99.596 Y102.59 E6.26657
G1 X99.48 Y102.142 E6.28196
G1 X99.331 Y101.482 E6.30446
G1 X99.235 Y100.977 E6.32156
G1 X99.13 Y100.31 E6.34402
G1 X99.07 Y99.835 E6.35994
G1 X99.006 Y99.162 E6.38243
G1 X98.975 Y98.667 E6.39892
G1 X98.954 Y97.994 E6.42132
G1 X98.954 Y97.508 E6.43748
G1 X98.975 Y96.833 E6.45995
G1 X99.006 Y96.336 E6.47651
G1 X99.07 Y95.664 E6.49896
G1 X99.128 Y95.205 E6.51435
G1 X99.231 Y94.543 E6.53663
G1 X99.331 Y94.017 E6.55444
G1 X99.482 Y93.351 E6.57715
G1 X99.596 Y92.91 E6.5923
G1 X99.783 Y92.263 E6.6147
G1 X99.937 Y91.787 E6.63134
G1 X100.166 Y91.151 E6.65382
G1 X100.345 Y90.698 E6.67003
G1 X100.613 Y90.078 E6.69249
G1 X100.82 Y89.639 E6.70863
G1 X101.126 Y89.037 E6.73109
G1 X101.367 Y88.597 E6.74778
G1 X101.711 Y88.016 E6.77024
G1 X101.972 Y87.605 E6.78643
G1 X102.352 Y87.046 E6.80891
G1 X102.643 Y86.646 E6.82536
G1 X103.057 Y86.113 E6.84781
G1 X103.361 Y85.746 E6.86366
G0 F6000 X103.661 Y86.01
G1 F900 X104.107 Y85.503 E6.88612
G1 X104.436 Y85.153 E6.9021
G1 X104.917 Y84.673 E6.9247
G1 X105.256 Y84.355 E6.94016
G1 X105.763 Y83.909 E6.96262
G1 X106.112 Y83.621 E6.97767
G1 X106.645 Y83.207 E7.00011
G1 X107.029 Y82.928 E7.0159
G1 X107.589 Y82.548 E7.03841
G1 X107.977 Y82.301 E7.05371
G1 X108.557 Y81.958 E7.07612
G1 X108.967 Y81.733 E7.09168
G1 X109.57 Y81.426 E7.11418
G1 X109.993 Y81.227 E7.12973
G1 X110.609 Y80.961 E7.15205
G1 X111.044 Y80.79 E7.16759
G1 X111.685 Y80.56 E7.19024
G1 X112.129 Y80.416 E7.20577
G1 X112.776 Y80.229 E7.22817
G1 X113.201 Y80.12 E7.24276
G1 X113.861 Y79.971 E7.26526
G1 X114.353 Y79.877 E7.28192
G1 X115.021 Y79.773 E7.30441
G1 X115.457 Y79.718 E7.31903
G1 X116.129 Y79.654 E7.34148
G1 X116.601 Y79.625 E7.35721
G1 X117.275 Y79.604 E7.37963
G1 X117.735 Y79.604 E7.39493
G1 X118.409 Y79.625 E7.41736
G1 X118.89 Y79.655 E7.43339
G1 X119.563 Y79.72 E7.45588
G1 X120.003 Y79.776 E7.47063
G1 X120.67 Y79.881 E7.49309
G1 X121.149 Y79.973 E7.50931
G1 X121.809 Y80.122 E7.53182
G1 X122.234 Y80.231 E7.54641
G1 X122.881 Y80.418 E7.56881
G1 X123.346 Y80.569 E7.58507
G1 X123.981 Y80.799 E7.60753
G1 X124.397 Y80.964 E7.62242
G1 X125.017 Y81.232 E7.64488
G1 X125.438 Y81.43 E7.66036
G1 X126.041 Y81.737 E7.68286
G1 X126.459 Y81.967 E7.69873
G1 X127.039 Y82.311 E7.72116
G1 X127.424 Y82.556 E7.73634
G1 X127.983 Y82.936 E7.75882
G1 X128.362 Y83.212 E7.77441
G1 X128.895 Y83.626 E7.79686
G1 X129.247 Y83.917 E7.81205
G1 X129.75 Y84.36 E7.83434
G1 X130.092 Y84.68 E7.84992
G1 X130.569 Y85.157 E7.87236
G1 X130.892 Y85.502 E7.88808
G1 X131.338 Y86.009 E7.91054
G1 X131.626 Y86.358 E7.92559
G1 X132.04 Y86.891 E7.94803
G1 X132.314 Y87.267 E7.96351
G1 X132.695 Y87.827 E7.98604
G1 X132.947 Y88.223 E8.00165
G1 X133.29 Y88.803 E8.02406
G1 X133.515 Y89.213 E8.03961
G1 X133.822 Y89.816 E8.06212
G1 X134.02 Y90.237 E8.07759
G1 X134.288 Y90.857 E8.10006
G1 X134.456 Y91.283 E8.11529
G1 X134.685 Y91.918 E8.13774
G1 X134.834 Y92.376 E8.15376
G1 X135.021 Y93.024 E8.17619
G1 X135.129 Y93.444 E8.19062
G1 X135.278 Y94.103 E8.21309
G1 X135.37 Y94.584 E8.22938
G1 X135.475 Y95.251 E8.25183
G1 X135.532 Y95.701 E8.26692
G1 X135.596 Y96.374 E8.28941
G1 X135.625 Y96.845 E8.3051
G1 X135.65 Y97.749 E8.33518
G1 X135.651 Y108.499 E8.69273
G1 X135.611 Y109.267 E8.7183
G1 X135.492 Y110.027 E8.74389
G1 X135.294 Y110.771 E8.7695
G1 X135.02 Y111.489 E8.79506
G1 X134.673 Y112.176 E8.82066
G1 X134.257 Y112.823 E8.84624
G1 X133.776 Y113.423 E8.87182
G1 X133.235 Y113.97 E8.89741
G1 X132.641 Y114.457 E8.92295
G1 X131.998 Y114.881 E8.94857
G1 X131.65 Y115.062 E8.96162
G1 X131.65 Y119.938 E9.12379
G1 X131.926 Y120.078 E9.13409
G1 X132.573 Y120.494 E9.15967
G1 X133.173 Y120.975 E9.18525
G1 X133.72 Y121.516 E9.21084
G1 X134.208 Y122.111 E9.23643
G1 X134.631 Y122.753 E9.262
G1 X134.986 Y123.436 E9.2876
G1 X135.267 Y124.151 E9.31316
G1 X135.473 Y124.893 E9.33877
G1 X135.601 Y125.651 E9.36434
G1 X135.65 Y126.5 E9.39262
G1 X135.65 Y137.25 E9.75017
G1 X135.625 Y138.154 E9.78025
G1 X135.596 Y138.626 E9.79597
G1 X135.532 Y139.298 E9.81843
G1 X135.477 Y139.734 E9.83304
G1 X135.374 Y140.396 E9.85533
G1 X135.279 Y140.894 E9.87219
G1 X135.128 Y141.56 E9.8949
G1 X135.02 Y141.979 E9.90929
G1 X134.833 Y142.626 E9.93169
G1 X134.686 Y143.078 E9.9475
G1 X134.457 Y143.714 E9.96998
G1 X134.288 Y144.143 E9.98532
G1 X134.02 Y144.763 E10.00779
G1 X133.824 Y145.18 E10.02311
G1 X133.518 Y145.782 E10.04557
G1 X133.289 Y146.199 E10.06139
G1 X132.945 Y146.78 E10.08385
G1 X132.697 Y147.17 E10.09922
G1 X132.317 Y147.729 E10.12171
G1 X132.041 Y148.108 E10.1373
G1 X131.627 Y148.641 E10.15975
G1 X131.339 Y148.99 E10.1748
G1 X130.893 Y149.497 E10.19726
G1 X130.564 Y149.847 E10.21323
G1 X130.083 Y150.327 E10.23583
G1 X129.744 Y150.645 E10.25129
G1 X129.237 Y151.091 E10.27375
G1 X128.888 Y151.379 E10.2888
G1 X128.355 Y151.793 E10.31125
G1 X127.964 Y152.077 E10.32732
G1 X127.404 Y152.456 E10.34981
G1 X127.031 Y152.693 E10.36451
G1 X126.451 Y153.037 E10.38694
G1 X126.033 Y153.267 E10.40281
G1 X125.43 Y153.574 E10.42531
G1 X125.007 Y153.773 E10.44086
G1 X124.391 Y154.039 E10.46318
G1 X123.956 Y154.21 E10.47872
G1 X123.315 Y154.44 E10.50137
G1 X122.871 Y154.584 E10.5169
G1 X122.224 Y154.771 E10.5393
G1 X121.799 Y154.88 E10.55389
G1 X121.139 Y155.029 E10.5764
G1 X120.647 Y155.123 E10.59306
G1 X119.979 Y155.227 E10.61554
G1 X119.543 Y155.282 E10.63016
G1 X118.871 Y155.346 E10.65261
G1 X118.399 Y155.375 E10.66834
G1 X117.725 Y155.396 E10.69077
G1 X117.265 Y155.396 E10.70607
G1 X116.591 Y155.375 E10.7285
G1 X116.11 Y155.345 E10.74452
G1 X115.437 Y155.28 E10.76701
G1 X114.997 Y155.224 E10.78177
G1 X114.33 Y155.119 E10.80422
G1 X113.851 Y155.027 E10.82045
G1 X113.191 Y154.878 E10.84295
G1 X112.766 Y154.769 E10.85754
G1 X112.119 Y154.582 E10.87994
G1 X111.654 Y154.431 E10.8962
G1 X111.019 Y154.201 E10.91867
G1 X110.603 Y154.036 E10.93355
G1 X109.983 Y153.768 E10.95602
G1 X109.562 Y153.57 E10.97149
G1 X108.959 Y153.263 E10.994
G1 X108.533 Y153.028 E11.01018
G1 X107.953 Y152.683 E11.03262
G1 X107.581 Y152.446 E11.04729
G1 X107.021 Y152.066 E11.0698
G1 X106.637 Y151.787 E11.08559
G1 X106.104 Y151.373 E11.10804
G1 X105.752 Y151.082 E11.12323
G1 X105.249 Y150.639 E11.14552
G1 X104.907 Y150.319 E11.1611
G1 X104.43 Y149.842 E11.18354
G1 X104.107 Y149.497 E11.19925
G1 X103.661 Y148.99 E11.22171
G1 X103.373 Y148.641 E11.23676
G1 X102.959 Y148.108 E11.25921
G1 X102.683 Y147.729 E11.2748
G1 X102.303 Y147.17 E11.29729
G1 X102.055 Y146.78 E11.31266
G1 X101.711 Y146.199 E11.33511
G1 X101.482 Y145.782 E11.35094
G1 X101.176 Y145.18 E11.3734
G1 X100.98 Y144.763 E11.38872
G1 X100.712 Y144.143 E11.41119
G1 X100.543 Y143.714 E11.42652
G1 X100.314 Y143.078 E11.44901
G1 X100.167 Y142.626 E11.46482
G1 X99.98 Y141.979 E11.48722
G1 X99.871 Y141.554 E11.50181
G1 X99.722 Y140.894 E11.52431
G1 X99.63 Y140.415 E11.54054
G1 X99.525 Y139.748 E11.56299
G1 X99.468 Y139.298 E11.57808
G1 X99.404 Y138.625 E11.60057
