;FLAVOR:Marlin
;TIME:1470
;Filament used: 0.802114m
;Layer height: 0.2
;MINX:88.685
;MINY:98.954
;MINZ:0.2
;MAXX:136.051
;MAXY:156.595
;MAXZ:7.6
;Generated with Cura_SteamEngine 5.2.1
M140 S65
M105
M190 S65
M104 S240
M105
M109 S240
M82 ;absolute extrusion mode
; Ender 3 Custom Start G-code
G92 E0 ; Reset Extruder
G28 ; Home all axes
G1 Z2.0 F3000 ; Move Z Axis up little to prevent scratching of Heat Bed
G1 X0.1 Y20 Z0.3 F5000.0 ; Move to start position
G1 X0.1 Y200.0 Z0.3 F1500.0 E15 ; Draw the first line
G1 X0.4 Y200.0 Z0.3 F5000.0 ; Move to side a little
G1 X0.4 Y20 Z0.3 F1500.0 E30 ; Draw the second line
G92 E0 ; Reset Extruder
G1 Z2.0 F3000 ; Move Z Axis up little to prevent scratching of Heat Bed
G1 X5 Y20 Z0.3 F5000.0 ; Move over to prevent blob squish
G92 E0
G92 E0
G1 F2700 E-5
;LAYER_COUNT:38
;LAYER:0
M107
G0 F6000 X104.153 Y104.62 Z0.2
;TYPE:SKIRT
G1 F2700 E0
G1 F900 X104.637 Y104.137 E0.02274
G1 X105.002 Y103.796 E0.03936
G1 X105.509 Y103.351 E0.06179
G1 X105.869 Y103.053 E0.07734
G1 X106.402 Y102.639 E0.09978
G1 X106.807 Y102.345 E0.11643
G1 X107.367 Y101.965 E0.13894
G1 X107.782 Y101.702 E0.15528
G1 X108.363 Y101.359 E0.17772
G1 X108.798 Y101.12 E0.19423
G1 X109.401 Y100.814 E0.21672
G1 X109.836 Y100.61 E0.2327
G1 X110.456 Y100.342 E0.25516
G1 X110.919 Y100.16 E0.27171
G1 X111.555 Y99.932 E0.29418
G1 X112.024 Y99.78 E0.31058
G1 X112.672 Y99.593 E0.33301
G1 X113.128 Y99.476 E0.34867
G1 X113.788 Y99.328 E0.37117
G1 X114.284 Y99.234 E0.38796
G1 X114.952 Y99.129 E0.41045
G1 X115.435 Y99.068 E0.42664
G1 X116.107 Y99.005 E0.44909
G1 X116.592 Y98.975 E0.46525
G1 X117.266 Y98.954 E0.48768
G1 X117.763 Y98.954 E0.50421
G1 X118.437 Y98.976 E0.52664
G1 X118.921 Y99.007 E0.54277
G1 X119.594 Y99.071 E0.56525
G1 X120.08 Y99.133 E0.58155
G1 X120.747 Y99.239 E0.60401
G1 X121.243 Y99.334 E0.62081
G1 X121.902 Y99.483 E0.64328
G1 X122.358 Y99.601 E0.65895
G1 X123.005 Y99.789 E0.68136
G1 X123.471 Y99.94 E0.69765
G1 X124.107 Y100.169 E0.72013
G1 X124.57 Y100.352 E0.73669
G1 X125.19 Y100.621 E0.75917
G1 X125.629 Y100.828 E0.77531
G1 X126.231 Y101.135 E0.79779
G1 X126.666 Y101.375 E0.81431
G1 X127.246 Y101.719 E0.83674
G1 X127.652 Y101.977 E0.85274
G1 X128.211 Y102.357 E0.87522
G1 X128.618 Y102.654 E0.89198
G1 X129.151 Y103.069 E0.91445
G1 X129.512 Y103.367 E0.93002
G1 X130.012 Y103.807 E0.95217
G1 X130.374 Y104.148 E0.96871
G1 X130.851 Y104.625 E0.99115
G1 X131.192 Y104.988 E1.00771
G1 X131.638 Y105.495 E1.03017
G1 X131.942 Y105.862 E1.04602
G1 X132.356 Y106.395 E1.06847
G1 X132.645 Y106.792 E1.0848
G1 X133.026 Y107.352 E1.10733
G1 X133.291 Y107.77 E1.12379
G1 X133.634 Y108.35 E1.1462
G1 X133.871 Y108.781 E1.16256
G1 X134.178 Y109.384 E1.18507
G1 X134.387 Y109.828 E1.20139
G1 X134.655 Y110.448 E1.22385
G1 X134.832 Y110.897 E1.23991
G1 X135.061 Y111.532 E1.26236
G1 X135.218 Y112.015 E1.27925
G1 X135.405 Y112.663 E1.30168
G1 X135.519 Y113.106 E1.3169
G1 X135.668 Y113.765 E1.33937
G1 X135.765 Y114.272 E1.35654
G1 X135.87 Y114.939 E1.37899
G1 X135.93 Y115.414 E1.39492
G1 X135.994 Y116.087 E1.4174
G1 X136.025 Y116.582 E1.4339
G1 X136.05 Y117.499 E1.46441
G1 X136.051 Y128.249 E1.82196
G1 X136.011 Y129.038 E1.84823
G1 X135.892 Y129.819 E1.87451
G1 X135.694 Y130.583 E1.90076
G1 X135.42 Y131.324 E1.92704
G1 X135.072 Y132.033 E1.9533
G1 X134.655 Y132.703 E1.97955
G1 X134.172 Y133.328 E2.00582
G1 X133.628 Y133.9 E2.03208
G1 X133.029 Y134.415 E2.05835
G1 X132.381 Y134.867 E2.08463
G1 X131.691 Y135.25 E2.11088
G1 X130.966 Y135.562 E2.13713
G1 X130.212 Y135.799 E2.16342
G1 X129.439 Y135.959 E2.18967
G1 X128.653 Y136.04 E2.21595
G1 X128.251 Y136.05 E2.22933
G1 X125.674 Y136.05 E2.31504
G1 X125.73 Y136.661 E2.33545
G1 X125.759 Y137.135 E2.35124
G1 X125.78 Y137.809 E2.37367
G1 X125.78 Y138.306 E2.3902
G1 X125.758 Y138.981 E2.41266
G1 X125.728 Y139.453 E2.42839
G1 X125.665 Y140.127 E2.45091
G1 X125.601 Y140.636 E2.46797
G1 X125.494 Y141.303 E2.49044
G1 X125.402 Y141.777 E2.5065
G1 X125.254 Y142.436 E2.52896
G1 X125.13 Y142.917 E2.54548
G1 X124.941 Y143.563 E2.56787
G1 X124.799 Y144.002 E2.58322
G1 X124.571 Y144.639 E2.60572
G1 X124.376 Y145.129 E2.62326
G1 X124.106 Y145.748 E2.64572
G1 X123.913 Y146.159 E2.66082
G1 X123.608 Y146.76 E2.68324
G1 X123.354 Y147.221 E2.70075
G1 X123.008 Y147.802 E2.72324
G1 X122.757 Y148.196 E2.73878
G1 X122.377 Y148.755 E2.76126
G1 X122.094 Y149.145 E2.77728
G1 X121.686 Y149.672 E2.79945
G1 X121.369 Y150.055 E2.81599
G1 X120.923 Y150.561 E2.83842
G1 X120.587 Y150.918 E2.85473
G1 X120.109 Y151.396 E2.87721
G1 X119.745 Y151.738 E2.89382
G1 X119.239 Y152.183 E2.91623
G1 X118.867 Y152.49 E2.93228
G1 X118.333 Y152.904 E2.95475
G1 X117.947 Y153.185 E2.97063
G1 X117.388 Y153.566 E2.99313
G1 X116.969 Y153.833 E3.00966
G1 X116.388 Y154.177 E3.03211
G1 X115.948 Y154.418 E3.0488
G1 X115.346 Y154.724 E3.07126
G1 X114.907 Y154.931 E3.0874
G1 X114.287 Y155.199 E3.10987
G1 X113.831 Y155.379 E3.12617
G1 X113.194 Y155.608 E3.14869
G1 X112.735 Y155.757 E3.16474
G1 X112.089 Y155.945 E3.18712
G1 X111.616 Y156.067 E3.20336
G1 X110.956 Y156.215 E3.22586
G1 X110.462 Y156.309 E3.24258
G1 X109.795 Y156.414 E3.26504
G1 X109.319 Y156.474 E3.281
G1 X108.645 Y156.538 E3.30352
G1 X108.151 Y156.569 E3.31998
G1 X107.235 Y156.594 E3.35046
G1 X96.486 Y156.595 E3.70797
G1 X95.697 Y156.555 E3.73425
G1 X94.916 Y156.436 E3.76052
G1 X94.152 Y156.238 E3.78677
G1 X93.411 Y155.964 E3.81305
G1 X92.702 Y155.616 E3.83932
G1 X92.032 Y155.199 E3.86557
G1 X91.407 Y154.716 E3.89184
G1 X90.835 Y154.172 E3.91809
G1 X90.32 Y153.573 E3.94437
G1 X89.868 Y152.925 E3.97064
G1 X89.485 Y152.235 E3.99689
G1 X89.173 Y151.51 E4.02314
G1 X88.936 Y150.756 E4.04943
G1 X88.776 Y149.983 E4.07569
G1 X88.695 Y149.197 E4.10197
G1 X88.685 Y148.795 E4.11534
G1 X88.685 Y138.035 E4.47322
G1 X88.711 Y137.107 E4.5041
G1 X88.741 Y136.634 E4.51986
G1 X88.804 Y135.961 E4.54234
G1 X88.868 Y135.453 E4.55937
G1 X88.975 Y134.786 E4.58184
G1 X89.067 Y134.312 E4.5979
G1 X89.215 Y133.653 E4.62037
G1 X89.338 Y133.175 E4.63678
G1 X89.527 Y132.528 E4.6592
G1 X89.672 Y132.083 E4.67477
G1 X89.9 Y131.447 E4.69724
G1 X90.091 Y130.965 E4.71448
G1 X90.361 Y130.345 E4.73698
G1 X90.556 Y129.929 E4.75226
G1 X90.861 Y129.328 E4.77467
G1 X91.115 Y128.867 E4.79218
G1 X91.461 Y128.286 E4.81467
G1 X91.716 Y127.887 E4.83042
G1 X92.096 Y127.329 E4.85287
G1 X92.379 Y126.94 E4.86887
G1 X92.793 Y126.406 E4.89135
G1 X93.101 Y126.032 E4.90746
G1 X93.541 Y125.532 E4.92961
G1 X93.887 Y125.164 E4.94641
G1 X94.365 Y124.687 E4.96887
G1 X94.717 Y124.357 E4.98492
G1 X95.223 Y123.911 E5.00736
G1 X95.602 Y123.598 E5.0237
G1 X96.136 Y123.184 E5.04618
G1 X96.53 Y122.897 E5.06239
G1 X97.089 Y122.517 E5.08487
G1 X97.5 Y122.256 E5.10107
G1 X98.081 Y121.912 E5.12352
G1 X98.511 Y121.675 E5.13985
G1 X99.336 Y121.254 E5.17066
G1 X99.235 Y120.727 E5.18851
G1 X99.13 Y120.06 E5.21096
G1 X99.07 Y119.585 E5.22689
G1 X99.006 Y118.912 E5.24937
G1 X98.975 Y118.417 E5.26587
G1 X98.954 Y117.744 E5.28826
G1 X98.954 Y117.258 E5.30443
G1 X98.975 Y116.583 E5.32689
G1 X99.005 Y116.099 E5.34302
G1 X99.067 Y115.437 E5.36513
G1 X99.128 Y114.948 E5.38152
G1 X99.235 Y114.27 E5.40435
G1 X99.331 Y113.768 E5.42135
G1 X99.48 Y113.108 E5.44386
G1 X99.596 Y112.66 E5.45925
G1 X99.783 Y112.013 E5.48165
G1 X99.937 Y111.537 E5.49829
G1 X100.166 Y110.901 E5.52077
G1 X100.345 Y110.448 E5.53697
G1 X100.613 Y109.828 E5.55944
G1 X100.82 Y109.389 E5.57558
G1 X101.126 Y108.787 E5.59804
G1 X101.367 Y108.347 E5.61473
G1 X101.711 Y107.766 E5.63718
G1 X101.972 Y107.355 E5.65338
G1 X102.352 Y106.796 E5.67586
G1 X102.643 Y106.396 E5.69231
G1 X103.057 Y105.863 E5.71476
G1 X103.361 Y105.496 E5.73061
G1 X103.807 Y104.989 E5.75307
G1 X104.153 Y104.62 E5.76989
G0 F6000 X104.436 Y104.903
G1 F900 X104.92 Y104.42 E5.79263
G1 X105.266 Y104.096 E5.8084
G1 X105.773 Y103.651 E5.83084
G1 X106.115 Y103.369 E5.84558
G1 X106.648 Y102.955 E5.86803
G1 X107.032 Y102.676 E5.88381
G1 X107.592 Y102.296 E5.90632
G1 X107.985 Y102.047 E5.9218
G1 X108.566 Y101.704 E5.94424
G1 X108.979 Y101.477 E5.95991
G1 X109.582 Y101.171 E5.9824
G1 X109.995 Y100.977 E5.99758
G1 X110.615 Y100.709 E6.02004
G1 X111.054 Y100.536 E6.03574
G1 X111.69 Y100.308 E6.05821
G1 X112.135 Y100.164 E6.07377
G1 X112.783 Y99.977 E6.0962
G1 X113.216 Y99.866 E6.11107
G1 X113.876 Y99.718 E6.13356
G1 X114.346 Y99.629 E6.14947
G1 X115.014 Y99.524 E6.17196
G1 X115.472 Y99.466 E6.18732
G1 X116.144 Y99.403 E6.20977
G1 X116.605 Y99.375 E6.22513
G1 X117.279 Y99.354 E6.24756
G1 X117.75 Y99.354 E6.26322
G1 X118.424 Y99.376 E6.28565
G1 X118.884 Y99.405 E6.30098
G1 X119.557 Y99.469 E6.32347
G1 X120.017 Y99.528 E6.33889
G1 X120.684 Y99.634 E6.36135
G1 X121.155 Y99.724 E6.3773
G1 X121.814 Y99.873 E6.39978
G1 X122.247 Y99.985 E6.41465
G1 X122.894 Y100.173 E6.43706
G1 X123.336 Y100.317 E6.45252
G1 X123.972 Y100.546 E6.475
G1 X124.41 Y100.719 E6.49067
G1 X125.03 Y100.988 E6.51315
G1 X125.447 Y101.185 E6.52849
G1 X126.049 Y101.492 E6.55096
G1 X126.462 Y101.719 E6.56664
G1 X127.042 Y102.063 E6.58906
G1 X127.427 Y102.308 E6.60424
G1 X127.986 Y102.688 E6.62672
G1 X128.372 Y102.969 E6.6426
G1 X128.905 Y103.384 E6.66507
G1 X129.248 Y103.668 E6.67988
G1 X129.748 Y104.108 E6.70204
G1 X130.092 Y104.43 E6.71771
G1 X130.569 Y104.907 E6.74014
G1 X130.892 Y105.252 E6.75586
G1 X131.338 Y105.759 E6.77832
G1 X131.626 Y106.108 E6.79337
G1 X132.04 Y106.641 E6.81582
G1 X132.314 Y107.017 E6.83129
G1 X132.695 Y107.577 E6.85382
G1 X132.947 Y107.973 E6.86943
G1 X133.29 Y108.553 E6.89184
G1 X133.515 Y108.963 E6.9074
G1 X133.822 Y109.566 E6.9299
G1 X134.02 Y109.987 E6.94538
G1 X134.288 Y110.607 E6.96784
G1 X134.456 Y111.033 E6.98307
G1 X134.685 Y111.668 E7.00553
G1 X134.834 Y112.126 E7.02154
G1 X135.021 Y112.774 E7.04398
G1 X135.129 Y113.194 E7.0584
G1 X135.278 Y113.853 E7.08087
G1 X135.37 Y114.334 E7.09716
G1 X135.475 Y115.001 E7.11962
G1 X135.532 Y115.451 E7.1347
G1 X135.596 Y116.124 E7.15719
G1 X135.625 Y116.595 E7.17289
G1 X135.65 Y117.499 E7.20296
G1 X135.651 Y128.249 E7.56051
G1 X135.611 Y129.017 E7.58609
G1 X135.492 Y129.777 E7.61167
G1 X135.294 Y130.521 E7.63728
G1 X135.02 Y131.239 E7.66284
G1 X134.673 Y131.926 E7.68844
G1 X134.257 Y132.573 E7.71402
G1 X133.776 Y133.173 E7.7396
G1 X133.235 Y133.72 E7.76519
G1 X132.641 Y134.207 E7.79074
G1 X131.998 Y134.631 E7.81636
G1 X131.316 Y134.985 E7.84191
G1 X130.6 Y135.267 E7.86751
G1 X129.859 Y135.473 E7.89309
G1 X129.101 Y135.601 E7.91866
G1 X128.251 Y135.65 E7.94697
G1 X125.223 Y135.65 E8.04769
G1 X125.27 Y136.026 E8.06029
G1 X125.332 Y136.698 E8.08273
G1 X125.359 Y137.148 E8.09773
G1 X125.38 Y137.822 E8.12016
G1 X125.38 Y138.293 E8.13582
G1 X125.358 Y138.968 E8.15828
G1 X125.33 Y139.416 E8.17321
G1 X125.267 Y140.09 E8.19573
G1 X125.206 Y140.573 E8.21192
G1 X125.099 Y141.24 E8.23439
G1 X125.012 Y141.69 E8.24963
G1 X124.864 Y142.349 E8.2721
G1 X124.746 Y142.805 E8.28776
G1 X124.557 Y143.451 E8.31015
G1 X124.422 Y143.867 E8.3247
G1 X124.194 Y144.504 E8.3472
G1 X124.01 Y144.969 E8.36383
G1 X123.74 Y145.588 E8.38629
G1 X123.556 Y145.978 E8.40064
G1 X123.251 Y146.579 E8.42305
G1 X123.01 Y147.016 E8.43965
G1 X122.664 Y147.597 E8.46214
G1 X122.426 Y147.971 E8.47689
G1 X122.046 Y148.53 E8.49937
G1 X121.777 Y148.9 E8.51458
G1 X121.369 Y149.427 E8.53675
G1 X121.069 Y149.79 E8.55241
G1 X120.623 Y150.296 E8.57485
G1 X120.305 Y150.636 E8.59033
G1 X119.827 Y151.114 E8.61282
G1 X119.481 Y151.438 E8.62858
G1 X118.975 Y151.883 E8.65099
G1 X118.622 Y152.174 E8.66621
G1 X118.088 Y152.588 E8.68868
G1 X117.722 Y152.855 E8.70375
G1 X117.163 Y153.236 E8.72625
G1 X116.765 Y153.489 E8.74194
G1 X116.184 Y153.833 E8.76439
G1 X115.767 Y154.062 E8.78022
G1 X115.165 Y154.368 E8.80268
G1 X114.748 Y154.564 E8.818
G1 X114.128 Y154.832 E8.84047
G1 X113.695 Y155.003 E8.85595
G1 X113.058 Y155.232 E8.87847
G1 X112.623 Y155.373 E8.89368
G1 X111.977 Y155.561 E8.91605
G1 X111.528 Y155.677 E8.93148
G1 X110.868 Y155.825 E8.95397
G1 X110.4 Y155.914 E8.96982
G1 X109.733 Y156.019 E8.99228
G1 X109.282 Y156.076 E9.0074
G1 X108.608 Y156.14 E9.02991
G1 X108.138 Y156.169 E9.04558
G1 X107.235 Y156.194 E9.07562
G1 X96.486 Y156.195 E9.43314
G1 X95.718 Y156.155 E9.45871
G1 X94.958 Y156.036 E9.4843
G1 X94.214 Y155.838 E9.50991
G1 X93.496 Y155.564 E9.53547
G1 X92.809 Y155.217 E9.56107
G1 X92.162 Y154.801 E9.58665
G1 X91.562 Y154.32 E9.61223
G1 X91.015 Y153.779 E9.63781
G1 X90.528 Y153.185 E9.66336
G1 X90.104 Y152.542 E9.68898
G1 X89.75 Y151.86 E9.71454
G1 X89.468 Y151.144 E9.74013
G1 X89.262 Y150.403 E9.76571
G1 X89.134 Y149.645 E9.79128
G1 X89.085 Y148.795 E9.8196
G1 X89.085 Y138.035 E10.17748
G1 X89.111 Y137.12 E10.20792
G1 X89.139 Y136.671 E10.22289
G1 X89.202 Y135.998 E10.24537
G1 X89.263 Y135.516 E10.26153
G1 X89.37 Y134.849 E10.28399
G1 X89.457 Y134.399 E10.29924
G1 X89.605 Y133.74 E10.3217
G1 X89.722 Y133.287 E10.33726
G1 X89.911 Y132.64 E10.35968
G1 X90.048 Y132.218 E10.37444
G1 X90.276 Y131.582 E10.39691
G1 X90.457 Y131.124 E10.41329
G1 X90.727 Y130.504 E10.43578
G1 X90.913 Y130.11 E10.45027
G1 X91.218 Y129.509 E10.47269
G1 X91.459 Y129.072 E10.48929
G1 X91.805 Y128.491 E10.51178
G1 X92.047 Y128.112 E10.52674
G1 X92.427 Y127.554 E10.54919
G1 X92.695 Y127.185 E10.56436
G1 X93.109 Y126.651 E10.58683
G1 X93.402 Y126.296 E10.60214
G1 X93.842 Y125.796 E10.62429
G1 X94.17 Y125.447 E10.64022
G1 X94.648 Y124.97 E10.66268
G1 X94.982 Y124.657 E10.67791
G1 X95.488 Y124.211 E10.70034
G1 X95.847 Y123.914 E10.71584
G1 X96.381 Y123.5 E10.73831
G1 X96.755 Y123.228 E10.75369
G1 X97.314 Y122.848 E10.77618
G1 X97.704 Y122.6 E10.79155
G1 X98.285 Y122.256 E10.814
G1 X98.693 Y122.032 E10.82949
G1 X99.295 Y121.725 E10.85196
G1 X99.8 Y121.49 E10.87049
G1 X99.722 Y121.144 E10.88228
G1 X99.63 Y120.665 E10.89851
G1 X99.525 Y119.998 E10.92096
G1 X99.468 Y119.548 E10.93605
G1 X99.404 Y118.875 E10.95854
G1 X99.375 Y118.405 E10.9742
G1 X99.354 Y117.732 E10.99659
G1 X99.354 Y117.271 E11.01193
G1 X99.375 Y116.596 E11.03439
G1 X99.403 Y116.136 E11.04972
G1 X99.465 Y115.474 E11.07183
G1 X99.523 Y115.01 E11.08738
G1 X99.63 Y114.332 E11.11021
G1 X99.722 Y113.856 E11.12634
G1 X99.871 Y113.196 E11.14884
G1 X99.98 Y112.771 E11.16343
G1 X100.167 Y112.124 E11.18583
G1 X100.314 Y111.672 E11.20164
G1 X100.543 Y111.036 E11.22413
G1 X100.712 Y110.607 E11.23946
G1 X100.98 Y109.987 E11.26193
G1 X101.176 Y109.57 E11.27725
G1 X101.482 Y108.968 E11.29971
G1 X101.711 Y108.551 E11.31554
G1 X102.055 Y107.97 E11.33799
G1 X102.303 Y107.58 E11.35337
G1 X102.683 Y107.021 E11.37585
G1 X102.959 Y106.642 E11.39144
G1 X103.373 Y106.109 E11.41389
G1 X103.661 Y105.76 E11.42894
G1 X104.107 Y105.253 E11.4514
G1 X104.436 Y104.903 E11.46737
G0 F6000 X104.718 Y105.186
G1 F900 X105.202 Y104.703 E11.49012
G1 X105.529 Y104.397 E11.50501
G1 X106.036 Y103.952 E11.52745
G1 X106.36 Y103.685 E11.54141
G1 X106.893 Y103.271 E11.56386
G1 X107.256 Y103.007 E11.57879
G1 X107.816 Y102.627 E11.6013
G1 X108.188 Y102.391 E11.61595
G1 X108.769 Y102.048 E11.63839
G1 X109.16 Y101.834 E11.65322
G1 X109.763 Y101.528 E11.67571
G1 X110.154 Y101.345 E11.69006
G1 X110.774 Y101.077 E11.71253
G1 X111.189 Y100.913 E11.72737
G1 X111.825 Y100.685 E11.74984
G1 X112.246 Y100.548 E11.76457
G1 X112.894 Y100.361 E11.787
G1 X113.303 Y100.257 E11.80104
G1 X113.963 Y100.109 E11.82353
G1 X114.408 Y100.024 E11.8386
G1 X115.076 Y99.919 E11.86109
G1 X115.51 Y99.865 E11.87564
G1 X116.182 Y99.802 E11.89809
G1 X116.617 Y99.774 E11.91259
G1 X117.291 Y99.753 E11.93501
G1 X117.737 Y99.754 E11.94985
G1 X118.411 Y99.776 E11.97228
G1 X118.846 Y99.803 E11.98677
G1 X119.519 Y99.867 E12.00926
G1 X119.955 Y99.923 E12.02388
G1 X120.622 Y100.029 E12.04634
