;FLAVOR:Marlin
;TIME:2286
;Filament used: 1.49617m
;Layer height: 0.2
;MINX:92.908
;MINY:92.771
;MINZ:0.2
;MAXX:141.966
;MAXY:142.225
;MAXZ:10
;Generated with Cura_SteamEngine 5.2.1
M140 S70
M105
M190 S70
M104 S240
M105
M109 S240
M82 ;absolute extrusion mode
; Ender 3 Custom Start G-code
G92 E0 ; Reset Extruder
G28 ; Home all axes
G1 Z2.0 F3000 ; Move Z Axis up little to prevent scratching of Heat Bed
G1 X0.1 Y20 Z0.3 F5000.0 ; Move to start position
G1 X0.1 Y200.0 Z0.3 F1500.0 E15 ; Draw the first line
G1 X0.4 Y200.0 Z0.3 F5000.0 ; Move to side a little
G1 X0.4 Y20 Z0.3 F1500.0 E30 ; Draw the second line
G92 E0 ; Reset Extruder
G1 Z2.0 F3000 ; Move Z Axis up little to prevent scratching of Heat Bed
G1 X5 Y20 Z0.3 F5000.0 ; Move over to prevent blob squish
G92 E0
G92 E0
G1 F2700 E-5
;LAYER_COUNT:50
;LAYER:0
M107
G0 F6000 X113.656 Y113.886 Z0.2
;TYPE:SKIRT
G1 F2700 E0
G1 F900 X113.384 Y114.216 E0.01422
G1 X113.111 Y114.605 E0.03003
G1 X112.873 Y115.014 E0.04577
G1 X112.693 Y115.4 E0.05993
G1 X112.54 Y115.801 E0.07421
G1 X112.446 Y116.113 E0.08505
G1 X112.373 Y116.419 E0.09551
G1 X112.3 Y116.881 E0.11107
G1 X112.268 Y117.311 E0.12541
G1 X112.265 Y117.6 E0.13502
G1 X112.288 Y117.999 E0.14831
G1 X112.338 Y118.393 E0.16152
G1 X112.426 Y118.831 E0.17638
G1 X112.553 Y119.238 E0.19056
G1 X112.706 Y119.644 E0.20499
G1 X112.876 Y119.989 E0.21779
G1 X113.024 Y120.253 E0.22785
G1 X113.172 Y120.488 E0.23709
G1 X113.347 Y120.735 E0.24716
G1 X113.554 Y120.992 E0.25813
G1 X113.816 Y121.278 E0.27103
G1 X114.056 Y121.506 E0.28204
G1 X114.379 Y121.778 E0.29609
G1 X114.707 Y122.002 E0.3093
G1 X114.945 Y122.146 E0.31855
G1 X115.254 Y122.315 E0.33027
G1 X115.497 Y122.427 E0.33917
G1 X115.813 Y122.553 E0.35048
G1 X116.11 Y122.65 E0.36087
G1 X116.472 Y122.743 E0.3733
G1 X116.77 Y122.801 E0.3834
G1 X117.102 Y122.845 E0.39454
G1 X117.395 Y122.866 E0.40431
G1 X117.699 Y122.871 E0.41442
G1 X117.99 Y122.858 E0.42411
G1 X118.26 Y122.834 E0.43313
G1 X118.65 Y122.776 E0.44624
G1 X119.129 Y122.659 E0.46264
G1 X119.401 Y122.573 E0.47213
G1 X119.829 Y122.403 E0.48745
G1 X120.116 Y122.264 E0.49805
G1 X120.401 Y122.104 E0.50892
G1 X120.645 Y121.949 E0.51854
G1 X120.907 Y121.761 E0.52926
G1 X121.25 Y121.474 E0.54414
G1 X121.523 Y121.205 E0.55689
G1 X121.709 Y121 E0.56609
G1 X121.964 Y120.682 E0.57965
G1 X122.148 Y120.414 E0.59046
G1 X122.306 Y120.154 E0.60058
G1 X122.506 Y119.771 E0.61495
G1 X122.615 Y119.519 E0.62408
G1 X122.722 Y119.233 E0.63424
G1 X122.875 Y118.756 E0.6509
G1 X123.154 Y118.018 E0.67714
G1 X123.523 Y117.284 E0.70447
G1 X123.378 Y117.076 E0.7129
G1 X122.995 Y116.385 E0.73918
G1 X122.715 Y115.742 E0.7625
G1 X122.637 Y115.537 E0.7698
G1 X122.432 Y115.082 E0.7864
G1 X122.311 Y114.857 E0.79489
G1 X122.135 Y114.567 E0.80618
G1 X121.981 Y114.343 E0.81522
G1 X121.811 Y114.123 E0.82447
G1 X121.517 Y113.787 E0.83931
G1 X121.304 Y113.577 E0.84926
G1 X120.995 Y113.305 E0.86296
G1 X120.682 Y113.077 E0.87583
G1 X120.43 Y112.913 E0.88583
G1 X120.048 Y112.7 E0.90038
G1 X119.743 Y112.559 E0.91156
G1 X119.337 Y112.405 E0.926
G1 X119.077 Y112.325 E0.93505
G1 X118.737 Y112.24 E0.9467
G1 X118.375 Y112.175 E0.95894
G1 X117.807 Y112.125 E0.9779
G1 X117.375 Y112.135 E0.99227
G1 X117.076 Y112.158 E1.00225
G1 X116.78 Y112.197 E1.01218
G1 X116.383 Y112.271 E1.02561
G1 X115.965 Y112.395 E1.04011
G1 X115.49 Y112.575 E1.05701
G1 X115.196 Y112.714 E1.06782
G1 X114.807 Y112.929 E1.08261
G1 X114.365 Y113.234 E1.10047
G1 X113.951 Y113.591 E1.11865
G1 X113.656 Y113.886 E1.13253
G0 F6000 X113.29 Y113.701
G1 F900 X113.069 Y113.97 E1.1441
G1 X112.771 Y114.394 E1.16134
G1 X112.606 Y114.669 E1.17201
G1 X112.435 Y114.996 E1.18428
G1 X112.328 Y115.235 E1.19299
G1 X112.155 Y115.692 E1.20924
G1 X112.064 Y115.995 E1.21977
G1 X111.98 Y116.347 E1.2318
G1 X111.905 Y116.817 E1.24763
G1 X111.868 Y117.292 E1.26348
G1 X111.865 Y117.609 E1.27402
G1 X111.891 Y118.051 E1.28875
G1 X111.943 Y118.454 E1.30226
G1 X112.037 Y118.927 E1.3183
G1 X112.167 Y119.346 E1.3329
G1 X112.308 Y119.717 E1.3461
G1 X112.459 Y120.053 E1.35835
G1 X112.691 Y120.476 E1.37439
G1 X112.832 Y120.699 E1.38317
G1 X113.02 Y120.967 E1.39406
G1 X113.26 Y121.264 E1.40676
G1 X113.514 Y121.541 E1.41926
G1 X113.771 Y121.788 E1.43111
G1 X114.123 Y122.085 E1.44643
G1 X114.483 Y122.334 E1.46099
G1 X114.759 Y122.501 E1.47172
G1 X115.057 Y122.664 E1.48302
G1 X115.317 Y122.785 E1.49256
G1 X115.695 Y122.936 E1.50609
G1 X116.004 Y123.036 E1.5169
G1 X116.389 Y123.135 E1.53012
G1 X116.7 Y123.195 E1.54065
G1 X117.063 Y123.243 E1.55283
G1 X117.388 Y123.267 E1.56367
G1 X117.718 Y123.271 E1.57465
G1 X118.024 Y123.258 E1.58483
G1 X118.287 Y123.234 E1.59362
G1 X118.615 Y123.188 E1.60463
G1 X118.895 Y123.132 E1.61413
G1 X119.379 Y123.002 E1.6308
G1 X119.667 Y122.902 E1.64094
G1 X119.985 Y122.772 E1.65236
G1 X120.305 Y122.617 E1.66419
G1 X120.596 Y122.454 E1.67528
G1 X120.855 Y122.289 E1.6855
G1 X121.155 Y122.075 E1.69776
G1 X121.526 Y121.763 E1.71388
G1 X121.809 Y121.485 E1.72707
G1 X122.101 Y121.164 E1.74151
G1 X122.375 Y120.794 E1.75682
G1 X122.661 Y120.339 E1.77469
G1 X122.861 Y119.957 E1.78903
G1 X122.99 Y119.661 E1.79977
G1 X123.101 Y119.362 E1.81038
G1 X123.256 Y118.879 E1.82725
G1 X123.529 Y118.16 E1.85283
G1 X123.875 Y117.473 E1.87842
G1 X123.999 Y117.279 E1.88608
G1 X123.614 Y116.693 E1.9094
G1 X123.261 Y116.01 E1.93497
G1 X122.914 Y115.168 E1.96526
G1 X122.793 Y114.909 E1.97477
G1 X122.656 Y114.653 E1.98442
G1 X122.482 Y114.367 E1.99556
G1 X122.307 Y114.112 E2.00584
G1 X122.121 Y113.87 E2.016
G1 X121.917 Y113.63 E2.02647
G1 X121.676 Y113.378 E2.03807
G1 X121.336 Y113.073 E2.05326
G1 X121.135 Y112.911 E2.06185
G1 X120.9 Y112.741 E2.07149
G1 X120.643 Y112.574 E2.08169
G1 X120.355 Y112.409 E2.09273
G1 X120.055 Y112.26 E2.10387
G1 X119.584 Y112.061 E2.12088
G1 X118.999 Y111.89 E2.14115
G1 X118.669 Y111.818 E2.15238
G1 X118.088 Y111.746 E2.17185
G1 X117.751 Y111.727 E2.18308
G1 X117.37 Y111.734 E2.19575
G1 X117.038 Y111.76 E2.20683
G1 X116.713 Y111.803 E2.21773
G1 X116.405 Y111.861 E2.22816
G1 X116.132 Y111.928 E2.23751
G1 X115.692 Y112.066 E2.25284
G1 X115.271 Y112.23 E2.26787
G1 X114.845 Y112.448 E2.28379
G1 X114.476 Y112.671 E2.29813
G1 X114.131 Y112.91 E2.31209
G1 X113.8 Y113.188 E2.32646
G1 X113.545 Y113.428 E2.33811
G1 X113.29 Y113.701 E2.35054
G0 F6000 X112.845 Y113.609
G1 F900 X112.652 Y113.859 E2.36104
G1 X112.442 Y114.165 E2.37338
G1 X112.26 Y114.468 E2.38514
G1 X112.089 Y114.794 E2.39738
G1 X111.952 Y115.098 E2.40847
G1 X111.78 Y115.549 E2.42453
G1 X111.65 Y115.994 E2.43995
G1 X111.557 Y116.429 E2.45474
G1 X111.506 Y116.78 E2.46654
G1 X111.468 Y117.295 E2.48372
G1 X111.469 Y117.763 E2.49928
G1 X111.49 Y118.063 E2.50928
G1 X111.526 Y118.376 E2.51976
G1 X111.598 Y118.781 E2.53344
G1 X111.707 Y119.231 E2.54884
G1 X111.866 Y119.691 E2.56503
G1 X112.024 Y120.069 E2.57866
G1 X112.177 Y120.379 E2.59016
G1 X112.334 Y120.658 E2.6008
G1 X112.598 Y121.067 E2.617
G1 X112.883 Y121.443 E2.63269
G1 X113.239 Y121.833 E2.65025
G1 X113.487 Y122.07 E2.66166
G1 X113.676 Y122.234 E2.66998
G1 X113.978 Y122.471 E2.68275
G1 X114.27 Y122.673 E2.69456
G1 X114.555 Y122.846 E2.70565
G1 X114.868 Y123.016 E2.7175
G1 X115.166 Y123.156 E2.72845
G1 X115.55 Y123.309 E2.7422
G1 X115.907 Y123.425 E2.75468
G1 X116.311 Y123.528 E2.76855
G1 X116.654 Y123.593 E2.78016
G1 X117.002 Y123.639 E2.79183
G1 X117.381 Y123.667 E2.80447
G1 X117.71 Y123.671 E2.81542
G1 X118.056 Y123.656 E2.82694
G1 X118.339 Y123.63 E2.83639
G1 X118.689 Y123.581 E2.84814
G1 X118.981 Y123.522 E2.85805
G1 X119.483 Y123.389 E2.87532
G1 X119.83 Y123.268 E2.88755
G1 X120.155 Y123.134 E2.89924
G1 X120.47 Y122.982 E2.91087
G1 X120.795 Y122.801 E2.92325
G1 X121.083 Y122.618 E2.93459
G1 X121.408 Y122.385 E2.94789
G1 X121.783 Y122.07 E2.96418
G1 X122.095 Y121.765 E2.9787
G1 X122.317 Y121.52 E2.98969
G1 X122.613 Y121.15 E3.00545
G1 X122.81 Y120.864 E3.017
G1 X122.994 Y120.561 E3.02879
G1 X123.218 Y120.137 E3.04474
G1 X123.366 Y119.797 E3.05708
G1 X123.48 Y119.491 E3.06794
G1 X123.637 Y119.001 E3.08505
G1 X123.903 Y118.302 E3.10993
G1 X124.243 Y117.635 E3.13483
G1 X124.49 Y117.256 E3.14987
G1 X124.252 Y116.949 E3.16279
G1 X123.858 Y116.313 E3.18768
G1 X123.462 Y115.456 E3.21908
G1 X123.281 Y115.009 E3.23512
G1 X123.153 Y114.736 E3.24514
G1 X122.995 Y114.441 E3.25627
G1 X122.814 Y114.143 E3.26787
G1 X122.631 Y113.876 E3.27864
G1 X122.431 Y113.617 E3.28952
G1 X122.226 Y113.375 E3.30007
G1 X121.978 Y113.113 E3.31207
G1 X121.601 Y112.772 E3.32898
G1 X121.397 Y112.608 E3.33768
G1 X121.118 Y112.405 E3.34916
G1 X120.857 Y112.236 E3.3595
G1 X120.545 Y112.057 E3.37146
G1 X120.236 Y111.903 E3.38295
G1 X119.854 Y111.74 E3.39676
G1 X119.586 Y111.644 E3.40623
G1 X119.319 Y111.562 E3.41552
G1 X118.912 Y111.459 E3.42948
G1 X118.497 Y111.383 E3.44351
G1 X117.838 Y111.326 E3.46551
G1 X117.363 Y111.334 E3.48132
G1 X116.977 Y111.364 E3.49419
G1 X116.662 Y111.406 E3.50476
G1 X116.328 Y111.467 E3.51605
G1 X116.05 Y111.535 E3.52557
G1 X115.559 Y111.688 E3.54268
G1 X115.081 Y111.877 E3.55977
G1 X114.665 Y112.091 E3.57533
G1 X114.245 Y112.344 E3.59164
G1 X114.016 Y112.503 E3.60091
G1 X113.794 Y112.671 E3.61017
G1 X113.523 Y112.898 E3.62193
G1 X113.18 Y113.223 E3.63765
G1 X112.845 Y113.609 E3.65465
G0 F6000 X112.617 Y113.25
G1 F900 X112.33 Y113.622 E3.67027
G1 X112.006 Y114.108 E3.6897
G1 X111.798 Y114.481 E3.70391
G1 X111.582 Y114.944 E3.7209
G1 X111.399 Y115.429 E3.73814
G1 X111.291 Y115.788 E3.75061
G1 X111.199 Y116.173 E3.76378
G1 X111.11 Y116.72 E3.78221
G1 X111.068 Y117.271 E3.80059
G1 X111.069 Y117.776 E3.81738
G1 X111.091 Y118.092 E3.82792
G1 X111.16 Y118.62 E3.84563
G1 X111.266 Y119.143 E3.86338
G1 X111.427 Y119.654 E3.8812
G1 X111.568 Y120.026 E3.89443
G1 X111.744 Y120.412 E3.90854
G1 X111.985 Y120.855 E3.92531
G1 X112.171 Y121.151 E3.93694
G1 X112.394 Y121.466 E3.94978
G1 X112.659 Y121.791 E3.96372
G1 X112.951 Y122.11 E3.97811
G1 X113.228 Y122.375 E3.99086
G1 X113.652 Y122.733 E4.00932
G1 X114.063 Y123.015 E4.02589
G1 X114.353 Y123.191 E4.03718
G1 X114.689 Y123.374 E4.0499
G1 X115.029 Y123.533 E4.06239
G1 X115.386 Y123.675 E4.07516
G1 X115.906 Y123.845 E4.09336
G1 X116.414 Y123.957 E4.11066
G1 X116.963 Y124.037 E4.12912
G1 X117.347 Y124.066 E4.14192
G1 X117.729 Y124.071 E4.15463
G1 X118.069 Y124.056 E4.16595
G1 X118.387 Y124.027 E4.17657
G1 X118.746 Y123.977 E4.18863
G1 X119.062 Y123.915 E4.19934
G1 X119.605 Y123.77 E4.21803
G1 X119.962 Y123.646 E4.2306
G1 X120.305 Y123.505 E4.24293
G1 X120.635 Y123.347 E4.2551
G1 X121.02 Y123.133 E4.26975
G1 X121.321 Y122.941 E4.28163
G1 X121.637 Y122.713 E4.29459
G1 X122.04 Y122.377 E4.31204
G1 X122.392 Y122.033 E4.32841
G1 X122.62 Y121.781 E4.33971
G1 X122.933 Y121.389 E4.3564
G1 X123.156 Y121.066 E4.36945
G1 X123.425 Y120.611 E4.38703
G1 X123.582 Y120.303 E4.39853
G1 X123.742 Y119.934 E4.41191
G1 X123.856 Y119.626 E4.42283
G1 X124.018 Y119.123 E4.44041
G1 X124.277 Y118.445 E4.46455
G1 X124.61 Y117.799 E4.48872
G1 X124.976 Y117.248 E4.51072
G1 X124.474 Y116.563 E4.53897
G1 X124.111 Y115.934 E4.56312
G1 X123.836 Y115.313 E4.58571
G1 X123.653 Y114.862 E4.6019
G1 X123.503 Y114.541 E4.61368
G1 X123.35 Y114.256 E4.62444
G1 X123.147 Y113.922 E4.63744
G1 X122.954 Y113.64 E4.64881
G1 X122.741 Y113.363 E4.66043
G1 X122.542 Y113.13 E4.67062
G1 X122.258 Y112.828 E4.68441
G1 X121.845 Y112.454 E4.70294
G1 X121.643 Y112.292 E4.71155
G1 X121.365 Y112.09 E4.72298
G1 X121.059 Y111.89 E4.73514
G1 X120.731 Y111.702 E4.74771
G1 X120.405 Y111.541 E4.75981
G1 X120.01 Y111.372 E4.7741
G1 X119.717 Y111.266 E4.78446
G1 X119.405 Y111.17 E4.79532
G1 X118.991 Y111.066 E4.80952
G1 X118.532 Y110.984 E4.82502
G1 X117.851 Y110.926 E4.84776
G1 X117.328 Y110.936 E4.86515
G1 X116.971 Y110.962 E4.87706
G1 X116.587 Y111.013 E4.88994
G1 X116.246 Y111.076 E4.90148
G1 X115.923 Y111.155 E4.91254
G1 X115.614 Y111.247 E4.92326
G1 X115.128 Y111.42 E4.94042
G1 X114.651 Y111.646 E4.95797
G1 X114.312 Y111.831 E4.97082
G1 X114.017 Y112.015 E4.98238
G1 X113.778 Y112.181 E4.99206
G1 X113.543 Y112.359 E5.00187
G1 X113.267 Y112.591 E5.01386
G1 X112.977 Y112.864 E5.02711
G1 X112.617 Y113.25 E5.04466
G0 F6000 X112.315 Y112.988
G1 F900 X112.008 Y113.384 E5.06133
G1 X111.707 Y113.823 E5.07903
G1 X111.439 Y114.304 E5.09734
G1 X111.218 Y114.777 E5.11471
G1 X111.018 Y115.308 E5.13358
G1 X110.907 Y115.677 E5.1464
G1 X110.805 Y116.1 E5.16087
G1 X110.718 Y116.598 E5.17768
G1 X110.668 Y117.176 E5.19698
G1 X110.669 Y117.789 E5.21737
G1 X110.694 Y118.147 E5.2293
G1 X110.744 Y118.583 E5.2439
G1 X110.848 Y119.094 E5.26124
G1 X110.92 Y119.375 E5.27089
G1 X111.047 Y119.779 E5.28498
G1 X111.239 Y120.284 E5.30295
G1 X111.472 Y120.758 E5.32051
G1 X111.652 Y121.077 E5.3327
G1 X111.831 Y121.362 E5.34389
G1 X112.057 Y121.682 E5.35692
G1 X112.335 Y122.029 E5.37171
G1 X112.663 Y122.388 E5.38788
G1 X112.963 Y122.675 E5.40169
G1 X113.158 Y122.844 E5.41027
G1 X113.493 Y123.108 E5.42446
G1 X113.839 Y123.347 E5.43845
G1 X114.15 Y123.536 E5.45055
G1 X114.518 Y123.736 E5.46448
G1 X114.85 Y123.891 E5.47667
G1 X115.267 Y124.058 E5.49161
G1 X115.696 Y124.197 E5.50661
G1 X116.086 Y124.297 E5.52
G1 X116.54 Y124.385 E5.53538
G1 X116.924 Y124.435 E5.54826
G1 X117.311 Y124.464 E5.56117
G1 X117.72 Y124.471 E5.57477
G1 X118.123 Y124.454 E5.58819
G1 X118.415 Y124.427 E5.59794
G1 X118.822 Y124.37 E5.61161
G1 X119.148 Y124.306 E5.62266
G1 X119.734 Y124.149 E5.64284
G1 X120.103 Y124.02 E5.65584
G1 X120.464 Y123.872 E5.66882
G1 X120.824 Y123.7 E5.68209
G1 X121.244 Y123.465 E5.69809
G1 X121.532 Y123.282 E5.70944
G1 X121.887 Y123.026 E5.724
G1 X122.318 Y122.666 E5.74268
G1 X122.678 Y122.313 E5.75945
G1 X122.924 Y122.043 E5.7716
G1 X123.139 Y121.78 E5.78289
G1 X123.441 Y121.367 E5.79991
G1 X123.69 Y120.958 E5.81584
G1 X123.939 Y120.483 E5.83368
G1 X124.1 Y120.115 E5.84704
G1 X124.239 Y119.743 E5.86024
G1 X124.399 Y119.245 E5.87764
G1 X124.651 Y118.588 E5.90105
G1 X124.977 Y117.964 E5.92446
G1 X125.492 Y117.202 E5.95505
G1 X125.105 Y116.759 E5.97462
G1 X124.705 Y116.18 E5.99802
G1 X124.374 Y115.559 E6.02143
G1 X124.01 Y114.679 E6.0531
G1 X123.866 Y114.371 E6.06441
G1 X123.701 Y114.062 E6.07606
G1 X123.494 Y113.722 E6.0893
G1 X123.268 Y113.392 E6.1026
G1 X123.06 Y113.122 E6.11394
G1 X122.821 Y112.841 E6.12621
G1 X122.486 Y112.487 E6.14242
G1 X122.095 Y112.142 E6.15976
G1 X121.878 Y111.968 E6.16901
G1 X121.601 Y111.767 E6.1804
G1 X121.39 Y111.625 E6.18886
G1 X120.945 Y111.364 E6.20601
G1 X120.561 Y111.172 E6.22029
G1 X120.124 Y110.987 E6.23608
G1 X119.863 Y110.893 E6.2453
G1 X119.502 Y110.782 E6.25787
G1 X119.076 Y110.676 E6.27247
G1 X118.588 Y110.588 E6.28896
G1 X117.864 Y110.525 E6.31313
G1 X117.293 Y110.537 E6.33213
G1 X116.907 Y110.567 E6.345
G1 X116.536 Y110.616 E6.35745
G1 X116.146 Y110.688 E6.37064
G1 X115.835 Y110.765 E6.3813
G1 X115.467 Y110.874 E6.39406
G1 X114.945 Y111.063 E6.41253
G1 X114.46 Y111.294 E6.43039
G1 X114.119 Y111.48 E6.44331
G1 X113.799 Y111.68 E6.45586
G1 X113.545 Y111.856 E6.46614
G1 X113.291 Y112.049 E6.47675
G1 X112.997 Y112.296 E6.48952
G1 X112.708 Y112.568 E6.50272
G1 X112.315 Y112.988 E6.52186
G0 F6000 X111.93 Y112.832
G1 F900 X111.677 Y113.158 E6.53558
G1 X111.447 Y113.494 E6.54912
G1 X111.203 Y113.898 E6.56482
G1 X110.999 Y114.29 E6.57952
G1 X110.848 Y114.625 E6.59174
G1 X110.641 Y115.173 E6.61122
G1 X110.516 Y115.588 E6.62564
G1 X110.413 Y116.021 E6.64044
G1 X110.336 Y116.468 E6.65553
G1 X110.269 Y117.142 E6.67806
G1 X110.265 Y117.642 E6.69469
G1 X110.295 Y118.177 E6.71251
G1 X110.365 Y118.721 E6.73075
G1 X110.462 Y119.202 E6.74707
G1 X110.586 Y119.659 E6.76282
G1 X110.671 Y119.915 E6.77179
