;FLAVOR:Marlin
;TIME:2202
;Filament used: 1.38131m
;Layer height: 0.2
;MINX:77.1
;MINY:61.901
;MINZ:0.2
;MAXX:157.9
;MAXY:173.1
;MAXZ:2.8
;Generated with Cura_SteamEngine 5.2.1
M140 S65
M105
M190 S65
M104 S240
M105
M109 S240
M82 ;absolute extrusion mode
; Ender 3 Custom Start G-code
G92 E0 ; Reset Extruder
G28 ; Home all axes
G1 Z2.0 F3000 ; Move Z Axis up little to prevent scratching of Heat Bed
G1 X0.1 Y20 Z0.3 F5000.0 ; Move to start position
G1 X0.1 Y200.0 Z0.3 F1500.0 E15 ; Draw the first line
G1 X0.4 Y200.0 Z0.3 F5000.0 ; Move to side a little
G1 X0.4 Y20 Z0.3 F1500.0 E30 ; Draw the second line
G92 E0 ; Reset Extruder
G1 Z2.0 F3000 ; Move Z Axis up little to prevent scratching of Heat Bed
G1 X5 Y20 Z0.3 F5000.0 ; Move over to prevent blob squish
G92 E0
G92 E0
G1 F2700 E-5
;LAYER_COUNT:14
;LAYER:0
M107
;MESH:frame_holder_8000f_120 v4.stl
G0 F6000 X86.871 Y165.569 Z0.2
;TYPE:WALL-INNER
G1 F2700 E0
G1 F900 X86.476 Y165.274 E0.0164
G1 X86.25 Y164.933 E0.03
G1 X86.142 Y164.643 E0.0403
G1 X86.101 Y164.359 E0.04984
G1 X86.1 Y71.4 E3.14167
G1 X86.162 Y71.085 E3.15235
G1 X86.304 Y70.751 E3.16442
G1 X86.548 Y70.472 E3.17675
G1 X86.664 Y70.376 E3.18175
G1 X86.922 Y70.224 E3.19171
G1 X87.299 Y70.1 E3.20491
G1 X147.611 Y70.1 E5.2109
G1 X147.937 Y70.169 E5.22198
G1 X148.294 Y70.331 E5.23502
G1 X148.557 Y70.58 E5.24707
G1 X148.739 Y70.844 E5.25773
G1 X148.838 Y71.087 E5.26646
G1 X148.901 Y71.393 E5.27685
G1 X148.9 Y164.359 E8.36891
G1 X148.858 Y164.644 E8.37849
G1 X148.749 Y164.934 E8.3888
G1 X148.524 Y165.273 E8.40233
G1 X148.212 Y165.507 E8.4153
G1 X147.866 Y165.652 E8.42778
G1 X147.62 Y165.7 E8.43612
G1 X87.33 Y165.7 E10.44137
G1 X86.871 Y165.569 E10.45725
G0 F6000 X87.238 Y165.266
G1 F900 X86.91 Y165.109 E10.46934
G1 X86.735 Y164.946 E10.47729
G1 X86.562 Y164.65 E10.4887
G1 X86.5 Y164.408 E10.49701
G1 X86.505 Y71.396 E13.5906
G1 X86.624 Y71.016 E13.60384
G1 X86.903 Y70.697 E13.61794
G1 X87.087 Y70.588 E13.62505
G1 X87.393 Y70.505 E13.6356
G1 X147.609 Y70.505 E15.63839
G1 X147.812 Y70.549 E15.6453
G1 X148.114 Y70.709 E15.65666
G1 X148.385 Y71.031 E15.67066
G1 X148.501 Y71.425 E15.68432
G1 X148.5 Y164.408 E18.77695
G1 X148.438 Y164.65 E18.78526
G1 X148.335 Y164.852 E18.7928
G1 X148.182 Y165.032 E18.80066
G1 X148.009 Y165.162 E18.80786
G1 X147.691 Y165.296 E18.81933
G1 X87.472 Y165.3 E20.82222
G1 X87.238 Y165.266 E20.83009
G0 F6000 X87.483 Y164.9
G1 F900 X87.207 Y164.825 E20.8396
G1 X87.041 Y164.688 E20.84676
G1 X86.905 Y164.386 E20.85778
G1 X86.903 Y71.438 E23.94924
G1 X86.974 Y71.209 E23.95721
G1 X87.142 Y71.018 E23.96567
G1 X87.436 Y70.903 E23.97617
G1 X147.566 Y70.903 E25.97611
G1 X147.869 Y71.025 E25.98697
G1 X148.013 Y71.186 E25.99415
G1 X148.097 Y71.437 E26.00296
G1 X148.095 Y164.386 E29.09445
G1 X147.959 Y164.688 E29.10547
G1 X147.793 Y164.825 E29.11263
G1 X147.565 Y164.898 E29.12059
G1 X87.483 Y164.9 E31.11893
G0 F6000 X87.333 Y164.411
;TYPE:WALL-OUTER
G1 F900 X87.301 Y164.329 E31.12185
G1 X87.301 Y71.479 E34.21006
G1 X87.38 Y71.339 E34.2154
G1 X87.478 Y71.301 E34.2189
G1 X147.548 Y71.301 E36.21684
G1 X147.701 Y71.442 E36.22376
G1 X147.699 Y164.329 E39.31319
G1 X147.637 Y164.447 E39.31762
G1 X147.522 Y164.5 E39.32184
G1 X87.465 Y164.498 E41.31934
G1 X87.333 Y164.411 E41.3246
G1 F2700 E36.3246
G0 F6000 X86.6 Y164.411
G0 X86.672 Y165.128
G0 X145.527 Y165.88
G0 X145.619 Y171.698
G0 X145.625 Y171.898
;TYPE:WALL-INNER
G1 F2700 E41.3246
G1 F900 X146.295 Y171.876 E41.34689
G1 X146.991 Y171.811 E41.37014
G1 X147.679 Y171.703 E41.39331
G1 X148.361 Y171.549 E41.41656
G1 X149.029 Y171.356 E41.43969
G1 X149.683 Y171.12 E41.46281
G1 X150.324 Y170.842 E41.48605
G1 X150.949 Y170.524 E41.50938
G1 X151.547 Y170.171 E41.53247
G1 X152.124 Y169.779 E41.55567
G1 X152.675 Y169.352 E41.57886
G1 X153.199 Y168.89 E41.60209
G1 X153.69 Y168.399 E41.62519
G1 X154.152 Y167.875 E41.64842
G1 X154.579 Y167.324 E41.67161
G1 X154.971 Y166.747 E41.69481
G1 X155.324 Y166.149 E41.71791
G1 X155.642 Y165.524 E41.74123
G1 X155.92 Y164.885 E41.76441
G1 X156.156 Y164.229 E41.78759
G1 X156.348 Y163.561 E41.81071
G1 X156.502 Y162.878 E41.834
G1 X156.611 Y162.192 E41.8571
G1 X156.676 Y161.495 E41.88038
G1 X156.7 Y160.777 E41.90428
G1 X156.7 Y74.283 E44.78108
G1 X156.677 Y73.503 E44.80704
G1 X156.611 Y72.81 E44.83019
G1 X156.503 Y72.122 E44.85335
G1 X156.349 Y71.442 E44.87654
G1 X156.158 Y70.783 E44.89936
G1 X155.919 Y70.113 E44.92302
G1 X155.642 Y69.473 E44.94622
G1 X155.327 Y68.854 E44.96932
G1 X154.972 Y68.256 E44.99245
G1 X154.58 Y67.678 E45.01568
G1 X154.15 Y67.126 E45.03895
G1 X153.69 Y66.603 E45.06211
G1 X153.197 Y66.11 E45.0853
G1 X152.674 Y65.65 E45.10847
G1 X152.121 Y65.22 E45.13177
G1 X151.546 Y64.828 E45.15491
G1 X150.946 Y64.474 E45.17809
G1 X150.326 Y64.158 E45.20123
G1 X149.673 Y63.875 E45.2249
G1 X149.033 Y63.647 E45.2475
G1 X148.358 Y63.451 E45.27088
G1 X147.678 Y63.298 E45.29406
G1 X146.99 Y63.189 E45.31723
G1 X146.297 Y63.124 E45.34038
G1 X145.577 Y63.101 E45.36434
G1 X89.368 Y63.102 E47.23386
G1 X88.705 Y63.123 E47.25592
G1 X88.009 Y63.189 E47.27917
G1 X87.321 Y63.297 E47.30233
G1 X86.639 Y63.451 E47.32559
G1 X85.971 Y63.644 E47.34872
G1 X85.317 Y63.88 E47.37184
G1 X84.675 Y64.158 E47.39511
G1 X84.051 Y64.475 E47.41839
G1 X83.453 Y64.829 E47.4415
G1 X82.876 Y65.221 E47.4647
G1 X82.326 Y65.648 E47.48786
G1 X81.801 Y66.109 E47.5111
G1 X81.31 Y66.601 E47.53422
G1 X80.848 Y67.125 E47.55745
G1 X80.421 Y67.676 E47.58064
G1 X80.029 Y68.252 E47.60381
G1 X79.676 Y68.851 E47.62694
G1 X79.358 Y69.476 E47.65026
G1 X79.081 Y70.114 E47.67339
G1 X78.847 Y70.766 E47.69643
G1 X78.651 Y71.44 E47.71978
G1 X78.497 Y72.122 E47.74303
G1 X78.389 Y72.808 E47.76613
G1 X78.324 Y73.505 E47.78941
G1 X78.3 Y74.223 E47.81331
G1 X78.302 Y160.84 E50.6942
G1 X78.324 Y161.495 E50.716
G1 X78.389 Y162.191 E50.73925
G1 X78.497 Y162.879 E50.76241
G1 X78.651 Y163.561 E50.78567
G1 X78.844 Y164.229 E50.80879
G1 X79.081 Y164.883 E50.83193
G1 X79.358 Y165.525 E50.85519
G1 X79.674 Y166.147 E50.87839
G1 X80.029 Y166.747 E50.90158
G1 X80.419 Y167.322 E50.92469
G1 X80.848 Y167.875 E50.94797
G1 X81.308 Y168.397 E50.97111
G1 X81.801 Y168.89 E50.9943
G1 X82.323 Y169.351 E51.01746
G1 X82.876 Y169.779 E51.04072
G1 X83.451 Y170.17 E51.06384
G1 X84.052 Y170.524 E51.08704
G1 X84.676 Y170.842 E51.11034
G1 X85.315 Y171.119 E51.1335
G1 X85.967 Y171.354 E51.15655
G1 X86.64 Y171.549 E51.17986
G1 X87.322 Y171.703 E51.20311
G1 X88.007 Y171.81 E51.22617
G1 X88.705 Y171.876 E51.24949
G1 X89.423 Y171.9 E51.27338
G1 X145.625 Y171.898 E53.14267
G1 F2700 E48.14267
G0 F6000 X88.68 Y172.276
G1 F2700 E53.14267
G1 F900 X89.416 Y172.3 E53.16716
G1 X145.583 Y172.3 E55.03529
G1 X146.32 Y172.276 E55.05981
G1 X147.041 Y172.208 E55.0839
G1 X147.754 Y172.096 E55.1079
G1 X148.461 Y171.936 E55.13201
G1 X149.152 Y171.737 E55.15593
G1 X149.831 Y171.492 E55.17994
G1 X150.495 Y171.204 E55.20401
G1 X151.141 Y170.875 E55.22812
G1 X151.762 Y170.509 E55.2521
G1 X152.359 Y170.103 E55.27611
G1 X152.93 Y169.66 E55.30015
G1 X153.473 Y169.182 E55.32421
G1 X153.982 Y168.673 E55.34815
G1 X154.461 Y168.13 E55.37223
G1 X154.903 Y167.559 E55.39625
G1 X155.309 Y166.962 E55.42026
G1 X155.675 Y166.341 E55.44424
G1 X156.004 Y165.694 E55.46838
G1 X156.292 Y165.032 E55.49239
G1 X156.537 Y164.353 E55.5164
G1 X156.736 Y163.661 E55.54035
G1 X156.896 Y162.953 E55.56449
G1 X157.008 Y162.242 E55.58843
G1 X157.076 Y161.521 E55.61252
G1 X157.1 Y160.784 E55.63704
G1 X157.1 Y74.283 E58.51408
G1 X157.076 Y73.478 E58.54086
G1 X157.008 Y72.76 E58.56485
G1 X156.896 Y72.047 E58.58886
G1 X156.737 Y71.342 E58.61289
G1 X156.539 Y70.659 E58.63655
G1 X156.291 Y69.966 E58.66103
G1 X156.004 Y69.303 E58.68506
G1 X155.678 Y68.662 E58.70897
G1 X155.31 Y68.041 E58.73298
G1 X154.903 Y67.443 E58.75704
G1 X154.458 Y66.87 E58.78117
G1 X153.982 Y66.329 E58.80514
G1 X153.471 Y65.818 E58.82918
G1 X152.93 Y65.341 E58.85317
G1 X152.357 Y64.896 E58.8773
G1 X151.761 Y64.49 E58.90128
G1 X151.139 Y64.123 E58.9253
G1 X150.496 Y63.796 E58.94929
G1 X149.82 Y63.502 E58.97381
G1 X149.156 Y63.266 E58.99725
G1 X148.458 Y63.064 E59.02142
G1 X147.754 Y62.905 E59.04542
G1 X147.04 Y62.792 E59.06947
G1 X146.322 Y62.724 E59.09345
G1 X145.584 Y62.701 E59.11801
G1 X89.355 Y62.702 E60.9882
G1 X88.68 Y62.724 E61.01066
G1 X87.959 Y62.792 E61.03475
G1 X87.246 Y62.904 E61.05875
G1 X86.539 Y63.064 E61.08286
G1 X85.848 Y63.263 E61.10678
G1 X85.17 Y63.508 E61.13076
G1 X84.505 Y63.796 E61.15486
G1 X83.859 Y64.125 E61.17897
G1 X83.238 Y64.491 E61.20295
G1 X82.641 Y64.897 E61.22696
G1 X82.07 Y65.34 E61.251
G1 X81.527 Y65.818 E61.27506
G1 X81.018 Y66.327 E61.299
G1 X80.539 Y66.87 E61.32308
G1 X80.097 Y67.441 E61.3471
G1 X79.691 Y68.038 E61.37111
G1 X79.325 Y68.659 E61.39509
G1 X78.996 Y69.306 E61.41923
G1 X78.709 Y69.967 E61.44319
G1 X78.466 Y70.642 E61.46706
G1 X78.263 Y71.34 E61.49123
G1 X78.104 Y72.046 E61.5153
G1 X77.992 Y72.758 E61.53928
G1 X77.924 Y73.479 E61.56336
G1 X77.9 Y74.216 E61.58789
G1 X77.902 Y160.853 E64.46945
G1 X77.924 Y161.52 E64.49164
G1 X77.992 Y162.241 E64.51573
G1 X78.104 Y162.954 E64.53974
G1 X78.264 Y163.661 E64.56385
G1 X78.463 Y164.352 E64.58776
G1 X78.709 Y165.03 E64.61175
G1 X78.996 Y165.695 E64.63584
G1 X79.323 Y166.339 E64.65986
G1 X79.691 Y166.962 E64.68393
G1 X80.095 Y167.557 E64.70785
G1 X80.539 Y168.13 E64.73196
G1 X81.016 Y168.671 E64.75595
G1 X81.527 Y169.182 E64.77998
G1 X82.068 Y169.659 E64.80397
G1 X82.641 Y170.103 E64.82808
G1 X83.236 Y170.508 E64.85202
G1 X83.859 Y170.875 E64.87607
G1 X84.506 Y171.204 E64.90021
G1 X85.167 Y171.491 E64.92418
G1 X85.843 Y171.735 E64.94809
G1 X86.54 Y171.936 E64.97221
G1 X87.246 Y172.096 E64.99629
G1 X87.957 Y172.207 E65.02022
G1 X88.68 Y172.276 E65.04438
G0 F6000 X89.41 Y172.7
G1 F900 X145.589 Y172.7 E66.9129
G1 X146.346 Y172.675 E66.93809
G1 X147.091 Y172.605 E66.96298
G1 X147.829 Y172.489 E66.98783
G1 X148.56 Y172.324 E67.01275
G1 X149.276 Y172.118 E67.03753
G1 X149.978 Y171.864 E67.06236
G1 X150.665 Y171.566 E67.08727
G1 X151.334 Y171.226 E67.11223
G1 X151.976 Y170.847 E67.13703
G1 X152.594 Y170.427 E67.16188
G1 X153.185 Y169.969 E67.18675
G1 X153.747 Y169.474 E67.21166
G1 X154.274 Y168.947 E67.23644
G1 X154.769 Y168.385 E67.26135
G1 X155.227 Y167.794 E67.28622
G1 X155.647 Y167.176 E67.31107
G1 X156.026 Y166.534 E67.33587
G1 X156.366 Y165.865 E67.36083
G1 X156.664 Y165.18 E67.38568
G1 X156.917 Y164.476 E67.41056
G1 X157.124 Y163.76 E67.43535
G1 X157.289 Y163.029 E67.46027
G1 X157.405 Y162.292 E67.48509
G1 X157.475 Y161.546 E67.51001
G1 X157.5 Y160.79 E67.53516
G1 X157.5 Y74.283 E70.4124
G1 X157.475 Y73.452 E70.44005
G1 X157.405 Y72.71 E70.46484
G1 X157.289 Y71.971 E70.48972
G1 X157.124 Y71.242 E70.51458
G1 X156.919 Y70.536 E70.53903
G1 X156.663 Y69.819 E70.56435
G1 X156.366 Y69.133 E70.58922
G1 X156.028 Y68.469 E70.614
G1 X155.648 Y67.826 E70.63884
G1 X155.227 Y67.208 E70.66371
G1 X154.767 Y66.615 E70.68867
G1 X154.274 Y66.055 E70.71349
G1 X153.745 Y65.526 E70.73837
G1 X153.185 Y65.033 E70.76318
G1 X152.592 Y64.573 E70.78815
G1 X151.975 Y64.152 E70.81299
G1 X151.332 Y63.772 E70.83783
G1 X150.667 Y63.434 E70.86264
G1 X149.967 Y63.13 E70.88803
G1 X149.279 Y62.885 E70.91232
G1 X148.558 Y62.676 E70.93728
G1 X147.829 Y62.511 E70.96214
G1 X147.09 Y62.395 E70.98702
G1 X146.348 Y62.325 E71.01181
G1 X145.59 Y62.301 E71.03704
G1 X89.343 Y62.302 E72.90782
G1 X88.654 Y62.325 E72.93075
G1 X87.909 Y62.395 E72.95564
G1 X87.171 Y62.511 E72.98048
G1 X86.44 Y62.676 E73.00541
G1 X85.724 Y62.883 E73.0302
G1 X85.022 Y63.136 E73.05502
G1 X84.335 Y63.434 E73.07992
G1 X83.666 Y63.774 E73.10488
G1 X83.024 Y64.153 E73.12968
G1 X82.405 Y64.573 E73.15456
G1 X81.815 Y65.031 E73.1794
G1 X81.253 Y65.526 E73.20431
G1 X80.726 Y66.053 E73.2291
G1 X80.231 Y66.615 E73.25401
G1 X79.773 Y67.206 E73.27888
G1 X79.353 Y67.824 E73.30373
G1 X78.974 Y68.466 E73.32852
G1 X78.634 Y69.135 E73.35348
G1 X78.337 Y69.82 E73.37832
G1 X78.085 Y70.519 E73.40303
G1 X77.876 Y71.24 E73.428
G1 X77.711 Y71.971 E73.45292
G1 X77.595 Y72.708 E73.47774
G1 X77.525 Y73.454 E73.50266
G1 X77.5 Y74.21 E73.52782
G1 X77.5 Y160.791 E76.40751
G1 X77.525 Y161.546 E76.43264
G1 X77.595 Y162.291 E76.45753
G1 X77.711 Y163.029 E76.48237
G1 X77.876 Y163.76 E76.5073
G1 X78.083 Y164.476 E76.53209
G1 X78.337 Y165.178 E76.55692
G1 X78.634 Y165.865 E76.58181
G1 X78.972 Y166.532 E76.60668
G1 X79.353 Y167.176 E76.63157
G1 X79.771 Y167.793 E76.65636
G1 X80.231 Y168.385 E76.68129
G1 X80.724 Y168.945 E76.70611
G1 X81.253 Y169.474 E76.73099
G1 X81.813 Y169.967 E76.7558
G1 X82.406 Y170.427 E76.78077
G1 X83.022 Y170.846 E76.80554
G1 X83.666 Y171.226 E76.83041
G1 X84.335 Y171.566 E76.85537
G1 X85.02 Y171.863 E76.88021
G1 X85.72 Y172.116 E76.90496
G1 X86.44 Y172.324 E76.92989
G1 X87.171 Y172.489 E76.95481
G1 X87.907 Y172.605 E76.9796
G1 X88.654 Y172.675 E77.00455
G1 X89.41 Y172.7 E77.02971
G0 F6000 X88.629 Y173.075
;TYPE:WALL-OUTER
G1 F900 X89.404 Y173.1 E77.0555
G1 X145.663 Y173.098 E78.92668
G1 X146.371 Y173.075 E78.95024
G1 X147.141 Y173.002 E78.97597
G1 X147.904 Y172.882 E79.00166
G1 X148.66 Y172.712 E79.02743
G1 X149.4 Y172.498 E79.05305
G1 X150.126 Y172.236 E79.07872
G1 X150.835 Y171.928 E79.10443
G1 X151.526 Y171.577 E79.13021
G1 X152.19 Y171.185 E79.15586
G1 X152.83 Y170.751 E79.18157
G1 X153.44 Y170.277 E79.20727
G1 X154.021 Y169.766 E79.233
G1 X154.566 Y169.221 E79.25864
G1 X155.077 Y168.64 E79.28437
G1 X155.551 Y168.03 E79.31007
G1 X155.985 Y167.39 E79.33579
G1 X156.377 Y166.726 E79.36143
G1 X156.728 Y166.035 E79.38721
G1 X157.036 Y165.328 E79.41286
G1 X157.298 Y164.6 E79.43859
G1 X157.512 Y163.86 E79.46421
G1 X157.682 Y163.104 E79.48999
G1 X157.802 Y162.342 E79.51564
G1 X157.875 Y161.571 E79.5414
G1 X157.9 Y160.796 E79.56719
G1 X157.9 Y74.283 E82.44463
G1 X157.875 Y73.427 E82.47311
G1 X157.802 Y72.66 E82.49873
G1 X157.682 Y71.896 E82.52446
G1 X157.512 Y71.142 E82.55016
G1 X157.3 Y70.413 E82.57542
G1 X157.035 Y69.672 E82.60159
G1 X156.728 Y68.963 E82.62729
G1 X156.379 Y68.276 E82.65292
G1 X155.986 Y67.612 E82.67858
G1 X155.551 Y66.972 E82.70432
G1 X155.075 Y66.36 E82.7301
G1 X154.566 Y65.781 E82.75575
G1 X154.019 Y65.234 E82.78147
G1 X153.44 Y64.725 E82.80712
G1 X152.828 Y64.249 E82.8329
G1 X152.19 Y63.814 E82.85859
G1 X151.524 Y63.421 E82.88431
G1 X150.837 Y63.072 E82.90994
G1 X150.114 Y62.758 E82.93615
G1 X149.402 Y62.504 E82.9613
G1 X148.658 Y62.288 E82.98706
G1 X147.904 Y62.118 E83.01277
G1 X147.14 Y61.998 E83.03849
G1 X146.373 Y61.925 E83.06412
G1 X145.596 Y61.901 E83.08997
G1 X89.33 Y61.902 E84.96139
G1 X88.629 Y61.925 E84.98472
G1 X87.859 Y61.998 E85.01044
G1 X87.096 Y62.118 E85.03613
G1 X86.34 Y62.288 E85.0619
G1 X85.6 Y62.502 E85.08752
G1 X84.874 Y62.764 E85.1132
G1 X84.165 Y63.072 E85.13891
G1 X83.474 Y63.423 E85.16468
G1 X82.81 Y63.815 E85.19033
G1 X82.17 Y64.249 E85.21605
G1 X81.56 Y64.723 E85.24174
G1 X80.979 Y65.234 E85.26748
G1 X80.434 Y65.779 E85.29311
G1 X79.923 Y66.36 E85.31885
G1 X79.449 Y66.97 E85.34454
G1 X79.015 Y67.61 E85.37026
G1 X78.623 Y68.274 E85.39591
G1 X78.272 Y68.965 E85.42169
G1 X77.965 Y69.672 E85.44732
G1 X77.705 Y70.395 E85.47288
G1 X77.488 Y71.14 E85.49868
G1 X77.318 Y71.896 E85.52446
G1 X77.198 Y72.658 E85.55011
G1 X77.125 Y73.429 E85.57587
G1 X77.1 Y74.204 E85.60166
G1 X77.102 Y160.878 E88.48445
G1 X77.125 Y161.571 E88.50751
G1 X77.198 Y162.341 E88.53324
G1 X77.318 Y163.104 E88.55893
G1 X77.488 Y163.86 E88.5847
G1 X77.702 Y164.6 E88.61032
G1 X77.965 Y165.326 E88.636
G1 X78.272 Y166.035 E88.6617
G1 X78.621 Y166.724 E88.68739
G1 X79.015 Y167.39 E88.71313
G1 X79.447 Y168.028 E88.73875
G1 X79.923 Y168.64 E88.76454
