;FLAVOR:Marlin
;TIME:16540
;Filament used: 11.7652m
;Layer height: 0.2
;MINX:67.7
;MINY:41.45
;MINZ:0.2
;MAXX:167.3
;MAXY:193.749
;MAXZ:3.4
;Generated with Cura_SteamEngine 5.2.1
M140 S65
M105
M190 S65
M104 S240
M105
M109 S240
M82 ;absolute extrusion mode
; Ender 3 Custom Start G-code
G92 E0 ; Reset Extruder
G28 ; Home all axes
G1 Z2.0 F3000 ; Move Z Axis up little to prevent scratching of Heat Bed
G1 X0.1 Y20 Z0.3 F5000.0 ; Move to start position
G1 X0.1 Y200.0 Z0.3 F1500.0 E15 ; Draw the first line
G1 X0.4 Y200.0 Z0.3 F5000.0 ; Move to side a little
G1 X0.4 Y20 Z0.3 F1500.0 E30 ; Draw the second line
G92 E0 ; Reset Extruder
G1 Z2.0 F3000 ; Move Z Axis up little to prevent scratching of Heat Bed
G1 X5 Y20 Z0.3 F5000.0 ; Move over to prevent blob squish
G92 E0
G92 E0
G1 F2700 E-5
;LAYER_COUNT:17
;LAYER:0
M107
G0 F6000 X108.937 Y192.65 Z0.2
;TYPE:SKIRT
G1 F2700 E0
G1 F900 X126.063 Y192.65 E0.56961
G1 X125.818 Y192.884 E0.58088
G1 X125.436 Y193.08 E0.59516
G1 X124.985 Y193.15 E0.61034
G1 X110.015 Y193.15 E1.10825
G1 X109.564 Y193.08 E1.12343
G1 X109.182 Y192.884 E1.13771
G1 X108.937 Y192.65 E1.14897
G0 F6000 X108.535 Y192.796
G1 F900 X108.398 Y192.571 E1.15774
G1 X108.265 Y192.25 E1.16929
G1 X126.735 Y192.25 E1.78361
G1 X126.602 Y192.571 E1.79516
G1 X126.465 Y192.796 E1.80393
G1 X126.263 Y193.031 E1.81423
G1 X126.054 Y193.208 E1.82334
G1 X125.822 Y193.352 E1.83242
G1 X125.559 Y193.461 E1.84189
G1 X125.275 Y193.527 E1.85159
G1 X125.006 Y193.55 E1.86057
G1 X109.994 Y193.55 E2.35987
G1 X109.725 Y193.527 E2.36885
G1 X109.441 Y193.461 E2.37855
G1 X109.178 Y193.352 E2.38802
G1 X108.946 Y193.208 E2.3971
G1 X108.737 Y193.031 E2.40621
G1 X108.535 Y192.796 E2.41651
G1 F2700 E-2.58349
;MESH:frame_8000f_120 v6.stl
G0 F6000 X108.535 Y167.83
G0 X84.789 Y167.647
;TYPE:WALL-INNER
G1 F2700 E2.41651
G1 F900 X84.518 Y167.603 E2.42565
G1 X84.115 Y167.489 E2.43958
G1 X83.516 Y167.145 E2.46255
G1 X83.247 Y166.889 E2.4749
G1 X83.061 Y166.666 E2.48456
G1 X82.737 Y166.088 E2.5066
G1 X82.62 Y165.495 E2.5267
G1 X82.605 Y165.382 E2.53049
G1 X82.605 Y157.048 E2.80768
G1 X82.745 Y156.5 E2.8265
G1 X83.015 Y156.014 E2.84499
G1 X83.179 Y155.78 E2.85449
G1 X83.445 Y155.52 E2.86686
G1 X83.657 Y155.37 E2.8755
G1 X84.106 Y155.114 E2.89269
G1 X84.683 Y154.953 E2.91261
G1 X150.307 Y154.953 E5.09528
G1 X150.886 Y155.111 E5.11524
G1 X151.336 Y155.365 E5.13243
G1 X151.547 Y155.513 E5.141
G1 X151.9 Y155.866 E5.1576
G1 X152.204 Y156.409 E5.1783
G1 X152.286 Y156.629 E5.18611
G1 X152.395 Y157.181 E5.20482
G1 X152.395 Y165.553 E5.48328
G1 X152.233 Y166.155 E5.50401
G1 X151.888 Y166.743 E5.52669
G1 X151.567 Y167.07 E5.54193
G1 X151.343 Y167.23 E5.55108
G1 X150.887 Y167.488 E5.56851
G1 X150.404 Y167.622 E5.58518
G1 X150.121 Y167.65 E5.59464
G1 X84.789 Y167.647 E7.76759
G0 F6000 X84.272 Y167.123
G1 F900 X83.754 Y166.821 E7.78753
G1 X83.449 Y166.528 E7.8016
G1 X83.117 Y165.949 E7.8238
G1 X83.014 Y165.426 E7.84153
G1 X83 Y165.253 E7.8473
G1 X83.003 Y157.08 E8.11914
G1 X83.133 Y156.62 E8.13504
G1 X83.443 Y156.082 E8.15569
G1 X83.749 Y155.78 E8.16999
G1 X84.26 Y155.486 E8.18959
G1 X84.74 Y155.352 E8.20617
G1 X150.252 Y155.352 E10.38511
G1 X150.736 Y155.482 E10.40178
G1 X151.242 Y155.772 E10.42117
G1 X151.562 Y156.091 E10.4362
G1 X151.842 Y156.578 E10.45489
G1 X151.92 Y156.82 E10.46334
G1 X152 Y157.249 E10.47786
G1 X151.997 Y165.518 E10.75289
G1 X151.862 Y165.996 E10.76941
G1 X151.568 Y166.501 E10.78884
G1 X151.257 Y166.815 E10.80354
G1 X150.738 Y167.115 E10.82348
G1 X150.258 Y167.248 E10.84005
G1 X84.75 Y167.248 E13.01885
G1 X84.272 Y167.123 E13.03528
G0 F6000 X84.428 Y166.748
G1 F900 X83.996 Y166.501 E13.05183
G1 X83.749 Y166.256 E13.06341
G1 X83.495 Y165.807 E13.08056
G1 X83.408 Y165.357 E13.09581
G1 X83.402 Y165.309 E13.09742
G1 X83.402 Y157.138 E13.36919
G1 X83.506 Y156.767 E13.382
G1 X83.746 Y156.348 E13.39806
G1 X83.991 Y156.102 E13.40961
G1 X84.413 Y155.858 E13.42582
G1 X84.794 Y155.751 E13.43898
G1 X150.208 Y155.751 E15.61466
G1 X150.577 Y155.857 E15.62743
G1 X150.994 Y156.095 E15.6434
G1 X151.252 Y156.345 E15.65535
G1 X151.506 Y156.794 E15.67251
G1 X151.598 Y157.291 E15.68932
G1 X151.598 Y165.463 E15.96112
G1 X151.485 Y165.845 E15.97437
G1 X151.249 Y166.257 E15.99016
G1 X151.012 Y166.496 E16.00136
G1 X150.58 Y166.745 E16.01794
G1 X150.211 Y166.849 E16.03069
G1 X84.801 Y166.849 E18.20624
G1 X84.428 Y166.748 E18.21909
G0 F6000 X84.842 Y166.447
;TYPE:WALL-OUTER
G1 F900 X84.581 Y166.375 E18.2281
G1 X84.232 Y166.174 E18.24149
G1 X84.081 Y166.024 E18.24857
G1 X83.882 Y165.682 E18.26173
G1 X83.802 Y165.288 E18.2751
G1 X83.8 Y157.214 E18.54365
G1 X83.879 Y156.922 E18.55371
G1 X84.077 Y156.581 E18.56682
G1 X84.225 Y156.432 E18.57381
G1 X84.564 Y156.233 E18.58688
G1 X84.85 Y156.151 E18.59678
G1 X150.146 Y156.151 E20.76853
G1 X150.42 Y156.225 E20.77797
G1 X150.77 Y156.428 E20.79143
G1 X150.919 Y156.576 E20.79841
G1 X151.118 Y156.918 E20.81157
G1 X151.2 Y157.328 E20.82548
G1 X151.2 Y165.386 E21.09349
G1 X151.122 Y165.676 E21.10348
G1 X150.934 Y166.005 E21.11608
G1 X150.766 Y166.176 E21.12405
G1 X150.434 Y166.368 E21.13681
G1 X150.149 Y166.449 E21.14666
G1 X84.842 Y166.447 E23.31878
G1 F2700 E18.31878
G0 F6000 X84.662 Y167.122
G0 X83.848 Y166.691
G0 X83.564 Y166.41
G0 X83.263 Y165.889
G0 X83.161 Y165.33
G0 X83.161 Y157.122
G0 X83.278 Y156.685
G0 X83.559 Y156.198
G0 X83.84 Y155.914
G0 X84.234 Y155.687
G0 X87.37 Y154.77
G0 X87.5 Y144.631
G0 X87.37 Y144.45
;TYPE:WALL-INNER
G1 F2700 E23.31878
G1 F900 X86.968 Y144.346 E23.33259
G1 X86.713 Y144.209 E23.34222
G1 X86.394 Y143.934 E23.35623
G1 X86.214 Y143.605 E23.3687
G1 X86.104 Y143.166 E23.38376
G1 X86.106 Y50.116 E26.47861
G1 X86.168 Y49.818 E26.48874
G1 X86.322 Y49.491 E26.50076
G1 X86.6 Y49.176 E26.51473
G1 X87.007 Y48.939 E26.5304
G1 X87.331 Y48.85 E26.54157
G1 X147.5 Y48.85 E28.5428
G1 X147.753 Y48.872 E28.55125
G1 X147.993 Y48.939 E28.55954
G1 X148.4 Y49.176 E28.5752
G1 X148.678 Y49.492 E28.5892
G1 X148.833 Y49.818 E28.6012
G1 X148.9 Y50.157 E28.6127
G1 X148.896 Y143.166 E31.70619
G1 X148.826 Y143.5 E31.71754
G1 X148.739 Y143.704 E31.72492
G1 X148.526 Y144.004 E31.73715
G1 X148.35 Y144.164 E31.74506
G1 X148.031 Y144.346 E31.75728
G1 X147.628 Y144.45 E31.77112
G1 X87.37 Y144.45 E33.77531
G0 F6000 X87.41 Y144.05
G1 F900 X87.241 Y144.017 E33.78104
G1 X86.938 Y143.878 E33.79213
G1 X86.724 Y143.682 E33.80178
G1 X86.552 Y143.372 E33.81357
G1 X86.503 Y143.133 E33.82168
G1 X86.504 Y50.154 E36.91418
G1 X86.548 Y49.941 E36.92141
G1 X86.659 Y49.708 E36.93
G1 X86.857 Y49.483 E36.93997
G1 X87.148 Y49.313 E36.95117
G1 X87.378 Y49.25 E36.95911
G1 X147.622 Y49.25 E38.96283
G1 X147.853 Y49.313 E38.97079
G1 X148.143 Y49.483 E38.98197
G1 X148.341 Y49.708 E38.99194
G1 X148.452 Y49.941 E39.00053
G1 X148.496 Y50.154 E39.00776
G1 X148.497 Y143.133 E42.10025
G1 X148.448 Y143.372 E42.10837
G1 X148.329 Y143.611 E42.11725
G1 X148.186 Y143.779 E42.12459
G1 X148.003 Y143.915 E42.13217
G1 X147.679 Y144.05 E42.14384
G1 X87.41 Y144.05 E44.1484
G0 F6000 X87.014 Y143.404
G1 F900 X86.902 Y143.134 E44.15812
G1 X86.902 Y50.192 E47.24939
G1 X86.956 Y49.995 E47.25618
G1 X87.047 Y49.855 E47.26173
G1 X87.195 Y49.733 E47.26811
G1 X87.425 Y49.65 E47.27625
G1 X147.577 Y49.65 E49.27691
G1 X147.805 Y49.733 E49.28498
G1 X147.953 Y49.855 E49.29136
G1 X148.044 Y49.995 E49.29691
G1 X148.098 Y50.192 E49.30371
G1 X148.092 Y143.154 E52.39563
G1 X147.985 Y143.405 E52.40471
G1 X147.835 Y143.549 E52.41163
G1 X147.576 Y143.65 E52.42087
G1 X87.42 Y143.65 E54.42167
G1 X87.162 Y143.547 E54.43091
G1 X87.014 Y143.404 E54.43775
G0 F6000 X87.344 Y143.177
;TYPE:WALL-OUTER
G1 F900 X87.3 Y143.067 E54.44169
G1 X87.3 Y50.23 E57.52946
G1 X87.371 Y50.096 E57.53451
G1 X87.465 Y50.052 E57.53796
G1 X147.537 Y50.053 E59.53596
G1 X147.629 Y50.096 E59.53934
G1 X147.7 Y50.23 E59.54438
G1 X147.698 Y143.085 E62.63275
G1 X147.662 Y143.169 E62.63579
G1 X147.535 Y143.248 E62.64077
G1 X87.465 Y143.248 E64.63871
G1 X87.344 Y143.177 E64.64337
G1 F2700 E59.64337
G0 F6000 X86.6 Y143.177
G0 X86.672 Y143.878
G0 X147.5 Y144.631
G0 X153.749 Y189.65
G0 X165.679 Y189.816
;TYPE:WALL-INNER
G1 F2700 E64.64337
G1 F900 X165.922 Y189.67 E64.6528
G1 X166.026 Y189.526 E64.65871
G1 X166.1 Y189.302 E64.66655
G1 X166.1 Y43.334 E69.52147
G1 X166.027 Y42.972 E69.53375
G1 X165.921 Y42.828 E69.5397
G1 X165.775 Y42.722 E69.5457
G1 X165.551 Y42.65 E69.55353
G1 X69.439 Y42.653 E72.75022
G1 X69.222 Y42.723 E72.75781
G1 X69.018 Y42.9 E72.76679
G1 X68.9 Y43.195 E72.77736
G1 X68.903 Y189.31 E77.63716
G1 X68.973 Y189.526 E77.64471
G1 X69.078 Y189.67 E77.65064
G1 X69.223 Y189.776 E77.65662
G1 X69.449 Y189.85 E77.66453
G1 X165.476 Y189.847 E80.8584
G1 X165.679 Y189.816 E80.86523
G1 F2700 E75.86523
G0 F6000 X69.042 Y190.135
G1 F2700 E80.86523
G1 F900 X69.395 Y190.25 E80.87758
G1 X165.605 Y190.25 E84.07753
G1 X165.958 Y190.135 E84.08988
G1 X166.206 Y189.954 E84.10009
G1 X166.386 Y189.706 E84.11028
G1 X166.5 Y189.355 E84.12256
G1 X166.5 Y43.334 E88.97924
G1 X166.484 Y43.094 E88.98724
G1 X166.361 Y42.718 E89.0004
G1 X166.087 Y42.444 E89.01328
G1 X165.955 Y42.364 E89.01842
G1 X165.603 Y42.25 E89.03072
G1 X69.397 Y42.25 E92.23055
G1 X68.968 Y42.389 E92.24555
G1 X68.639 Y42.718 E92.26102
G1 X68.5 Y43.144 E92.27593
G1 X68.5 Y189.355 E97.13892
G1 X68.614 Y189.706 E97.1512
G1 X68.794 Y189.954 E97.16139
G1 X69.042 Y190.135 E97.1716
G0 F6000 X69.079 Y190.581
G1 F900 X69.517 Y190.65 E97.18635
G1 X165.654 Y190.65 E100.38388
G1 X166.139 Y190.493 E100.40083
G1 X166.49 Y190.238 E100.41526
G1 X166.745 Y189.886 E100.42972
G1 X166.9 Y189.404 E100.44656
G1 X166.9 Y43.334 E105.30487
G1 X166.88 Y43.031 E105.31497
G1 X166.744 Y42.611 E105.32965
G1 X166.488 Y42.26 E105.3441
G1 X166.135 Y42.005 E105.35859
G1 X165.921 Y41.919 E105.36626
G1 X165.483 Y41.85 E105.381
G1 X69.347 Y41.85 E108.5785
G1 X68.861 Y42.006 E108.59548
G1 X68.51 Y42.262 E108.60993
G1 X68.255 Y42.614 E108.62438
G1 X68.1 Y43.094 E108.64116
G1 X68.1 Y189.404 E113.50745
G1 X68.255 Y189.886 E113.52429
G1 X68.51 Y190.238 E113.53875
G1 X68.861 Y190.493 E113.55318
G1 X69.079 Y190.581 E113.561
G0 F6000 X69.501 Y191.05
;TYPE:WALL-OUTER
G1 F900 X165.49 Y191.05 E116.7536
G1 X165.778 Y191.026 E116.76322
G1 X166.043 Y190.963 E116.77228
G1 X166.319 Y190.852 E116.78217
G1 X166.558 Y190.705 E116.7915
G1 X166.774 Y190.522 E116.80092
G1 X166.957 Y190.307 E116.81031
G1 X167.104 Y190.066 E116.8197
G1 X167.213 Y189.793 E116.82947
G1 X167.276 Y189.528 E116.83853
G1 X167.3 Y189.249 E116.84785
G1 X167.3 Y43.334 E121.701
G1 X167.276 Y42.968 E121.7132
G1 X167.214 Y42.708 E121.72209
G1 X167.102 Y42.431 E121.73203
G1 X166.955 Y42.191 E121.74139
G1 X166.772 Y41.976 E121.75078
G1 X166.559 Y41.795 E121.76008
G1 X166.315 Y41.646 E121.76959
G1 X166.043 Y41.537 E121.77933
G1 X165.778 Y41.474 E121.78839
G1 X165.499 Y41.45 E121.7977
G1 X69.51 Y41.45 E124.99031
G1 X69.222 Y41.474 E124.99992
G1 X68.957 Y41.537 E125.00898
G1 X68.681 Y41.648 E125.01888
G1 X68.441 Y41.795 E125.02824
G1 X68.226 Y41.978 E125.03763
G1 X68.043 Y42.193 E125.04702
G1 X67.896 Y42.434 E125.05641
G1 X67.787 Y42.707 E125.06619
G1 X67.723 Y42.972 E125.07525
G1 X67.7 Y43.251 E125.08456
G1 X67.7 Y189.24 E129.94018
G1 X67.724 Y189.528 E129.94979
G1 X67.787 Y189.793 E129.95885
G1 X67.896 Y190.066 E129.96863
G1 X68.043 Y190.307 E129.97802
G1 X68.226 Y190.522 E129.98741
G1 X68.442 Y190.705 E129.99682
G1 X68.681 Y190.852 E130.00615
G1 X68.957 Y190.963 E130.01605
G1 X69.222 Y191.026 E130.02511
G1 X69.501 Y191.05 E130.03442
G0 F6000 X69.525 Y190.351
G0 X69.189 Y189.633
G0 X69.362 Y189.432
;TYPE:SKIN
G1 F900 X69.508 Y189.49 E130.03965
G1 X165.499 Y189.489 E133.23232
G1 X165.598 Y189.457 E133.23578
G1 X165.708 Y189.345 E133.241
G1 X165.738 Y189.254 E133.24419
G1 X165.739 Y43.292 E138.09891
G1 X165.665 Y43.095 E138.10591
G1 X165.484 Y43.011 E138.11254
G1 X69.502 Y43.01 E141.30492
G1 X69.315 Y43.115 E141.31205
G1 X69.262 Y43.248 E141.31681
G1 X69.261 Y189.249 E146.17282
G1 X69.362 Y189.432 E146.17978
G1 F2700 E141.17978
G0 F6000 X69.189 Y189.633
G0 X69.061 Y189.186
G0 X69.099 Y176.103
G0 X83.961 Y167.61
G0 X84.782 Y167.747
G1 F2700 E146.17978
G0 F6000 X84.763 Y168.007
G1 F900 X84.433 Y167.953 E146.1909
G1 X83.953 Y167.813 E146.20753
G1 X83.357 Y167.467 E146.23045
G1 X83.116 Y167.266 E146.24089
G1 X82.822 Y166.963 E146.25493
G1 X82.474 Y166.356 E146.2782
G1 X82.361 Y166.05 E146.28905
G1 X82.24 Y165.436 E146.30986
G1 X82.24 Y157.216 E146.58326
G1 X82.267 Y156.923 E146.59305
G1 X82.36 Y156.551 E146.6058
G1 X82.475 Y156.227 E146.61724
G1 X82.843 Y155.607 E146.64122
G1 X83.279 Y155.178 E146.66156
G1 X83.849 Y154.845 E146.68352
G1 X84.116 Y154.731 E146.69317
G1 X84.629 Y154.596 E146.71082
G1 X150.341 Y154.594 E148.89641
G1 X150.817 Y154.715 E148.91274
G1 X151.023 Y154.792 E148.92006
G1 X151.136 Y154.838 E148.92412
G1 X151.643 Y155.128 E148.94354
G1 X151.883 Y155.332 E148.95402
G1 X152.179 Y155.637 E148.96816
G1 X152.537 Y156.269 E148.99231
G1 X152.638 Y156.546 E149.00212
G1 X152.76 Y157.164 E149.02307
G1 X152.76 Y165.384 E149.29647
G1 X152.732 Y165.712 E149.30742
G1 X152.578 Y166.253 E149.32613
G1 X152.244 Y166.856 E149.34905
G1 X152.071 Y167.081 E149.35849
G1 X151.8 Y167.346 E149.3711
G1 X151.537 Y167.533 E149.38183
G1 X151.021 Y167.824 E149.40154
G1 X150.364 Y168.006 E149.42421
G1 X84.763 Y168.007 E151.60611
G1 F2700 E146.60611
G0 F6000 X84.782 Y167.747
G0 X83.564 Y166.41
G0 X83.263 Y165.889
G0 X83.161 Y165.33
G0 X83.161 Y157.122
G0 X83.278 Y156.685
G0 X83.559 Y156.198
G0 X83.84 Y155.914
G0 X84.234 Y155.687
G0 X87.027 Y154.77
G0 X87.226 Y144.608
G1 F2700 E151.60611
G0 F6000 X86.94 Y144.732
G1 F900 X86.556 Y144.544 E151.62033
G1 X86.188 Y144.248 E151.63604
G1 X85.861 Y143.74 E151.65613
G1 X85.745 Y143.272 E151.67217
G1 X85.742 Y50.003 E154.77431
G1 X85.901 Y49.505 E154.7917
G1 X86.233 Y49.003 E154.81171
G1 X86.594 Y48.739 E154.82659
G1 X86.863 Y48.608 E154.83654
G1 X87.197 Y48.515 E154.84807
G1 X87.488 Y48.49 E154.85779
G1 X147.515 Y48.49 E156.85429
G1 X147.801 Y48.516 E156.86384
G1 X148.139 Y48.609 E156.8755
G1 X148.406 Y48.739 E156.88538
G1 X148.767 Y49.003 E156.90026
G1 X149.097 Y49.501 E156.92013
G1 X149.258 Y50.002 E156.93763
G1 X149.253 Y143.278 E160.04
G1 X149.172 Y143.607 E160.05127
G1 X148.926 Y144.089 E160.06927
G1 X148.626 Y144.405 E160.08376
G1 X148.393 Y144.568 E160.09322
G1 X147.981 Y144.744 E160.10812
G1 X147.669 Y144.807 E160.11871
G1 X87.323 Y144.807 E162.12582
G1 X86.94 Y144.732 E162.1388
G1 F2700 E157.1388
G0 F6000 X87.027 Y144.471
G0 X80.393 Y189.65
G0 X69.928 Y189.75
G1 F2700 E162.1388
G0 F6000 X69.928 Y189.288
G1 F900 X69.461 Y188.82 E162.16079
G0 F6000 X69.461 Y188.255
G1 F900 X70.494 Y189.288 E162.20938
G0 F6000 X71.059 Y189.288
G1 F900 X69.461 Y187.689 E162.28457
G0 F6000 X69.461 Y187.123
G1 F900 X71.625 Y189.288 E162.38638
G0 F6000 X72.191 Y189.288
G1 F900 X69.461 Y186.558 E162.51479
G0 F6000 X69.461 Y185.992
G1 F900 X72.757 Y189.288 E162.66983
G0 F6000 X73.322 Y189.288
G1 F900 X69.461 Y185.426 E162.85146
G0 F6000 X69.461 Y184.861
G1 F900 X73.888 Y189.288 E163.05969
G0 F6000 X74.454 Y189.288
G1 F900 X69.461 Y184.295 E163.29455
G0 F6000 X69.461 Y183.729
G1 F900 X75.019 Y189.288 E163.556
G0 F6000 X75.585 Y189.288
G1 F900 X69.461 Y183.163 E163.84408
G0 F6000 X69.461 Y182.598
G1 F900 X76.151 Y189.288 E164.15876
G0 F6000 X76.716 Y189.288
G1 F900 X69.461 Y182.032 E164.50003
G0 F6000 X69.461 Y181.466
G1 F900 X77.282 Y189.288 E164.86793
G0 F6000 X77.848 Y189.288
G1 F900 X69.461 Y180.901 E165.26243
G0 F6000 X69.461 Y180.335
G1 F900 X78.413 Y189.288 E165.68353
G0 F6000 X78.979 Y189.288
