;FLAVOR:Marlin
;TIME:7793
;Filament used: 5.08097m
;Layer height: 0.2
;MINX:92.7
;MINY:70.356
;MINZ:0.2
;MAXX:142.3
;MAXY:164.644
;MAXZ:8
;Generated with Cura_SteamEngine 5.2.1
M140 S65
M105
M190 S65
M104 S240
M105
M109 S240
M82 ;absolute extrusion mode
; Ender 3 Custom Start G-code
G92 E0 ; Reset Extruder
G28 ; Home all axes
G1 Z2.0 F3000 ; Move Z Axis up little to prevent scratching of Heat Bed
G1 X0.1 Y20 Z0.3 F5000.0 ; Move to start position
G1 X0.1 Y200.0 Z0.3 F1500.0 E15 ; Draw the first line
G1 X0.4 Y200.0 Z0.3 F5000.0 ; Move to side a little
G1 X0.4 Y20 Z0.3 F1500.0 E30 ; Draw the second line
G92 E0 ; Reset Extruder
G1 Z2.0 F3000 ; Move Z Axis up little to prevent scratching of Heat Bed
G1 X5 Y20 Z0.3 F5000.0 ; Move over to prevent blob squish
G92 E0
G92 E0
G1 F2700 E-5
;LAYER_COUNT:40
;LAYER:0
M107
;MESH:Support_Reflex_arrire.stl
G0 F6000 X117.358 Y87.228 Z0.2
;TYPE:WALL-INNER
G1 F2700 E0
G1 F900 X116.765 Y87.168 E0.01982
G1 X116.484 Y87.11 E0.02937
G1 X115.912 Y86.929 E0.04932
G1 X115.671 Y86.827 E0.05803
G1 X115.192 Y86.569 E0.07612
G1 X114.969 Y86.42 E0.08504
G1 X114.523 Y86.056 E0.10419
G1 X114.323 Y85.856 E0.1136
G1 X113.867 Y85.296 E0.13762
G1 X113.467 Y84.534 E0.16624
G1 X113.268 Y83.882 E0.18891
G1 X113.216 Y83.62 E0.1978
G1 X113.155 Y83.028 E0.21759
G1 X113.154 Y82.745 E0.227
G1 X113.233 Y81.987 E0.25235
G1 X113.509 Y81.142 E0.28192
G1 X113.879 Y80.45 E0.30802
G1 X114.33 Y79.9 E0.33167
G1 X114.53 Y79.701 E0.34106
G1 X115.068 Y79.263 E0.36413
G1 X115.838 Y78.852 E0.39316
G1 X116.546 Y78.637 E0.41777
G1 X116.763 Y78.598 E0.42511
G1 X117.496 Y78.523 E0.44961
G1 X118.378 Y78.611 E0.47909
G1 X119.204 Y78.872 E0.50791
G1 X119.943 Y79.272 E0.53585
G1 X120.493 Y79.721 E0.55947
G1 X120.676 Y79.907 E0.56815
G1 X121.129 Y80.464 E0.59203
G1 X121.532 Y81.218 E0.62046
G1 X121.773 Y82.031 E0.64867
G1 X121.857 Y82.911 E0.67807
G1 X121.774 Y83.742 E0.70584
G1 X121.514 Y84.575 E0.73487
G1 X121.105 Y85.332 E0.76349
G1 X120.673 Y85.86 E0.78618
G1 X120.474 Y86.059 E0.79554
G1 X120.021 Y86.428 E0.81497
G1 X119.794 Y86.579 E0.82404
G1 X119.288 Y86.848 E0.8431
G1 X119.036 Y86.952 E0.85216
G1 X118.388 Y87.147 E0.87467
G1 X117.644 Y87.227 E0.89956
G1 X117.358 Y87.228 E0.90907
G0 F6000 X117.498 Y86.84
G1 F900 X116.706 Y86.76 E0.93555
G1 X115.94 Y86.518 E0.96227
G1 X115.299 Y86.173 E0.98648
G1 X114.694 Y85.679 E1.01246
G1 X114.207 Y85.073 E1.03831
G1 X113.837 Y84.382 E1.06438
G1 X113.624 Y83.677 E1.08888
G1 X113.542 Y82.883 E1.11543
G1 X113.62 Y82.104 E1.14147
G1 X113.862 Y81.328 E1.1685
G1 X114.212 Y80.677 E1.19309
G1 X114.704 Y80.076 E1.21892
G1 X115.294 Y79.596 E1.24422
G1 X115.995 Y79.221 E1.27066
G1 X116.649 Y79.024 E1.29338
G1 X116.803 Y78.996 E1.29858
G1 X117.5 Y78.93 E1.32187
G1 X118.296 Y79.005 E1.34846
G1 X119.053 Y79.244 E1.37486
G1 X119.717 Y79.603 E1.39997
G1 X120.304 Y80.082 E1.42517
G1 X120.795 Y80.688 E1.45111
G1 X121.166 Y81.391 E1.47755
G1 X121.367 Y82.065 E1.50094
G1 X121.453 Y82.874 E1.528
G1 X121.381 Y83.664 E1.55439
G1 X121.141 Y84.427 E1.58099
G1 X120.787 Y85.081 E1.60572
G1 X120.305 Y85.681 E1.63132
G1 X119.69 Y86.182 E1.6577
G1 X119.009 Y86.542 E1.68332
G1 X118.304 Y86.755 E1.70782
G1 X117.498 Y86.84 E1.73478
G0 F6000 X116.784 Y86.366
G1 F900 X116.102 Y86.15 E1.75857
G1 X115.521 Y85.838 E1.7805
G1 X114.98 Y85.396 E1.80374
G1 X114.54 Y84.851 E1.82704
G1 X114.223 Y84.258 E1.8494
G1 X114.018 Y83.6 E1.87232
G1 X113.944 Y82.879 E1.89643
G1 X114.021 Y82.157 E1.92058
G1 X114.235 Y81.485 E1.94404
G1 X114.548 Y80.897 E1.96619
G1 X114.987 Y80.361 E1.98924
G1 X115.54 Y79.916 E2.01284
G1 X116.166 Y79.588 E2.03635
G1 X116.751 Y79.411 E2.05668
G1 X116.844 Y79.394 E2.05982
G1 X117.499 Y79.327 E2.08172
G1 X118.219 Y79.4 E2.10579
G1 X118.918 Y79.625 E2.13022
G1 X119.469 Y79.922 E2.15103
G1 X120.015 Y80.362 E2.17436
G1 X120.462 Y80.912 E2.19793
G1 X120.782 Y81.517 E2.22069
G1 X120.977 Y82.153 E2.24282
G1 X121.053 Y82.876 E2.267
G1 X120.986 Y83.587 E2.29075
G1 X120.759 Y84.294 E2.31545
G1 X120.454 Y84.86 E2.33683
G1 X120.014 Y85.403 E2.36008
G1 X119.471 Y85.844 E2.38334
G1 X118.857 Y86.17 E2.40647
G1 X118.198 Y86.365 E2.42932
G1 X117.496 Y86.438 E2.4528
G1 X116.784 Y86.366 E2.4766
G0 F6000 X117.479 Y86.034
;TYPE:WALL-OUTER
G1 F900 X116.886 Y85.974 E2.49642
G1 X116.24 Y85.77 E2.51896
G1 X115.76 Y85.512 E2.53708
G1 X115.253 Y85.098 E2.55885
G1 X114.884 Y84.645 E2.57829
G1 X114.588 Y84.094 E2.59909
G1 X114.417 Y83.534 E2.61856
G1 X114.348 Y82.864 E2.64097
G1 X114.411 Y82.246 E2.66163
G1 X114.604 Y81.639 E2.68281
G1 X114.874 Y81.135 E2.70183
G1 X115.287 Y80.632 E2.72348
G1 X115.737 Y80.266 E2.74277
G1 X116.286 Y79.971 E2.7635
G1 X116.885 Y79.792 E2.78429
G1 X117.521 Y79.731 E2.80554
G1 X118.154 Y79.799 E2.82672
G1 X118.733 Y79.982 E2.84691
G1 X119.254 Y80.26 E2.86655
G1 X119.745 Y80.664 E2.8877
G1 X120.115 Y81.119 E2.90721
G1 X120.414 Y81.673 E2.92815
G1 X120.587 Y82.242 E2.94793
G1 X120.653 Y82.878 E2.96919
G1 X120.593 Y83.493 E2.98974
G1 X120.394 Y84.13 E3.01194
G1 X120.13 Y84.623 E3.03054
G1 X119.716 Y85.129 E3.05229
G1 X119.263 Y85.498 E3.07172
G1 X118.688 Y85.803 E3.09337
G1 X118.129 Y85.971 E3.11278
G1 X117.479 Y86.034 E3.1345
G1 F2700 E-1.8655
G0 F6000 X117.409 Y86.728
G0 X117.5 Y87.414
G0 X117.5 Y91.142
G0 X126.094 Y91.901
G0 X117.5 Y112.131
;TYPE:WALL-INNER
G1 F2700 E3.1345
G1 F900 X118.481 Y109.947 E3.21413
G1 F784.3 X118.713 Y109.29 E3.24073
G1 X118.196 Y109.688 E3.26563
G1 F900 X117.5 Y109.869 E3.28955
G1 X116.806 Y109.686 E3.31342
G1 F775.9 X116.288 Y109.291 E3.33855
G1 X116.518 Y109.949 E3.36544
G1 F900 X117.5 Y112.131 E3.44503
G1 F2700 E-1.55497
G0 F6000 X104.726 Y85.13
G0 X101.638 Y86.52
G0 X115.633 Y117.654
G0 X101.006 Y150.193
G0 X104.094 Y151.583
G0 X116.223 Y126.033
G1 F2700 E3.44503
G1 F884.5 X116.806 Y125.409 E3.47393
G1 F900 X117.5 Y125.225 E3.49781
G1 X118.192 Y125.408 E3.52162
G1 F884.5 X118.777 Y126.033 E3.55059
G1 X118.414 Y125.207 E3.58112
G1 F900 X117.5 Y123.176 E3.6552
G1 X116.585 Y125.208 E3.72932
G1 F884.5 X116.223 Y126.033 E3.75981
G1 F2700 E-1.24019
G0 F6000 X104.094 Y151.583
G0 X101.006 Y150.193
G0 X103.358 Y144.989
G0 X100.627 Y147.146
G1 F2700 E3.75981
G1 F900 X100.036 Y147.126 E3.77948
G1 X99.533 Y146.867 E3.79829
G1 X99.147 Y146.407 E3.81827
G1 X98.987 Y145.94 E3.83468
G1 X98.987 Y89.339 E5.71724
G1 X99.094 Y88.798 E5.73558
G1 X99.374 Y88.371 E5.75257
G1 X99.73 Y88.102 E5.76741
G1 X100.083 Y87.972 E5.77992
G1 X100.413 Y87.935 E5.79096
G1 X100.939 Y88.04 E5.8088
G1 X101.374 Y88.321 E5.82603
G1 F957.4 X101.661 Y88.769 E5.84266
G1 F1011.2 X102.002 Y89.551 E5.86792
G1 F994.5 X102.343 Y90.334 E5.89362
G1 F975.6 X102.685 Y91.117 E5.91984
G1 F960 X103.026 Y91.9 E5.94647
G1 F942.4 X103.368 Y92.682 E5.97358
G1 F927.8 X103.709 Y93.465 E6.00113
G1 F911.4 X104.051 Y94.248 E6.0292
G1 F897.8 X104.392 Y95.031 E6.05767
G1 F882.4 X104.734 Y95.814 E6.08666
G1 F869.6 X105.075 Y96.596 E6.11603
G1 F857.1 X105.416 Y97.379 E6.14585
G1 F843.1 X105.758 Y98.162 E6.17619
G1 F831.4 X106.099 Y98.945 E6.20694
G1 F818.2 X106.441 Y99.728 E6.2382
G1 F807.2 X106.782 Y100.51 E6.26984
G1 F794.7 X107.124 Y101.293 E6.30202
G1 F784.3 X107.465 Y102.076 E6.33461
G1 F772.5 X107.807 Y102.859 E6.36772
G1 F762.7 X108.148 Y103.642 E6.40124
G1 F751.6 X108.49 Y104.424 E6.43523
G1 F742.3 X108.831 Y105.207 E6.46968
G1 F731.7 X109.172 Y105.99 E6.50461
G1 F722.9 X109.514 Y106.773 E6.54
G1 F712.9 X109.855 Y107.556 E6.57586
G1 F704.5 X110.197 Y108.338 E6.61212
G1 F695 X110.538 Y109.121 E6.64891
G1 F687 X110.88 Y109.904 E6.68614
G1 F679.2 X111.221 Y110.687 E6.72377
G1 F670.4 X111.563 Y111.47 E6.76192
G1 F663 X111.904 Y112.252 E6.80044
G1 F654.5 X112.245 Y113.035 E6.8395
G1 F647.5 X112.587 Y113.818 E6.879
G1 F639.4 X112.928 Y114.601 E6.91898
G1 F632.7 X113.27 Y115.383 E6.95936
G1 F625 X113.611 Y116.166 E7.00027
G1 F618.6 X113.953 Y116.949 E7.04162
G1 F730.2 X113.984 Y117.627 E7.06944
G1 F900 X113.931 Y117.964 E7.08079
G1 X112.23 Y121.909 E7.22367
G1 F724.3 X112.161 Y122.314 E7.24065
G1 F610.2 X111.349 Y124.175 E7.34026
G1 F617.5 X110.537 Y126.037 E7.43874
G1 F626.1 X109.725 Y127.898 E7.53581
G1 F633.8 X108.913 Y129.76 E7.63175
G1 F641.7 X108.101 Y131.622 E7.72651
G1 F649.8 X107.289 Y133.483 E7.82004
G1 F658.1 X106.477 Y135.345 E7.91244
G1 F667.9 X105.665 Y137.207 E8.00348
G1 F676.7 X104.853 Y139.068 E8.09329
G1 F685.7 X104.041 Y140.93 E8.18197
G1 F695 X103.229 Y142.791 E8.26943
G1 F705.9 X102.417 Y144.653 E8.35557
G1 F715.7 X101.605 Y146.515 E8.44053
G1 F800 X101.23 Y146.895 E8.46051
G1 F900 X100.627 Y147.146 E8.48223
G0 F6000 X100.564 Y146.75
G1 F900 X100.136 Y146.735 E8.49647
G1 X99.777 Y146.55 E8.50991
G1 X99.501 Y146.221 E8.52419
G1 X99.387 Y145.888 E8.5359
G1 X99.387 Y89.339 E10.41672
G1 X99.464 Y88.953 E10.42981
G1 X99.664 Y88.647 E10.44197
G1 X99.918 Y88.455 E10.45256
G1 X100.17 Y88.362 E10.4615
G1 X100.411 Y88.335 E10.46956
G1 X100.787 Y88.41 E10.48232
G1 X101.097 Y88.611 E10.4946
G1 X101.318 Y88.924 E10.50735
G1 X113.504 Y117.151 E11.52993
G1 X113.584 Y117.605 E11.54527
G1 X113.548 Y117.844 E11.55331
G1 X101.267 Y146.292 E12.58389
G1 X100.994 Y146.571 E12.59688
G1 X100.564 Y146.75 E12.61237
G0 F6000 X100.759 Y146.247
G1 F900 X100.5 Y146.354 E12.62169
G1 X100.21 Y146.33 E12.63137
G1 X100.021 Y146.232 E12.63845
G1 X99.855 Y146.035 E12.64702
G1 X99.787 Y145.837 E12.65398
G1 X99.787 Y89.339 E14.53311
G1 X99.833 Y89.107 E14.54098
G1 X99.953 Y88.924 E14.54826
G1 X100.105 Y88.808 E14.55462
G1 X100.409 Y88.735 E14.56501
G1 X100.634 Y88.78 E14.57265
G1 X100.821 Y88.9 E14.58004
G1 X100.953 Y89.088 E14.58768
G1 X113.136 Y117.31 E15.61007
G1 X113.185 Y117.582 E15.61926
G1 X113.162 Y117.728 E15.62418
G1 X100.922 Y146.08 E16.65129
G1 X100.759 Y146.247 E16.65906
G0 F6000 X100.437 Y145.958
;TYPE:WALL-OUTER
G1 F900 X100.265 Y145.915 E16.66495
G1 X100.189 Y145.791 E16.66979
G1 X100.187 Y89.339 E18.54739
G1 X100.202 Y89.261 E18.55003
G1 X100.293 Y89.162 E18.55451
G1 X100.407 Y89.135 E18.5584
G1 X100.564 Y89.198 E18.56403
G1 X112.769 Y117.468 E19.58818
G1 X112.779 Y117.598 E19.59252
G1 X100.572 Y145.873 E20.61684
G1 X100.437 Y145.958 E20.62215
G1 F2700 E15.62215
G0 F6000 X100.284 Y146.696
G0 X101.326 Y147.024
G0 X101.76 Y146.632
G0 X101.006 Y150.193
G0 X104.094 Y151.583
G0 X105.173 Y151.024
G0 X113.374 Y154.085
G0 X114.512 Y154.81
G0 X117.496 Y156.573
;TYPE:WALL-INNER
G1 F2700 E20.62215
G1 F900 X116.766 Y156.499 E20.64655
G1 X116.509 Y156.448 E20.65527
G1 X115.805 Y156.226 E20.67982
G1 X115.077 Y155.84 E20.70723
G1 X114.408 Y155.291 E20.73601
G1 X113.867 Y154.628 E20.76447
G1 X113.483 Y153.903 E20.79176
G1 X113.23 Y153.091 E20.82005
G1 X113.155 Y152.359 E20.84452
G1 X113.154 Y152.076 E20.85393
G1 X113.226 Y151.353 E20.8781
G1 X113.487 Y150.517 E20.90723
G1 X113.864 Y149.81 E20.93388
G1 X114.33 Y149.231 E20.9586
G1 X114.53 Y149.032 E20.96798
G1 X114.98 Y148.666 E20.98728
G1 X115.206 Y148.516 E20.9963
G1 X115.712 Y148.247 E21.01536
G1 X115.964 Y148.143 E21.02442
G1 X116.61 Y147.948 E21.04687
G1 X117.356 Y147.868 E21.07182
G1 X117.642 Y147.867 E21.08133
G1 X118.235 Y147.927 E21.10116
G1 X118.516 Y147.985 E21.1107
G1 X119.088 Y148.167 E21.13067
G1 X119.327 Y148.268 E21.1393
G1 X119.808 Y148.526 E21.15745
G1 X120.033 Y148.675 E21.16643
G1 X120.475 Y149.037 E21.18543
G1 X120.676 Y149.238 E21.19488
G1 X121.147 Y149.826 E21.21994
G1 X121.532 Y150.555 E21.24736
G1 X121.732 Y151.212 E21.2702
G1 X121.784 Y151.474 E21.27909
G1 X121.845 Y152.067 E21.29891
G1 X121.846 Y152.35 E21.30833
G1 X121.772 Y153.09 E21.33306
G1 X121.5 Y153.937 E21.36265
G1 X121.179 Y154.536 E21.38525
G1 X121.037 Y154.746 E21.39369
G1 X120.587 Y155.296 E21.41732
G1 X119.913 Y155.847 E21.44628
G1 X119.164 Y156.243 E21.47446
G1 X118.492 Y156.447 E21.49781
G1 X118.237 Y156.497 E21.50646
G1 X117.496 Y156.573 E21.53123
G0 F6000 X117.497 Y156.171
G1 F900 X116.707 Y156.091 E21.55764
G1 X115.952 Y155.852 E21.58398
G1 X115.305 Y155.502 E21.60845
G1 X114.697 Y155.012 E21.63442
G1 X114.202 Y154.406 E21.66044
G1 X113.851 Y153.744 E21.68537
G1 X113.629 Y153.009 E21.7109
G1 X113.553 Y152.318 E21.73402
G1 X113.552 Y152.115 E21.74078
G1 X113.621 Y151.427 E21.76377
G1 X113.859 Y150.668 E21.79023
G1 X114.22 Y150.003 E21.8154
G1 X114.703 Y149.407 E21.84091
G1 X115.31 Y148.914 E21.86692
G1 X115.985 Y148.555 E21.89235
G1 X116.696 Y148.34 E21.91705
G1 X117.502 Y148.255 E21.94401
G1 X118.294 Y148.335 E21.97049
G1 X119.057 Y148.576 E21.9971
G1 X119.704 Y148.924 E22.02153
G1 X120.301 Y149.412 E22.04718
G1 X120.807 Y150.04 E22.074
G1 X121.162 Y150.709 E22.09919
G1 X121.376 Y151.417 E22.12379
G1 X121.458 Y152.216 E22.15051
G1 X121.373 Y153.008 E22.177
G1 X121.131 Y153.78 E22.20391
G1 X120.788 Y154.42 E22.22806
G1 X120.302 Y155.014 E22.25359
G1 X119.688 Y155.508 E22.2798
G1 X119.008 Y155.873 E22.30547
G1 X118.296 Y156.089 E22.33022
G1 X117.497 Y156.171 E22.35693
G0 F6000 X117.496 Y155.769
G1 F900 X116.782 Y155.696 E22.3808
G1 X116.083 Y155.469 E22.40525
G1 X115.525 Y155.168 E22.42633
G1 X114.983 Y154.73 E22.44951
G1 X114.534 Y154.179 E22.47315
G1 X114.213 Y153.565 E22.4962
G1 X114.018 Y152.93 E22.51829
G1 X113.951 Y152.277 E22.54012
G1 X113.95 Y152.155 E22.54418
G1 X114.015 Y151.507 E22.56584
G1 X114.241 Y150.801 E22.5905
G1 X114.551 Y150.228 E22.61216
G1 X114.985 Y149.694 E22.63505
G1 X115.529 Y149.251 E22.65839
G1 X116.143 Y148.925 E22.68151
G1 X116.802 Y148.73 E22.70436
G1 X117.504 Y148.657 E22.72784
G1 X118.216 Y148.729 E22.75164
G1 X118.896 Y148.944 E22.77536
G1 X119.482 Y149.259 E22.79749
G1 X120.018 Y149.697 E22.82051
G1 X120.456 Y150.239 E22.84369
G1 X120.777 Y150.836 E22.86623
G1 X120.982 Y151.494 E22.88916
G1 X121.056 Y152.214 E22.91323
G1 X120.985 Y152.927 E22.93706
G1 X120.769 Y153.608 E22.96082
G1 X120.457 Y154.192 E22.98285
G1 X120.017 Y154.729 E23.00594
G1 X119.467 Y155.174 E23.02947
G1 X118.855 Y155.502 E23.05256
G1 X118.216 Y155.695 E23.07476
G1 X117.496 Y155.769 E23.09884
G0 F6000 X117.479 Y155.365
;TYPE:WALL-OUTER
G1 F900 X116.886 Y155.305 E23.11866
G1 X116.24 Y155.101 E23.14119
G1 X115.745 Y154.834 E23.1599
G1 X115.253 Y154.429 E23.18109
G1 X114.884 Y153.976 E23.20053
G1 X114.585 Y153.417 E23.22161
G1 X114.417 Y152.865 E23.2408
G1 X114.348 Y152.195 E23.26321
G1 X114.407 Y151.602 E23.28303
G1 X114.606 Y150.965 E23.30522
G1 X114.881 Y150.454 E23.32452
G1 X115.287 Y149.963 E23.34571
G1 X115.737 Y149.597 E23.36501
G1 X116.312 Y149.292 E23.38665
G1 X116.871 Y149.124 E23.40607
G1 X117.521 Y149.061 E23.42779
G1 X118.114 Y149.121 E23.44761
G1 X118.76 Y149.325 E23.47014
G1 X119.241 Y149.583 E23.4883
G1 X119.745 Y149.995 E23.50995
G1 X120.115 Y150.45 E23.52946
G1 X120.412 Y151 E23.55025
G1 X120.583 Y151.56 E23.56972
G1 X120.652 Y152.231 E23.59216
G1 X120.593 Y152.824 E23.61198
G1 X120.398 Y153.451 E23.63382
G1 X120.129 Y153.956 E23.65285
G1 X119.716 Y154.46 E23.67452
G1 X119.263 Y154.829 E23.69395
G1 X118.716 Y155.123 E23.71461
G1 X118.151 Y155.296 E23.73426
G1 X117.479 Y155.365 E23.75673
G1 F2700 E18.75673
G0 F6000 X117.409 Y156.059
G0 X117.339 Y156.739
G0 X116.847 Y162.941
G0 X116.703 Y163.141
;TYPE:WALL-INNER
G1 F2700 E23.75673
G1 F900 X118.293 Y163.142 E23.80961
G1 X119.882 Y163.003 E23.86266
G1 X121.452 Y162.727 E23.91568
G1 X122.989 Y162.317 E23.96859
G1 X124.486 Y161.772 E24.02158
G1 X125.933 Y161.099 E24.07466
G1 X127.311 Y160.305 E24.12755
G1 X128.644 Y159.374 E24.18163
G1 X131.294 Y157.346 E24.29262
G1 X131.713 Y157.045 E24.30978
G1 X138.436 Y151.888 E24.59159
G1 X138.307 Y151.888 E24.59589
G1 X137.662 Y151.732 E24.61796
G1 X137.257 Y151.416 E24.63504
G1 X137.045 Y151.095 E24.64784
G1 X136.948 Y150.826 E24.65735
G1 X136.907 Y150.488 E24.66867
