;FLAVOR:Marlin
;TIME:7817
;Filament used: 4.78714m
;Layer height: 0.2
;MINX:110.585
;MINY:91.835
;MINZ:0.2
;MAXX:124.29
;MAXY:143.165
;MAXZ:42
;Generated with Cura_SteamEngine 5.2.1
M140 S65
M105
M190 S65
M104 S240
M105
M109 S240
M82 ;absolute extrusion mode
; Ender 3 Custom Start G-code
G92 E0 ; Reset Extruder
G28 ; Home all axes
G1 Z2.0 F3000 ; Move Z Axis up little to prevent scratching of Heat Bed
G1 X0.1 Y20 Z0.3 F5000.0 ; Move to start position
G1 X0.1 Y200.0 Z0.3 F1500.0 E15 ; Draw the first line
G1 X0.4 Y200.0 Z0.3 F5000.0 ; Move to side a little
G1 X0.4 Y20 Z0.3 F1500.0 E30 ; Draw the second line
G92 E0 ; Reset Extruder
G1 Z2.0 F3000 ; Move Z Axis up little to prevent scratching of Heat Bed
G1 X5 Y20 Z0.3 F5000.0 ; Move over to prevent blob squish
G92 E0
G92 E0
G1 F2700 E-5
;LAYER_COUNT:210
;LAYER:0
M107
G0 F6000 X114.65 Y112.74 Z0.2
;TYPE:SKIRT
G1 F2700 E0
G1 F900 X114.85 Y112.741 E0.00665
G1 X114.85 Y122.259 E0.32322
G1 X114.65 Y122.26 E0.32987
G1 X114.65 Y112.74 E0.64651
G0 F6000 X114.25 Y112.334
G1 F900 X115.25 Y112.343 E0.67977
G1 X115.25 Y122.657 E1.02282
G1 X114.25 Y122.661 E1.05608
G1 X114.25 Y112.334 E1.39956
G0 F6000 X114.322 Y111.939
G1 F900 X115.65 Y111.944 E1.44372
G1 X115.65 Y123.056 E1.81331
G1 X114.322 Y123.061 E1.85748
G1 X113.85 Y123.108 E1.87326
G1 X113.85 Y111.876 E2.24684
G1 X114.322 Y111.939 E2.26267
G0 F6000 X114.324 Y111.539
G1 F900 X116.05 Y111.546 E2.32008
G1 X116.05 Y123.454 E2.71614
G1 X114.324 Y123.461 E2.77355
G1 X113.907 Y123.503 E2.78749
G1 X113.45 Y123.638 E2.80334
G1 X113.45 Y111.352 E3.21197
G1 X113.863 Y111.488 E3.22643
G1 X114.324 Y111.539 E3.24186
G0 F6000 X114.325 Y111.139
G1 F900 X116.45 Y111.147 E3.31254
G1 X116.45 Y123.853 E3.73514
G1 X114.325 Y123.861 E3.80582
G1 X113.948 Y123.902 E3.81843
G1 X113.589 Y124.022 E3.83102
G1 X113.262 Y124.214 E3.84364
G1 X113.05 Y124.397 E3.85295
G1 X113.05 Y110.603 E4.31174
G1 X113.351 Y110.848 E4.32465
G1 X113.689 Y111.02 E4.33726
G1 X114.055 Y111.118 E4.34987
G1 X114.325 Y111.139 E4.35887
G0 F6000 X114.327 Y110.739
G1 F900 X116.85 Y110.749 E4.44279
G1 X116.85 Y124.251 E4.89187
G1 X114.327 Y124.261 E4.97578
G1 X113.995 Y124.302 E4.98691
G1 X113.683 Y124.421 E4.99802
G1 X113.34 Y124.673 E5.01217
G1 X113.058 Y124.956 E5.02546
G1 X112.852 Y125.219 E5.03657
G1 X112.715 Y125.523 E5.04766
G1 X112.65 Y125.944 E5.06183
G1 X112.65 Y109.056 E5.62353
G1 X112.69 Y109.388 E5.63465
G1 X112.807 Y109.7 E5.64573
G1 X113.058 Y110.044 E5.6599
G1 X113.34 Y110.327 E5.67318
G1 X113.603 Y110.534 E5.68432
G1 X113.907 Y110.673 E5.69543
G1 X114.327 Y110.739 E5.70957
G0 F6000 X114.175 Y110.338
G1 F900 X117.25 Y110.35 E5.81185
G1 X117.25 Y124.65 E6.28747
G1 X114.328 Y124.661 E6.38466
G1 X114.049 Y124.702 E6.39404
G1 X113.733 Y124.846 E6.40559
G1 X113.342 Y125.238 E6.424
G1 X113.173 Y125.464 E6.43339
G1 X113.05 Y125.792 E6.44504
G1 X113.05 Y127.208 E6.49213
G1 X112.25 Y127.207 E6.51874
G1 X112.25 Y107.789 E7.16459
G1 X113.05 Y107.79 E7.1912
G1 X113.05 Y109.056 E7.2333
G1 X113.09 Y109.335 E7.24268
G1 X113.234 Y109.653 E7.25429
G1 X113.624 Y110.045 E7.27268
G1 X113.849 Y110.215 E7.28206
G1 X114.175 Y110.338 E7.29365
G0 F6000 X114.33 Y109.939
G1 F900 X117.65 Y109.952 E7.40407
G1 X117.65 Y125.048 E7.90617
G1 X114.33 Y125.061 E8.01659
G1 X114.115 Y125.101 E8.02387
G1 X113.907 Y125.237 E8.03213
G1 X113.625 Y125.52 E8.04542
G1 X113.502 Y125.7 E8.05267
G1 X113.45 Y125.944 E8.06097
G1 X113.45 Y127.608 E8.11631
G1 X111.85 Y127.607 E8.16953
G1 X111.85 Y107.389 E8.84198
G1 X113.45 Y107.39 E8.8952
G1 X113.45 Y109.056 E8.95061
G1 X113.49 Y109.271 E8.95788
G1 X113.625 Y109.48 E8.96616
G1 X113.907 Y109.763 E8.97945
G1 X114.087 Y109.886 E8.9867
G1 X114.33 Y109.939 E8.99497
G0 F6000 X114.331 Y109.539
G1 F900 X118.05 Y109.553 E9.11867
G1 X118.05 Y125.447 E9.6473
G1 X114.331 Y125.461 E9.771
G1 X114.19 Y125.52 E9.77608
G1 X113.908 Y125.803 E9.78937
G1 X113.85 Y125.944 E9.79444
G1 X113.85 Y128.008 E9.86309
G1 X111.45 Y128.007 E9.94291
G1 X111.45 Y106.989 E10.64198
G1 X113.85 Y106.99 E10.7218
G1 X113.85 Y109.056 E10.79052
G1 X113.908 Y109.197 E10.79559
G1 X114.19 Y109.48 E10.80887
G1 X114.331 Y109.539 E10.81396
G1 F2700 E5.81396
G0 F6000 X118.397 Y91.847
G0 X121.903 Y91.847
G0 X122.65 Y93.1
G1 F2700 E10.81396
G1 F900 X123.025 Y93.1 E10.82643
G1 X123.026 Y141.9 E12.44952
G1 X122.65 Y141.9 E12.46203
G1 X122.65 Y93.1 E14.08513
G0 F6000 X122.25 Y92.7
G1 F900 X123.425 Y92.7 E14.12421
G1 X123.426 Y142.3 E15.77391
G1 X122.25 Y142.3 E15.81302
G1 X122.25 Y92.7 E17.46273
G1 F2700 E12.46273
;MESH:Support_Reflex_cot_appareil.stl
G0 F6000 X120.836 Y92.914
G0 X119.92 Y141.63
G1 F2700 E17.46273
G0 F6000 X119.65 Y141.9
;TYPE:WALL-INNER
G1 F900 X120.65 Y141.9 E17.49599
G1 X120.65 Y93.6 E19.10245
G1 X120.65 Y93.1 E19.11908
G1 X119.65 Y93.1 E19.15234
G1 X119.65 Y141.9 E20.77543
G0 F6000 X119.25 Y142.3
;TYPE:WALL-OUTER
G1 F900 X121.05 Y142.3 E20.8353
G1 X121.05 Y93.6 E22.45507
G1 X121.05 Y92.7 E22.48501
G1 X119.25 Y92.7 E22.54487
G1 X119.25 Y142.3 E24.19458
G0 F6000 X119.52 Y142.03
G0 X120.15 Y141.4
;TYPE:WALL-INNER
G1 F600 X120.15 Y93.6 E26.57933
G0 F6000 X120.25 Y93.6
G1 F2700 E21.57933
;MESH:NONMESH
G0 F300 X120.25 Y93.6 Z0.4
G0 F6000 X120.836 Y92.914
G0 X122.25 Y92.7
;TIME_ELAPSED:61.327360
;LAYER:1
M106 S42.5
;TYPE:SUPPORT
G1 F2700 E26.57933
G1 F1200 X122.25 Y142.3 E28.22903
G1 X123.426 Y142.3 E28.26814
G1 X123.426 Y93.288 E29.89829
G1 X123.425 Y92.7 E29.91785
G1 X122.25 Y92.7 E29.95693
G1 F2700 E24.95693
G0 F7500 X122.25 Y91.835
G0 X124.278 Y91.847
G0 X124.29 Y141.899
G0 X123.026 Y141.9
G0 X122.65 Y141.9
G1 F2700 E29.95693
G1 F1200 X122.65 Y93.1 E31.58002
G1 X123.026 Y93.1 E31.59253
G1 X123.026 Y141.9 E33.21562
G1 X122.65 Y141.9 E33.22813
G1 F2700 E28.22813
G0 F7500 X122.65 Y143.165
G0 X118.397 Y143.153
G0 X113.85 Y128.873
G0 X113.85 Y128.007
G1 F2700 E33.22813
G1 F1200 X113.85 Y125.944 E33.29674
G1 X113.908 Y125.802 E33.30185
G1 X114.248 Y125.461 E33.31786
G1 X118.05 Y125.446 E33.44432
G1 X118.05 Y112.841 E33.86356
G1 X118.05 Y109.554 E33.97289
G1 X114.248 Y109.539 E34.09934
G1 X113.908 Y109.198 E34.11536
G1 X113.852 Y109.091 E34.11938
G1 X113.85 Y106.99 E34.18926
G1 X111.45 Y106.99 E34.26908
G1 X111.45 Y128.007 E34.96811
G1 X113.85 Y128.007 E35.04793
G1 F2700 E30.04793
G0 F7500 X114.715 Y128.007
G0 X116.005 Y126.32
G0 X116 Y125.055
G1 F2700 E35.04793
G1 F1200 X116 Y109.946 E35.55046
G1 X117.65 Y109.952 E35.60534
G1 X117.65 Y125.048 E36.10744
G1 X114.312 Y125.061 E36.21846
G1 X114.124 Y125.094 E36.22481
G1 X114 Y125.172 E36.22968
G1 X114 Y109.829 E36.73999
G1 X113.922 Y109.779 E36.74307
G1 X113.603 Y109.458 E36.75812
G1 X113.45 Y109.166 E36.76909
G1 X113.45 Y107.39 E36.82816
G1 X111.85 Y107.39 E36.88137
G1 X111.85 Y127.607 E37.55379
G1 X112 Y127.607 E37.55878
G1 X112 Y107.39 E38.2312
G1 F2700 E33.2312
;MESH:Support_Reflex_cot_appareil.stl
G0 F7500 X112 Y106.124
G0 X114.703 Y106.137
G0 X118.385 Y107.39
G0 X119.47 Y107.39
G0 X119.92 Y141.63
G1 F2700 E38.2312
G0 F7500 X119.65 Y141.9
;TYPE:WALL-INNER
G1 F1200 X120.65 Y141.9 E38.26446
G1 X120.65 Y93.6 E39.87093
G1 X120.65 Y93.1 E39.88756
G1 X119.65 Y93.1 E39.92082
G1 X119.65 Y141.9 E41.54391
G0 F7500 X119.25 Y142.3
;TYPE:WALL-OUTER
G1 F1200 X121.05 Y142.3 E41.60378
G1 X121.05 Y93.6 E43.22355
G1 X121.05 Y92.7 E43.25348
G1 X119.25 Y92.7 E43.31335
G1 X119.25 Y142.3 E44.96305
G0 F7500 X119.52 Y142.03
G0 X120.15 Y141.4
;TYPE:WALL-INNER
G1 F800 X120.15 Y93.6 E47.34781
G0 F7500 X120.25 Y93.6
G1 F2700 E42.34781
;MESH:NONMESH
G0 F300 X120.25 Y93.6 Z0.6
G0 F7500 X120.836 Y92.914
G0 X122.25 Y92.7
;TIME_ELAPSED:97.823205
;LAYER:2
M106 S85
;TYPE:SUPPORT
G1 F2700 E47.34781
G1 F1500 X122.25 Y142.3 E48.99751
G1 X123.426 Y142.3 E49.03662
G1 X123.426 Y93.288 E50.66677
G1 X123.425 Y92.7 E50.68633
G1 X122.25 Y92.7 E50.72541
G1 F2700 E45.72541
G0 F9000 X122.25 Y91.835
G0 X124.278 Y91.847
G0 X124.29 Y141.899
G0 X123.026 Y141.9
G0 X122.65 Y141.9
G1 F2700 E50.72541
G1 F1500 X122.65 Y93.1 E52.3485
G1 X123.026 Y93.1 E52.36101
G1 X123.026 Y141.9 E53.9841
G1 X122.65 Y141.9 E53.99661
G1 F2700 E48.99661
G0 F9000 X122.65 Y143.165
G0 X118.397 Y143.153
G0 X113.85 Y128.873
G0 X113.85 Y128.007
G1 F2700 E53.99661
G1 F1500 X113.85 Y125.944 E54.06522
G1 X113.908 Y125.802 E54.07032
G1 X114.248 Y125.461 E54.08634
G1 X118.05 Y125.446 E54.2128
G1 X118.05 Y112.841 E54.63204
G1 X118.05 Y109.554 E54.74137
G1 X114.248 Y109.539 E54.86782
G1 X113.908 Y109.198 E54.88384
G1 X113.852 Y109.091 E54.88786
G1 X113.85 Y106.99 E54.95774
G1 X111.45 Y106.99 E55.03756
G1 X111.45 Y128.007 E55.73659
G1 X113.85 Y128.007 E55.81641
G1 F2700 E50.81641
G0 F9000 X114.715 Y128.007
G0 X116.005 Y126.32
G0 X116 Y125.055
G1 F2700 E55.81641
G1 F1500 X116 Y109.946 E56.31894
G1 X117.65 Y109.952 E56.37382
G1 X117.65 Y125.048 E56.87591
G1 X114.312 Y125.061 E56.98694
G1 X114.124 Y125.094 E56.99329
G1 X114 Y125.172 E56.99816
G1 X114 Y109.829 E57.50847
G1 X113.922 Y109.779 E57.51155
G1 X113.603 Y109.458 E57.5266
G1 X113.45 Y109.166 E57.53757
G1 X113.45 Y107.39 E57.59664
G1 X111.85 Y107.39 E57.64985
G1 X111.85 Y127.607 E58.32227
G1 X112 Y127.607 E58.32726
G1 X112 Y107.39 E58.99968
G1 F2700 E53.99968
;MESH:Support_Reflex_cot_appareil.stl
G0 F9000 X112 Y106.124
G0 X114.703 Y106.137
G0 X118.385 Y107.39
G0 X119.47 Y107.39
G0 X119.92 Y141.63
G1 F2700 E58.99968
G0 F9000 X119.65 Y141.9
;TYPE:WALL-INNER
G1 F1500 X120.65 Y141.9 E59.03294
G1 X120.65 Y93.6 E60.63941
G1 X120.65 Y93.1 E60.65604
G1 X119.65 Y93.1 E60.6893
G1 X119.65 Y141.9 E62.31239
G0 F9000 X119.25 Y142.3
;TYPE:WALL-OUTER
G1 F1500 X121.05 Y142.3 E62.37226
G1 X121.05 Y93.6 E63.99203
G1 X121.05 Y92.7 E64.02196
G1 X119.25 Y92.7 E64.08183
G1 X119.25 Y142.3 E65.73153
G0 F9000 X119.52 Y142.03
G0 X120.15 Y141.4
;TYPE:WALL-INNER
G1 F1000 X120.15 Y93.6 E68.11628
G0 F9000 X120.25 Y93.6
G1 F2700 E63.11628
;MESH:NONMESH
G0 F300 X120.25 Y93.6 Z0.8
G0 F9000 X120.836 Y92.914
G0 X122.25 Y92.7
;TIME_ELAPSED:128.351405
;LAYER:3
M106 S127.5
;TYPE:SUPPORT
G1 F2700 E68.11628
G1 F1500 X122.25 Y142.3 E69.76599
G1 X123.426 Y142.3 E69.8051
G1 X123.426 Y93.288 E71.43525
G1 X123.425 Y92.7 E71.4548
G1 X122.25 Y92.7 E71.49388
G1 F2700 E66.49388
G0 F9000 X122.25 Y91.835
G0 X124.278 Y91.847
G0 X124.29 Y141.899
G0 X123.026 Y141.9
G0 X122.65 Y141.9
G1 F2700 E71.49388
G1 F1500 X122.65 Y93.1 E73.11698
G1 X123.026 Y93.1 E73.12949
G1 X123.026 Y141.9 E74.75258
G1 X122.65 Y141.9 E74.76509
G1 F2700 E69.76509
G0 F9000 X122.65 Y143.165
G0 X118.397 Y143.153
G0 X113.85 Y128.873
G0 X113.85 Y128.007
G1 F2700 E74.76509
G1 F1500 X113.85 Y125.944 E74.8337
G1 X113.908 Y125.802 E74.8388
G1 X114.248 Y125.461 E74.85482
G1 X118.05 Y125.446 E74.98128
G1 X118.05 Y112.841 E75.40052
G1 X118.05 Y109.554 E75.50985
G1 X114.248 Y109.539 E75.6363
G1 X113.908 Y109.198 E75.65232
G1 X113.852 Y109.091 E75.65633
G1 X113.85 Y106.99 E75.72621
G1 X111.45 Y106.99 E75.80604
G1 X111.45 Y128.007 E76.50507
G1 X113.85 Y128.007 E76.58489
G1 F2700 E71.58489
G0 F9000 X114.715 Y128.007
G0 X116.005 Y126.32
G0 X116 Y125.055
G1 F2700 E76.58489
G1 F1500 X116 Y109.946 E77.08742
G1 X117.65 Y109.952 E77.1423
G1 X117.65 Y125.048 E77.64439
G1 X114.312 Y125.061 E77.75542
G1 X114.124 Y125.094 E77.76176
G1 X114 Y125.172 E77.76664
G1 X114 Y109.829 E78.27695
G1 X113.922 Y109.779 E78.28003
G1 X113.603 Y109.458 E78.29508
G1 X113.45 Y109.166 E78.30604
G1 X113.45 Y107.39 E78.36511
G1 X111.85 Y107.39 E78.41833
G1 X111.85 Y127.607 E79.09075
G1 X112 Y127.607 E79.09574
G1 X112 Y107.39 E79.76816
G1 F2700 E74.76816
;MESH:Support_Reflex_cot_appareil.stl
G0 F9000 X112 Y106.124
G0 X114.703 Y106.137
G0 X118.385 Y107.39
G0 X119.47 Y107.39
G0 X119.92 Y141.63
G1 F2700 E79.76816
G0 F9000 X119.65 Y141.9
;TYPE:WALL-INNER
G1 F1500 X120.65 Y141.9 E79.80142
G1 X120.65 Y93.6 E81.40788
G1 X120.65 Y93.1 E81.42452
G1 X119.65 Y93.1 E81.45778
G1 X119.65 Y141.9 E83.08087
G0 F9000 X119.25 Y142.3
;TYPE:WALL-OUTER
G1 F1500 X121.05 Y142.3 E83.14074
G1 X121.05 Y93.6 E84.76051
G1 X121.05 Y92.7 E84.79044
G1 X119.25 Y92.7 E84.85031
G1 X119.25 Y142.3 E86.50001
G0 F9000 X119.52 Y142.03
G0 X120.15 Y141.4
;TYPE:WALL-INNER
G1 F1000 X120.15 Y93.6 E88.88476
G0 F9000 X120.25 Y93.6
G1 F2700 E83.88476
;MESH:NONMESH
G0 F300 X120.25 Y93.6 Z1
G0 F9000 X120.836 Y92.914
G0 X122.25 Y92.7
;TIME_ELAPSED:158.879605
;LAYER:4
;TYPE:SUPPORT
G1 F2700 E88.88476
G1 F1500 X122.25 Y142.3 E90.53447
G1 X123.426 Y142.3 E90.57358
G1 X123.426 Y93.288 E92.20373
G1 X123.425 Y92.7 E92.22328
G1 X122.25 Y92.7 E92.26236
G1 F2700 E87.26236
G0 F9000 X122.25 Y91.835
G0 X124.278 Y91.847
G0 X124.29 Y141.899
G0 X123.026 Y141.9
G0 X122.65 Y141.9
G1 F2700 E92.26236
G1 F1500 X122.65 Y93.1 E93.88546
G1 X123.026 Y93.1 E93.89796
G1 X123.026 Y141.9 E95.52106
G1 X122.65 Y141.9 E95.53356
G1 F2700 E90.53356
G0 F9000 X122.65 Y143.165
G0 X118.397 Y143.153
G0 X113.85 Y128.873
G0 X113.85 Y128.007
G1 F2700 E95.53356
G1 F1500 X113.85 Y125.944 E95.60218
G1 X113.908 Y125.802 E95.60728
G1 X114.248 Y125.461 E95.6233
G1 X118.05 Y125.446 E95.74975
G1 X118.05 Y112.841 E96.169
G1 X118.05 Y109.554 E96.27832
G1 X114.248 Y109.539 E96.40478
G1 X113.908 Y109.198 E96.4208
G1 X113.852 Y109.091 E96.42481
G1 X113.85 Y106.99 E96.49469
G1 X111.45 Y106.99 E96.57452
G1 X111.45 Y128.007 E97.27354
G1 X113.85 Y128.007 E97.35337
G1 F2700 E92.35337
G0 F9000 X114.715 Y128.007
G0 X116.005 Y126.32
G0 X116 Y125.055
G1 F2700 E97.35337
G1 F1500 X116 Y109.946 E97.8559
G1 X117.65 Y109.952 E97.91078
G1 X117.65 Y125.048 E98.41287
G1 X114.312 Y125.061 E98.52389
G1 X114.124 Y125.094 E98.53024
G1 X114 Y125.172 E98.53512
G1 X114 Y109.829 E99.04543
G1 X113.922 Y109.779 E99.04851
G1 X113.603 Y109.458 E99.06356
G1 X113.45 Y109.166 E99.07452
G1 X113.45 Y107.39 E99.13359
G1 X111.85 Y107.39 E99.18681
G1 X111.85 Y127.607 E99.85923
G1 X112 Y127.607 E99.86422
G1 X112 Y107.39 E100.53664
G1 F2700 E95.53664
;MESH:Support_Reflex_cot_appareil.stl
G0 F9000 X112 Y106.124
G0 X114.703 Y106.137
G0 X118.385 Y107.39
G0 X119.47 Y107.39
G0 X119.92 Y141.63
G1 F2700 E100.53664
G0 F9000 X119.65 Y141.9
;TYPE:WALL-INNER
G1 F1500 X120.65 Y141.9 E100.5699
G1 X120.65 Y93.6 E102.17636
G1 X120.65 Y93.1 E102.19299
G1 X119.65 Y93.1 E102.22625
G1 X119.65 Y141.9 E103.84935
G0 F9000 X119.25 Y142.3
;TYPE:WALL-OUTER
G1 F1500 X121.05 Y142.3 E103.90922
G1 X121.05 Y93.6 E105.52898
G1 X121.05 Y92.7 E105.55892
G1 X119.25 Y92.7 E105.61879
G1 X119.25 Y142.3 E107.26849
G0 F9000 X119.52 Y142.03
G0 X120.15 Y141.4
;TYPE:WALL-INNER
G1 F1000 X120.15 Y93.6 E109.65324
G0 F9000 X120.25 Y93.6
G1 F2700 E104.65324
;MESH:NONMESH
G0 F300 X120.25 Y93.6 Z1.2
G0 F9000 X120.836 Y92.914
G0 X122.25 Y92.7
;TIME_ELAPSED:189.407805
;LAYER:5
;TYPE:SUPPORT
G1 F2700 E109.65324
G1 F1500 X122.25 Y142.3 E111.30294
G1 X123.426 Y142.3 E111.34206
G1 X123.426 Y93.288 E112.9722
G1 X123.425 Y92.7 E112.99176
G1 X122.25 Y92.7 E113.03084
G1 F2700 E108.03084
G0 F9000 X122.25 Y91.835
G0 X124.278 Y91.847
G0 X124.29 Y141.899
G0 X123.026 Y141.9
G0 X122.65 Y141.9
G1 F2700 E113.03084
G1 F1500 X122.65 Y93.1 E114.65394
G1 X123.026 Y93.1 E114.66644
G1 X123.026 Y141.9 E116.28954
G1 X122.65 Y141.9 E116.30204
G1 F2700 E111.30204
G0 F9000 X122.65 Y143.165
G0 X118.397 Y143.153
G0 X113.85 Y128.873
G0 X113.85 Y128.007
G1 F2700 E116.30204
G1 F1500 X113.85 Y125.944 E116.37066
G1 X113.908 Y125.802 E116.37576
G1 X114.248 Y125.461 E116.39178
G1 X118.05 Y125.446 E116.51823
G1 X118.05 Y112.841 E116.93748
G1 X118.05 Y109.554 E117.0468
G1 X114.248 Y109.539 E117.17326
G1 X113.908 Y109.198 E117.18927
G1 X113.852 Y109.091 E117.19329
G1 X113.85 Y106.99 E117.26317
G1 X111.45 Y106.99 E117.34299
