;FLAVOR:Marlin
;TIME:4348
;Filament used: 2.55759m
;Layer height: 0.2
;MINX:59.209
;MINY:91.95
;MINZ:0.2
;MAXX:175.791
;MAXY:143.06
;MAXZ:14
;Generated with Cura_SteamEngine 5.2.1
M140 S65
M105
M190 S65
M104 S240
M105
M109 S240
M82 ;absolute extrusion mode
; Ender 3 Custom Start G-code
G92 E0 ; Reset Extruder
G28 ; Home all axes
G1 Z2.0 F3000 ; Move Z Axis up little to prevent scratching of Heat Bed
G1 X0.1 Y20 Z0.3 F5000.0 ; Move to start position
G1 X0.1 Y200.0 Z0.3 F1500.0 E15 ; Draw the first line
G1 X0.4 Y200.0 Z0.3 F5000.0 ; Move to side a little
G1 X0.4 Y20 Z0.3 F1500.0 E30 ; Draw the second line
G92 E0 ; Reset Extruder
G1 Z2.0 F3000 ; Move Z Axis up little to prevent scratching of Heat Bed
G1 X5 Y20 Z0.3 F5000.0 ; Move over to prevent blob squish
G92 E0
G92 E0
G1 F2700 E-5
;LAYER_COUNT:70
;LAYER:0
M107
G0 F6000 X63.788 Y93.678 Z0.2
;TYPE:SKIRT
G1 F2700 E0
G1 F900 X64.426 Y93.296 E0.02473
G1 X64.861 Y93.063 E0.04115
G1 X65.575 Y92.726 E0.06741
G1 X66.289 Y92.472 E0.09261
G1 X66.756 Y92.331 E0.10884
G1 X67.523 Y92.141 E0.13512
G1 X68.249 Y92.035 E0.15952
G1 X68.738 Y91.987 E0.17586
G1 X69.527 Y91.95 E0.20213
G1 X69.673 Y91.957 E0.207
G1 X69.966 Y91.95 E0.21674
G1 X81.966 Y91.95 E0.61587
G1 X82.216 Y91.963 E0.62419
G1 X82.728 Y91.962 E0.64122
G1 X83.517 Y92.002 E0.6675
G1 X84.239 Y92.11 E0.69178
G1 X84.715 Y92.204 E0.70792
G1 X85.818 Y92.507 E0.74596
G1 X86.057 Y92.592 E0.7544
G1 X87.123 Y93.064 E0.79317
G1 X87.665 Y93.354 E0.81362
G1 X88.341 Y93.761 E0.83986
G1 X88.973 Y94.235 E0.86614
G1 X89.5 Y94.716 E0.88987
G1 X90.019 Y95.235 E0.91428
G1 X90.549 Y95.821 E0.94056
G1 X91.016 Y96.457 E0.9668
G1 X91.377 Y97.061 E0.99021
G1 X91.669 Y97.605 E1.01074
G1 X92.006 Y98.319 E1.037
G1 X92.263 Y99.039 E1.06243
G1 X92.433 Y99.602 E1.08199
G1 X92.623 Y100.369 E1.10827
G1 X92.757 Y101.482 E1.14556
G1 X92.782 Y102.001 E1.16284
G1 X92.785 Y104.2 E1.23598
G1 X112.188 Y104.199 E1.88133
G1 X112.416 Y103.992 E1.89157
G1 X113.003 Y103.51 E1.91683
G1 X113.793 Y102.923 E1.94957
G1 X114.441 Y102.49 E1.97549
G1 X115.282 Y101.987 E2.00808
G1 X115.945 Y101.633 E2.03308
G1 X116.831 Y101.213 E2.06569
G1 X117.554 Y100.914 E2.09171
G1 X118.48 Y100.584 E2.12441
G1 X119.195 Y100.367 E2.14926
G1 X120.145 Y100.128 E2.18184
G1 X120.905 Y99.976 E2.20762
G1 X121.877 Y99.832 E2.2403
G1 X122.638 Y99.757 E2.26574
G1 X123.618 Y99.709 E2.29837
G1 X124.382 Y99.709 E2.32378
G1 X125.361 Y99.757 E2.35638
G1 X126.121 Y99.832 E2.38178
G1 X127.094 Y99.976 E2.4145
G1 X127.857 Y100.128 E2.44037
G1 X128.806 Y100.367 E2.47292
G1 X129.519 Y100.584 E2.49771
G1 X130.445 Y100.914 E2.53041
G1 X131.165 Y101.211 E2.55631
G1 X132.052 Y101.631 E2.58895
G1 X132.721 Y101.989 E2.61419
G1 X133.073 Y102.2 E2.62784
G1 X148.926 Y102.2 E3.15511
G1 X149.276 Y101.99 E3.16869
G1 X149.945 Y101.633 E3.19391
G1 X150.831 Y101.213 E3.22652
G1 X151.554 Y100.914 E3.25254
G1 X152.48 Y100.584 E3.28524
G1 X153.195 Y100.367 E3.31009
G1 X154.145 Y100.128 E3.34267
G1 X154.906 Y99.976 E3.36848
G1 X155.879 Y99.832 E3.4012
G1 X156.639 Y99.757 E3.4266
G1 X157.618 Y99.709 E3.4592
G1 X158.382 Y99.709 E3.48461
G1 X159.361 Y99.757 E3.51721
G1 X160.121 Y99.832 E3.54261
G1 X161.094 Y99.976 E3.57533
G1 X161.855 Y100.128 E3.60114
G1 X162.805 Y100.367 E3.63372
G1 X163.52 Y100.584 E3.65857
G1 X164.446 Y100.914 E3.69127
G1 X165.169 Y101.213 E3.71729
G1 X166.055 Y101.633 E3.7499
G1 X166.724 Y101.99 E3.77512
G1 X167.565 Y102.494 E3.80773
G1 X168.201 Y102.919 E3.83318
G1 X168.99 Y103.504 E3.86584
G1 X169.582 Y103.991 E3.89134
G1 X170.308 Y104.649 E3.92393
G1 X170.849 Y105.189 E3.94935
G1 X171.508 Y105.916 E3.98199
G1 X171.991 Y106.504 E4.0073
G1 X172.577 Y107.293 E4.03999
G1 X173.008 Y107.938 E4.06579
G1 X173.512 Y108.78 E4.09843
G1 X173.867 Y109.445 E4.1235
G1 X174.287 Y110.331 E4.15611
G1 X174.586 Y111.054 E4.18213
G1 X174.916 Y111.98 E4.21483
G1 X175.133 Y112.695 E4.23968
G1 X175.372 Y113.645 E4.27226
G1 X175.524 Y114.404 E4.29801
G1 X175.668 Y115.375 E4.33066
G1 X175.743 Y116.137 E4.35612
G1 X175.791 Y117.117 E4.38876
G1 X175.791 Y117.881 E4.41417
G1 X175.743 Y118.861 E4.4468
G1 X175.668 Y119.621 E4.4722
G1 X175.524 Y120.594 E4.50492
G1 X175.372 Y121.355 E4.53073
G1 X175.133 Y122.305 E4.56331
G1 X174.917 Y123.018 E4.58809
G1 X174.588 Y123.942 E4.62071
G1 X174.288 Y124.667 E4.64681
G1 X173.867 Y125.555 E4.67949
G1 X173.513 Y126.218 E4.70449
G1 X173.01 Y127.059 E4.73708
G1 X172.578 Y127.706 E4.76296
G1 X171.992 Y128.495 E4.79565
G1 X171.509 Y129.082 E4.82093
G1 X170.851 Y129.808 E4.85352
G1 X170.311 Y130.349 E4.87894
G1 X169.584 Y131.008 E4.91158
G1 X168.997 Y131.49 E4.93684
G1 X168.207 Y132.077 E4.96958
G1 X167.559 Y132.51 E4.9955
G1 X166.718 Y133.013 E5.02809
G1 X166.049 Y133.37 E5.05331
G1 X165.163 Y133.789 E5.08591
G1 X164.46 Y134.08 E5.11122
G1 X163.534 Y134.412 E5.14393
G1 X162.798 Y134.636 E5.16952
G1 X161.848 Y134.874 E5.2021
G1 X161.094 Y135.024 E5.22767
G1 X160.121 Y135.168 E5.26038
G1 X159.361 Y135.243 E5.28578
G1 X158.382 Y135.291 E5.31838
G1 X157.618 Y135.291 E5.34379
G1 X156.639 Y135.243 E5.37639
G1 X155.879 Y135.168 E5.40179
G1 X154.906 Y135.024 E5.43451
G1 X154.152 Y134.874 E5.46008
G1 X153.202 Y134.636 E5.49265
G1 X152.466 Y134.412 E5.51824
G1 X151.54 Y134.08 E5.55096
G1 X150.837 Y133.789 E5.57626
G1 X149.951 Y133.37 E5.60886
G1 X149.282 Y133.013 E5.63408
G1 X148.926 Y132.8 E5.64788
G1 X139.325 Y132.8 E5.96721
G1 X138.536 Y132.76 E5.99349
G1 X137.756 Y132.641 E6.01973
G1 X137.491 Y132.572 E6.02884
G1 X137.269 Y132.631 E6.03648
G1 X136.49 Y132.755 E6.06271
G1 X135.655 Y132.8 E6.09053
G1 X133.073 Y132.8 E6.1764
G1 X132.721 Y133.011 E6.19005
G1 X132.052 Y133.369 E6.21529
G1 X131.165 Y133.789 E6.24793
G1 X130.445 Y134.086 E6.27384
G1 X129.519 Y134.416 E6.30653
G1 X128.806 Y134.633 E6.33132
G1 X127.857 Y134.872 E6.36387
G1 X127.094 Y135.024 E6.38975
G1 X126.121 Y135.168 E6.42246
G1 X125.361 Y135.243 E6.44786
G1 X124.382 Y135.291 E6.48046
G1 X123.618 Y135.291 E6.50587
G1 X122.638 Y135.243 E6.53851
G1 X121.877 Y135.168 E6.56394
G1 X120.905 Y135.024 E6.59662
G1 X120.145 Y134.872 E6.6224
G1 X119.195 Y134.633 E6.65498
G1 X118.48 Y134.416 E6.67984
G1 X117.554 Y134.086 E6.71253
G1 X116.831 Y133.787 E6.73855
G1 X115.945 Y133.367 E6.77117
G1 X115.282 Y133.013 E6.79616
G1 X114.441 Y132.51 E6.82876
G1 X113.793 Y132.077 E6.85468
G1 X113.003 Y131.49 E6.88741
G1 X112.416 Y131.008 E6.91268
G1 X112.187 Y130.8 E6.92297
G1 X92.785 Y130.8 E7.56828
G1 X92.785 Y132.755 E7.6333
G1 X92.746 Y133.533 E7.65921
G1 X92.697 Y134.022 E7.67556
G1 X92.579 Y134.802 E7.70179
G1 X92.399 Y135.513 E7.72619
G1 X92.257 Y135.98 E7.74242
G1 X91.989 Y136.723 E7.76869
G1 X91.666 Y137.4 E7.79364
G1 X91.433 Y137.834 E7.81003
G1 X91.025 Y138.51 E7.83629
G1 X90.576 Y139.111 E7.86124
G1 X90.202 Y139.564 E7.88078
G1 X89.669 Y140.147 E7.90705
G1 X88.816 Y140.876 E7.94437
G1 X88.5 Y141.109 E7.95743
G1 X87.535 Y141.717 E7.99536
G1 X87.099 Y141.949 E8.01179
G1 X86.384 Y142.284 E8.03805
G1 X85.67 Y142.536 E8.06324
G1 X85.202 Y142.676 E8.07948
G1 X84.435 Y142.864 E8.10575
G1 X83.713 Y142.967 E8.13001
G1 X83.12 Y143.024 E8.14982
G1 X82.331 Y143.06 E8.17609
G1 X82.095 Y143.047 E8.18395
G1 X69.966 Y143.05 E8.58736
G1 X69.564 Y143.03 E8.60075
G1 X69.109 Y143.04 E8.61589
G1 X68.71 Y143.02 E8.62918
G1 X67.924 Y142.941 E8.65545
G1 X66.813 Y142.687 E8.69335
G1 X66.161 Y142.487 E8.71604
G1 X65.418 Y142.218 E8.74232
G1 X64.441 Y141.722 E8.77876
G1 X64.097 Y141.516 E8.7921
G1 X63.147 Y140.846 E8.83076
G1 X62.774 Y140.539 E8.84683
G1 X62.191 Y140.007 E8.87308
G1 X61.701 Y139.465 E8.89738
G1 X61.39 Y139.086 E8.91369
G1 X60.711 Y138.117 E8.95304
G1 X60.52 Y137.795 E8.9655
G1 X60.152 Y137.097 E8.99174
G1 X59.876 Y136.418 E9.01612
G1 X59.755 Y136.076 E9.02818
G1 X59.459 Y135.001 E9.06527
G1 X59.363 Y134.52 E9.08158
G1 X59.221 Y133.365 E9.12029
G1 X59.209 Y133.114 E9.12865
G1 X59.24 Y131.952 E9.16731
G1 X59.29 Y131.461 E9.18372
G1 X59.41 Y130.68 E9.21
G1 X59.593 Y129.963 E9.23462
G1 X59.763 Y129.409 E9.25389
G1 X60.033 Y128.667 E9.28015
G1 X60.53 Y127.687 E9.3167
G1 X60.735 Y127.345 E9.32996
G1 X61.388 Y126.416 E9.36773
G1 X61.676 Y126.064 E9.38286
G1 X62.206 Y125.479 E9.40911
G1 X62.793 Y124.95 E9.43539
G1 X63.431 Y124.484 E9.46167
G1 X64.112 Y124.084 E9.48794
G1 X64.83 Y123.755 E9.51421
G1 X65.577 Y123.501 E9.54045
G1 X66.347 Y123.324 E9.56673
G1 X67.13 Y123.225 E9.59298
G1 X67.713 Y123.203 E9.61238
G1 X72.202 Y123.203 E9.76169
G1 X72.202 Y111.798 E10.14102
G1 X67.714 Y111.798 E10.29029
G1 X66.925 Y111.758 E10.31657
G1 X66.145 Y111.639 E10.34281
G1 X65.38 Y111.441 E10.36909
G1 X64.64 Y111.167 E10.39534
G1 X63.931 Y110.819 E10.42161
G1 X63.26 Y110.401 E10.4479
G1 X62.636 Y109.918 E10.47415
G1 X62.063 Y109.375 E10.5004
G1 X61.654 Y108.909 E10.52102
G1 X61.355 Y108.54 E10.53682
G1 X60.889 Y107.902 E10.5631
G1 X60.535 Y107.305 E10.58618
G1 X60.309 Y106.882 E10.60213
G1 X59.973 Y106.167 E10.62841
G1 X59.721 Y105.457 E10.65347
G1 X59.551 Y104.893 E10.67306
G1 X59.362 Y104.126 E10.69933
G1 X59.228 Y103.012 E10.73665
G1 X59.209 Y102.612 E10.74997
G1 X59.24 Y101.452 E10.78857
G1 X59.29 Y100.961 E10.80498
G1 X59.41 Y100.18 E10.83126
G1 X59.593 Y99.463 E10.85588
G1 X59.763 Y98.909 E10.87515
G1 X60.033 Y98.167 E10.90141
G1 X60.53 Y97.187 E10.93796
G1 X60.735 Y96.845 E10.95122
G1 X61.401 Y95.9 E10.98967
G1 X61.707 Y95.528 E11.00569
G1 X62.239 Y94.944 E11.03197
G1 X62.775 Y94.46 E11.05599
G1 X63.153 Y94.149 E11.07227
G1 X63.788 Y93.678 E11.09857
G0 F6000 X64.026 Y94
G1 F900 X64.615 Y93.649 E11.12137
G1 X65.05 Y93.416 E11.13778
G1 X65.746 Y93.088 E11.16337
G1 X66.405 Y92.855 E11.18662
G1 X66.872 Y92.714 E11.20285
G1 X67.619 Y92.53 E11.22844
G1 X68.288 Y92.433 E11.25092
G1 X68.777 Y92.385 E11.26726
G1 X69.545 Y92.35 E11.29283
G1 X69.966 Y92.35 E11.30683
G1 X81.966 Y92.35 E11.70596
G1 X82.223 Y92.363 E11.71451
G1 X82.728 Y92.362 E11.73131
G1 X83.496 Y92.402 E11.75689
G1 X84.162 Y92.502 E11.77929
G1 X84.638 Y92.596 E11.79543
G1 X85.684 Y92.884 E11.83151
G1 X85.923 Y92.969 E11.83995
G1 X86.934 Y93.416 E11.87671
G1 X87.476 Y93.706 E11.89716
G1 X88.135 Y94.104 E11.92277
G1 X88.748 Y94.568 E11.94834
G1 X89.218 Y94.998 E11.96952
G1 X89.737 Y95.517 E11.99394
G1 X90.251 Y96.089 E12.01951
G1 X90.704 Y96.711 E12.04511
G1 X91.024 Y97.25 E12.06595
G1 X91.316 Y97.794 E12.08649
G1 X91.644 Y98.49 E12.11208
G1 X91.88 Y99.155 E12.13555
G1 X92.05 Y99.718 E12.15511
G1 X92.234 Y100.465 E12.1807
G1 X92.357 Y101.501 E12.2154
G1 X92.382 Y102.02 E12.23268
G1 X92.385 Y104.6 E12.31849
G1 X112.342 Y104.599 E12.98226
G1 X112.685 Y104.288 E12.99766
G1 X113.242 Y103.831 E13.02163
G1 X114.032 Y103.244 E13.05436
G1 X114.647 Y102.833 E13.07896
G1 X115.488 Y102.33 E13.11156
G1 X116.116 Y101.994 E13.13525
G1 X117.002 Y101.574 E13.16786
G1 X117.688 Y101.29 E13.19255
G1 X118.614 Y100.96 E13.22525
G1 X119.293 Y100.755 E13.24884
G1 X120.243 Y100.516 E13.28142
G1 X120.964 Y100.372 E13.30587
G1 X121.936 Y100.228 E13.33856
G1 X122.658 Y100.157 E13.36269
G1 X123.638 Y100.109 E13.39532
G1 X124.362 Y100.109 E13.4194
G1 X125.341 Y100.157 E13.452
G1 X126.062 Y100.228 E13.4761
G1 X127.035 Y100.372 E13.50881
G1 X127.759 Y100.516 E13.53336
G1 X128.708 Y100.755 E13.56591
G1 X129.385 Y100.96 E13.58944
G1 X130.311 Y101.29 E13.62214
G1 X130.994 Y101.573 E13.64673
G1 X131.881 Y101.993 E13.67937
G1 X132.516 Y102.332 E13.70331
G1 X132.964 Y102.6 E13.72067
G1 X149.038 Y102.6 E14.2553
G1 X149.482 Y102.334 E14.27251
G1 X150.116 Y101.994 E14.29644
G1 X151.002 Y101.574 E14.32905
G1 X151.688 Y101.29 E14.35375
G1 X152.614 Y100.96 E14.38644
G1 X153.293 Y100.755 E14.41003
G1 X154.243 Y100.516 E14.44261
G1 X154.965 Y100.372 E14.4671
G1 X155.938 Y100.228 E14.49982
G1 X156.659 Y100.157 E14.52391
G1 X157.638 Y100.109 E14.55651
G1 X158.362 Y100.109 E14.58059
G1 X159.341 Y100.157 E14.61319
G1 X160.062 Y100.228 E14.63729
G1 X161.035 Y100.372 E14.67
G1 X161.757 Y100.516 E14.69449
G1 X162.707 Y100.755 E14.72707
G1 X163.386 Y100.96 E14.75066
G1 X164.312 Y101.29 E14.78336
G1 X164.998 Y101.574 E14.80805
G1 X165.884 Y101.994 E14.84067
G1 X166.518 Y102.334 E14.86459
G1 X167.359 Y102.838 E14.8972
G1 X167.962 Y103.241 E14.92133
G1 X168.751 Y103.826 E14.954
G1 X169.314 Y104.287 E14.9782
G1 X170.04 Y104.945 E15.01079
G1 X170.553 Y105.458 E15.03492
G1 X171.212 Y106.185 E15.06755
G1 X171.67 Y106.743 E15.09156
G1 X172.256 Y107.532 E15.12425
G1 X172.664 Y108.143 E15.14869
G1 X173.168 Y108.985 E15.18133
G1 X173.506 Y109.616 E15.20513
G1 X173.926 Y110.502 E15.23775
G1 X174.21 Y111.188 E15.26244
G1 X174.54 Y112.114 E15.29514
G1 X174.745 Y112.793 E15.31873
G1 X174.984 Y113.743 E15.35131
G1 X175.128 Y114.462 E15.3757
G1 X175.272 Y115.433 E15.40835
G1 X175.343 Y116.157 E15.43254
G1 X175.391 Y117.137 E15.46518
G1 X175.391 Y117.861 E15.48926
G1 X175.343 Y118.841 E15.52189
G1 X175.272 Y119.562 E15.54599
G1 X175.128 Y120.535 E15.5787
G1 X174.984 Y121.257 E15.60319
G1 X174.745 Y122.207 E15.63577
G1 X174.54 Y122.884 E15.6593
G1 X174.211 Y123.808 E15.69192
G1 X173.927 Y124.496 E15.71668
G1 X173.506 Y125.384 E15.74936
G1 X173.17 Y126.012 E15.77305
G1 X172.667 Y126.853 E15.80564
G1 X172.257 Y127.467 E15.8302
G1 X171.671 Y128.256 E15.86289
G1 X171.213 Y128.814 E15.8869
G1 X170.555 Y129.54 E15.91949
G1 X170.042 Y130.053 E15.94362
G1 X169.315 Y130.712 E15.97625
G1 X168.758 Y131.169 E16.00022
G1 X167.968 Y131.756 E16.03295
G1 X167.353 Y132.167 E16.05755
G1 X166.512 Y132.67 E16.09015
G1 X165.878 Y133.009 E16.11406
G1 X164.992 Y133.428 E16.14666
G1 X164.325 Y133.704 E16.17066
G1 X163.399 Y134.036 E16.20338
G1 X162.7 Y134.248 E16.22768
G1 X161.75 Y134.486 E16.26025
G1 X161.035 Y134.628 E16.2845
G1 X160.062 Y134.772 E16.31721
G1 X159.341 Y134.843 E16.34131
G1 X158.362 Y134.891 E16.37391
G1 X157.638 Y134.891 E16.39799
G1 X156.659 Y134.843 E16.43059
G1 X155.938 Y134.772 E16.45469
G1 X154.965 Y134.628 E16.4874
G1 X154.25 Y134.486 E16.51165
G1 X153.3 Y134.248 E16.54422
G1 X152.601 Y134.036 E16.56852
G1 X151.675 Y133.704 E16.60123
G1 X151.008 Y133.428 E16.62524
G1 X150.122 Y133.009 E16.65784
G1 X149.488 Y132.67 E16.68175
G1 X149.037 Y132.4 E16.69924
G1 X139.325 Y132.4 E17.02226
G1 X138.557 Y132.36 E17.04784
G1 X137.797 Y132.241 E17.07342
G1 X137.493 Y132.16 E17.08389
G1 X136.951 Y132.286 E17.10239
G1 X136.188 Y132.381 E17.12797
G1 X135.655 Y132.4 E17.14571
G1 X132.964 Y132.4 E17.23521
G1 X132.516 Y132.668 E17.25257
G1 X131.881 Y133.007 E17.27651
G1 X130.994 Y133.427 E17.30916
G1 X130.311 Y133.71 E17.33374
G1 X129.385 Y134.04 E17.36644
G1 X128.708 Y134.245 E17.38997
G1 X127.759 Y134.484 E17.42252
G1 X127.035 Y134.628 E17.44707
G1 X126.062 Y134.772 E17.47978
G1 X125.341 Y134.843 E17.50388
G1 X124.362 Y134.891 E17.53648
G1 X123.638 Y134.891 E17.56056
G1 X122.658 Y134.843 E17.5932
G1 X121.936 Y134.772 E17.61732
G1 X120.964 Y134.628 E17.65001
G1 X120.243 Y134.484 E17.67446
G1 X119.293 Y134.245 E17.70704
G1 X118.614 Y134.04 E17.73063
G1 X117.688 Y133.71 E17.76333
G1 X117.002 Y133.426 E17.78802
G1 X116.116 Y133.006 E17.82064
G1 X115.488 Y132.67 E17.84432
G1 X114.647 Y132.167 E17.87692
G1 X114.032 Y131.756 E17.90152
G1 X113.242 Y131.169 E17.93425
G1 X112.685 Y130.712 E17.95822
G1 X112.341 Y130.4 E17.97366
G1 X92.385 Y130.4 E18.6374
G1 X92.385 Y132.755 E18.71573
G1 X92.348 Y133.493 E18.74031
G1 X92.299 Y133.982 E18.75665
G1 X92.183 Y134.742 E18.78222
G1 X92.016 Y135.397 E18.80471
G1 X91.874 Y135.864 E18.82094
G1 X91.612 Y136.587 E18.84652
G1 X91.314 Y137.211 E18.86952
G1 X91.081 Y137.645 E18.8859
G1 X90.682 Y138.303 E18.9115
G1 X90.267 Y138.856 E18.93449
G1 X89.893 Y139.309 E18.95403
G1 X89.374 Y139.876 E18.9796
G1 X88.579 Y140.554 E19.01435
