;FLAVOR:Marlin
;TIME:2948
;Filament used: 1.61668m
;Layer height: 0.2
;MINX:82.037
;MINY:80.999
;MINZ:0.2
;MAXX:153.381
;MAXY:154.001
;MAXZ:6
;Generated with Cura_SteamEngine 5.2.1
M140 S65
M105
M190 S65
M104 S240
M105
M109 S240
M82 ;absolute extrusion mode
; Ender 3 Custom Start G-code
G92 E0 ; Reset Extruder
G28 ; Home all axes
G1 Z2.0 F3000 ; Move Z Axis up little to prevent scratching of Heat Bed
G1 X0.1 Y20 Z0.3 F5000.0 ; Move to start position
G1 X0.1 Y200.0 Z0.3 F1500.0 E15 ; Draw the first line
G1 X0.4 Y200.0 Z0.3 F5000.0 ; Move to side a little
G1 X0.4 Y20 Z0.3 F1500.0 E30 ; Draw the second line
G92 E0 ; Reset Extruder
G1 Z2.0 F3000 ; Move Z Axis up little to prevent scratching of Heat Bed
G1 X5 Y20 Z0.3 F5000.0 ; Move over to prevent blob squish
G92 E0
G92 E0
G1 F2700 E-5
;LAYER_COUNT:30
;LAYER:0
M107
G0 F6000 X85.247 Y84.554 Z0.2
;TYPE:SKIRT
G1 F2700 E0
G1 F900 X85.751 Y84.06 E0.02347
G1 X86.024 Y83.816 E0.03565
G1 X86.647 Y83.315 E0.06224
G1 X86.948 Y83.097 E0.0746
G1 X87.585 Y82.681 E0.09991
G1 X87.903 Y82.495 E0.11216
G1 X88.574 Y82.145 E0.13733
G1 X88.91 Y81.99 E0.14964
G1 X89.61 Y81.707 E0.17475
G1 X89.963 Y81.584 E0.18718
G1 X90.673 Y81.374 E0.21181
G1 X91.032 Y81.286 E0.2241
G1 X91.777 Y81.142 E0.24934
G1 X92.152 Y81.088 E0.26194
G1 X92.886 Y81.017 E0.28647
G1 X93.257 Y80.999 E0.29882
G1 X94.029 Y81 E0.3245
G1 X94.405 Y81.019 E0.33702
G1 X95.158 Y81.094 E0.36219
G1 X95.528 Y81.149 E0.37463
G1 X96.253 Y81.292 E0.39921
G1 X96.613 Y81.381 E0.41154
G1 X97.339 Y81.598 E0.43675
G1 X97.69 Y81.722 E0.44913
G1 X98.358 Y81.994 E0.47312
G1 X98.692 Y82.148 E0.48535
G1 X99.386 Y82.511 E0.5114
G1 X99.705 Y82.699 E0.52372
G1 X100.34 Y83.116 E0.54898
G1 X100.639 Y83.334 E0.56129
G1 X101.226 Y83.807 E0.58636
G1 X101.496 Y84.047 E0.59838
G1 X102.026 Y84.565 E0.62303
G1 X102.278 Y84.836 E0.63534
G1 X102.775 Y85.427 E0.66102
G1 X102.997 Y85.719 E0.67322
G1 X103.438 Y86.364 E0.69921
G1 X103.628 Y86.674 E0.7113
G1 X104.009 Y87.373 E0.73778
G1 X104.167 Y87.702 E0.74992
G1 X104.461 Y88.4 E0.77511
G1 X104.589 Y88.75 E0.7875
G1 X104.825 Y89.512 E0.81403
G1 X104.914 Y89.863 E0.82608
G1 X105.062 Y90.594 E0.85088
G1 X105.126 Y91.01 E0.86488
G1 X105.207 Y91.796 E0.89116
G1 X105.217 Y92.193 E0.90437
G1 X105.222 Y104.2 E1.30373
G1 X123.777 Y104.2 E1.92087
G1 X124.006 Y103.992 E1.93116
G1 X124.597 Y103.507 E1.95659
G1 X125.388 Y102.92 E1.98935
G1 X126.029 Y102.492 E2.01498
G1 X126.869 Y101.989 E2.04755
G1 X127.538 Y101.631 E2.07279
G1 X128.425 Y101.211 E2.10543
G1 X129.145 Y100.914 E2.13133
G1 X130.071 Y100.584 E2.16403
G1 X130.784 Y100.367 E2.18882
G1 X131.733 Y100.128 E2.22137
G1 X132.496 Y99.976 E2.24724
G1 X133.469 Y99.832 E2.27996
G1 X134.229 Y99.757 E2.30536
G1 X135.208 Y99.709 E2.33796
G1 X135.972 Y99.709 E2.36337
G1 X136.952 Y99.757 E2.396
G1 X137.713 Y99.832 E2.42144
G1 X138.685 Y99.976 E2.45412
G1 X139.445 Y100.128 E2.4799
G1 X140.395 Y100.367 E2.51248
G1 X141.11 Y100.584 E2.53733
G1 X142.036 Y100.914 E2.57003
G1 X142.759 Y101.213 E2.59605
G1 X143.645 Y101.633 E2.62866
G1 X144.308 Y101.987 E2.65366
G1 X145.149 Y102.49 E2.68625
G1 X145.796 Y102.922 E2.71213
G1 X146.585 Y103.508 E2.74482
G1 X147.172 Y103.991 E2.7701
G1 X147.898 Y104.649 E2.80269
G1 X148.439 Y105.189 E2.82811
G1 X149.098 Y105.916 E2.86075
G1 X149.578 Y106.5 E2.88589
G1 X150.164 Y107.288 E2.91855
G1 X150.596 Y107.935 E2.94443
G1 X151.101 Y108.778 E2.97711
G1 X151.464 Y109.458 E3.00275
G1 X151.882 Y110.344 E3.03533
G1 X152.17 Y111.04 E3.06038
G1 X152.502 Y111.966 E3.0931
G1 X152.726 Y112.702 E3.11869
G1 X152.964 Y113.652 E3.15127
G1 X153.114 Y114.404 E3.17677
G1 X153.258 Y115.375 E3.20942
G1 X153.333 Y116.137 E3.23489
G1 X153.381 Y117.117 E3.26752
G1 X153.381 Y117.881 E3.29293
G1 X153.333 Y118.861 E3.32556
G1 X153.258 Y119.621 E3.35096
G1 X153.114 Y120.594 E3.38368
G1 X152.964 Y121.348 E3.40925
G1 X152.726 Y122.298 E3.44182
G1 X152.503 Y123.032 E3.46734
G1 X152.172 Y123.956 E3.49998
G1 X151.883 Y124.654 E3.52511
G1 X151.464 Y125.542 E3.55777
G1 X151.101 Y126.224 E3.58346
G1 X150.597 Y127.065 E3.61607
G1 X150.168 Y127.706 E3.64173
G1 X149.582 Y128.495 E3.67442
G1 X149.099 Y129.082 E3.6997
G1 X148.441 Y129.808 E3.73229
G1 X147.901 Y130.349 E3.75771
G1 X147.174 Y131.008 E3.79035
G1 X146.587 Y131.49 E3.81561
G1 X145.797 Y132.077 E3.84834
G1 X145.149 Y132.51 E3.87427
G1 X144.308 Y133.013 E3.90686
G1 X143.645 Y133.367 E3.93186
G1 X142.759 Y133.787 E3.96447
G1 X142.036 Y134.086 E3.99049
G1 X141.11 Y134.416 E4.02319
G1 X140.395 Y134.633 E4.04804
G1 X139.445 Y134.872 E4.08062
G1 X138.685 Y135.024 E4.1064
G1 X137.713 Y135.168 E4.13908
G1 X136.952 Y135.243 E4.16451
G1 X135.972 Y135.291 E4.19715
G1 X135.208 Y135.291 E4.22256
G1 X134.229 Y135.243 E4.25516
G1 X133.469 Y135.168 E4.28056
G1 X132.496 Y135.024 E4.31327
G1 X131.733 Y134.872 E4.33915
G1 X130.784 Y134.633 E4.3717
G1 X130.071 Y134.416 E4.39649
G1 X129.145 Y134.086 E4.42918
G1 X128.425 Y133.789 E4.45509
G1 X127.538 Y133.369 E4.48773
G1 X126.869 Y133.011 E4.51297
G1 X126.029 Y132.508 E4.54553
G1 X125.388 Y132.08 E4.57117
G1 X124.597 Y131.493 E4.60393
G1 X124.006 Y131.008 E4.62936
G1 X123.777 Y130.8 E4.63965
G1 X105.226 Y130.8 E5.25666
G1 X105.225 Y142.802 E5.65584
G1 X105.185 Y143.591 E5.68212
G1 X105.064 Y144.393 E5.7091
G1 X104.908 Y145.165 E5.73529
G1 X104.818 Y145.516 E5.74734
G1 X104.588 Y146.257 E5.77315
G1 X104.463 Y146.599 E5.78526
G1 X104.137 Y147.361 E5.81283
G1 X103.965 Y147.711 E5.8258
G1 X103.619 Y148.341 E5.8497
G1 X103.441 Y148.632 E5.86105
G1 X102.996 Y149.283 E5.88728
G1 X102.774 Y149.575 E5.89948
G1 X102.267 Y150.176 E5.92563
G1 X102.015 Y150.446 E5.93791
G1 X101.5 Y150.949 E5.96186
G1 X101.226 Y151.193 E5.97406
G1 X100.614 Y151.685 E6.00018
G1 X100.313 Y151.903 E6.01254
G1 X99.676 Y152.319 E6.03784
G1 X99.358 Y152.505 E6.0501
G1 X98.687 Y152.855 E6.07527
G1 X98.351 Y153.01 E6.08757
G1 X97.657 Y153.29 E6.11246
G1 X97.305 Y153.413 E6.12487
G1 X96.584 Y153.627 E6.14988
G1 X96.224 Y153.715 E6.16221
G1 X95.498 Y153.856 E6.18681
G1 X95.128 Y153.91 E6.19924
G1 X94.38 Y153.983 E6.22424
G1 X94.009 Y154.001 E6.23659
G1 X93.253 Y154.001 E6.26174
G1 X92.882 Y153.983 E6.27409
G1 X92.134 Y153.91 E6.29909
G1 X91.764 Y153.856 E6.31153
G1 X91.033 Y153.714 E6.33629
G1 X90.674 Y153.626 E6.34859
G1 X89.964 Y153.416 E6.37321
G1 X89.611 Y153.293 E6.38565
G1 X88.911 Y153.01 E6.41076
G1 X88.575 Y152.855 E6.42307
G1 X87.925 Y152.517 E6.44743
G1 X87.615 Y152.337 E6.45936
G1 X86.954 Y151.907 E6.48558
G1 X86.645 Y151.683 E6.49828
G1 X86.046 Y151.203 E6.52381
G1 X85.78 Y150.967 E6.53563
G1 X85.278 Y150.478 E6.55894
G1 X85.021 Y150.205 E6.57141
G1 X84.501 Y149.593 E6.59812
G1 X84.278 Y149.301 E6.61034
G1 X83.836 Y148.659 E6.63627
G1 X83.645 Y148.349 E6.64838
G1 X83.254 Y147.632 E6.67554
G1 X83.098 Y147.307 E6.68753
G1 X82.82 Y146.654 E6.71114
G1 X82.693 Y146.313 E6.72324
G1 X82.453 Y145.549 E6.74988
G1 X82.362 Y145.198 E6.76194
G1 X82.222 Y144.545 E6.78415
G1 X82.147 Y144.103 E6.79906
G1 X82.054 Y143.319 E6.82532
G1 X82.037 Y142.798 E6.84266
G1 X82.037 Y92.255 E8.52372
G1 X82.122 Y91.105 E8.56208
G1 X82.194 Y90.622 E8.57832
G1 X82.353 Y89.835 E8.60502
G1 X82.443 Y89.484 E8.61708
G1 X82.68 Y88.724 E8.64355
G1 X82.806 Y88.382 E8.65568
G1 X83.094 Y87.702 E8.68024
G1 X83.253 Y87.371 E8.69245
G1 X83.643 Y86.658 E8.71948
G1 X83.837 Y86.343 E8.73179
G1 X84.277 Y85.701 E8.75767
G1 X84.496 Y85.414 E8.76968
G1 X84.995 Y84.824 E8.79538
G1 X85.247 Y84.554 E8.80766
G0 F6000 X85.539 Y84.827
G1 F900 X86.018 Y84.359 E8.82994
G1 X86.291 Y84.115 E8.84212
G1 X86.881 Y83.639 E8.86733
G1 X87.182 Y83.421 E8.87969
G1 X87.787 Y83.026 E8.90372
G1 X88.105 Y82.84 E8.91598
G1 X88.741 Y82.509 E8.93982
G1 X89.077 Y82.354 E8.95213
G1 X89.742 Y82.085 E8.97599
G1 X90.095 Y81.962 E8.98842
G1 X90.768 Y81.763 E9.01176
G1 X91.127 Y81.675 E9.02406
G1 X91.834 Y81.538 E9.04801
G1 X92.209 Y81.484 E9.06061
G1 X92.905 Y81.417 E9.08387
G1 X93.276 Y81.399 E9.09622
G1 X94.008 Y81.399 E9.12057
G1 X94.384 Y81.418 E9.13309
G1 X95.099 Y81.489 E9.15699
G1 X95.469 Y81.544 E9.16943
G1 X96.157 Y81.68 E9.19275
G1 X96.517 Y81.769 E9.20509
G1 X97.206 Y81.976 E9.22902
G1 X97.557 Y82.1 E9.2414
G1 X98.19 Y82.357 E9.26412
G1 X98.524 Y82.511 E9.27635
G1 X99.183 Y82.856 E9.30109
G1 X99.502 Y83.044 E9.31341
G1 X100.105 Y83.44 E9.3374
G1 X100.404 Y83.658 E9.34971
G1 X100.96 Y84.106 E9.37346
G1 X101.23 Y84.346 E9.38548
G1 X101.733 Y84.838 E9.40888
G1 X101.985 Y85.109 E9.42119
G1 X102.457 Y85.669 E9.44555
G1 X102.679 Y85.961 E9.45775
G1 X103.097 Y86.573 E9.4824
G1 X103.287 Y86.883 E9.49449
G1 X103.649 Y87.546 E9.51961
G1 X103.807 Y87.875 E9.53175
G1 X104.086 Y88.537 E9.55565
G1 X104.214 Y88.887 E9.56804
G1 X104.437 Y89.61 E9.59321
G1 X104.526 Y89.961 E9.60525
G1 X104.667 Y90.655 E9.6288
G1 X104.731 Y91.071 E9.6428
G1 X104.817 Y92.193 E9.68023
G1 X104.822 Y104.6 E10.09289
G1 X123.931 Y104.6 E10.72846
G1 X124.275 Y104.288 E10.7439
G1 X124.835 Y103.829 E10.76799
G1 X125.626 Y103.242 E10.80075
G1 X126.234 Y102.835 E10.82508
G1 X127.074 Y102.332 E10.85765
G1 X127.709 Y101.993 E10.88159
G1 X128.596 Y101.573 E10.91423
G1 X129.279 Y101.29 E10.93882
G1 X130.205 Y100.96 E10.97152
G1 X130.882 Y100.755 E10.99504
G1 X131.831 Y100.516 E11.02759
G1 X132.555 Y100.372 E11.05214
G1 X133.528 Y100.228 E11.08486
G1 X134.249 Y100.157 E11.10895
G1 X135.228 Y100.109 E11.14156
G1 X135.952 Y100.109 E11.16564
G1 X136.932 Y100.157 E11.19827
G1 X137.654 Y100.228 E11.2224
G1 X138.626 Y100.372 E11.25508
G1 X139.347 Y100.516 E11.27954
G1 X140.297 Y100.755 E11.31212
G1 X140.976 Y100.96 E11.33571
G1 X141.902 Y101.29 E11.3684
G1 X142.588 Y101.574 E11.3931
G1 X143.474 Y101.994 E11.42571
G1 X144.102 Y102.33 E11.4494
G1 X144.943 Y102.833 E11.48199
G1 X145.557 Y103.243 E11.50655
G1 X146.346 Y103.829 E11.53924
G1 X146.904 Y104.287 E11.56325
G1 X147.63 Y104.945 E11.59584
G1 X148.143 Y105.458 E11.61997
G1 X148.802 Y106.185 E11.6526
G1 X149.257 Y106.739 E11.67645
G1 X149.843 Y107.527 E11.70911
G1 X150.253 Y108.14 E11.73364
G1 X150.758 Y108.983 E11.76632
G1 X151.103 Y109.629 E11.79068
G1 X151.521 Y110.515 E11.82326
G1 X151.794 Y111.175 E11.84702
G1 X152.126 Y112.101 E11.87974
G1 X152.338 Y112.8 E11.90403
G1 X152.576 Y113.75 E11.9366
G1 X152.718 Y114.462 E11.96075
G1 X152.862 Y115.433 E11.9934
G1 X152.933 Y116.157 E12.0176
G1 X152.981 Y117.137 E12.05023
G1 X152.981 Y117.861 E12.07431
G1 X152.933 Y118.841 E12.10694
G1 X152.862 Y119.562 E12.13104
G1 X152.718 Y120.535 E12.16376
G1 X152.576 Y121.25 E12.188
G1 X152.338 Y122.2 E12.22057
G1 X152.126 Y122.898 E12.24484
G1 X151.795 Y123.822 E12.27748
G1 X151.521 Y124.484 E12.30131
G1 X151.102 Y125.372 E12.33397
G1 X150.757 Y126.018 E12.35833
G1 X150.253 Y126.859 E12.39094
G1 X149.847 Y127.467 E12.41525
G1 X149.261 Y128.256 E12.44794
G1 X148.803 Y128.814 E12.47195
G1 X148.145 Y129.54 E12.50454
G1 X147.632 Y130.053 E12.52867
G1 X146.905 Y130.712 E12.56131
G1 X146.348 Y131.169 E12.58527
G1 X145.558 Y131.756 E12.61801
G1 X144.943 Y132.167 E12.64261
G1 X144.102 Y132.67 E12.6752
G1 X143.474 Y133.006 E12.69889
G1 X142.588 Y133.426 E12.7315
G1 X141.902 Y133.71 E12.7562
G1 X140.976 Y134.04 E12.78889
G1 X140.297 Y134.245 E12.81248
G1 X139.347 Y134.484 E12.84506
G1 X138.626 Y134.628 E12.86952
G1 X137.654 Y134.772 E12.9022
G1 X136.932 Y134.843 E12.92633
G1 X135.952 Y134.891 E12.95896
G1 X135.228 Y134.891 E12.98304
G1 X134.249 Y134.843 E13.01565
G1 X133.528 Y134.772 E13.03974
G1 X132.555 Y134.628 E13.07246
G1 X131.831 Y134.484 E13.09701
G1 X130.882 Y134.245 E13.12956
G1 X130.205 Y134.04 E13.15309
G1 X129.279 Y133.71 E13.18578
G1 X128.596 Y133.427 E13.21037
G1 X127.709 Y133.007 E13.24301
G1 X127.074 Y132.668 E13.26695
G1 X126.234 Y132.165 E13.29952
G1 X125.626 Y131.758 E13.32385
G1 X124.835 Y131.171 E13.35662
G1 X124.275 Y130.712 E13.3807
G1 X123.931 Y130.4 E13.39614
G1 X104.826 Y130.4 E14.03158
G1 X104.825 Y142.802 E14.44407
G1 X104.785 Y143.57 E14.46965
G1 X104.669 Y144.334 E14.49535
G1 X104.52 Y145.066 E14.5202
G1 X104.43 Y145.417 E14.53225
G1 X104.212 Y146.119 E14.5567
G1 X104.087 Y146.461 E14.56881
G1 X103.778 Y147.185 E14.59499
G1 X103.606 Y147.535 E14.60796
G1 X103.278 Y148.132 E14.63062
G1 X103.1 Y148.423 E14.64196
G1 X102.678 Y149.041 E14.66685
G1 X102.456 Y149.333 E14.67905
G1 X101.975 Y149.903 E14.70386
G1 X101.723 Y150.173 E14.71614
G1 X101.234 Y150.65 E14.73886
G1 X100.96 Y150.894 E14.75107
G1 X100.38 Y151.361 E14.77583
G1 X100.079 Y151.579 E14.78819
G1 X99.474 Y151.974 E14.81223
G1 X99.156 Y152.16 E14.82448
G1 X98.52 Y152.491 E14.84833
G1 X98.184 Y152.646 E14.86063
G1 X97.525 Y152.913 E14.88428
G1 X97.173 Y153.036 E14.89668
G1 X96.489 Y153.238 E14.92041
G1 X96.129 Y153.326 E14.93273
G1 X95.441 Y153.46 E14.95604
G1 X95.071 Y153.514 E14.96848
G1 X94.361 Y153.583 E14.99221
G1 X93.99 Y153.601 E15.00456
G1 X93.272 Y153.601 E15.02844
G1 X92.901 Y153.583 E15.0408
G1 X92.191 Y153.514 E15.06452
G1 X91.821 Y153.46 E15.07696
G1 X91.128 Y153.325 E15.10044
G1 X90.769 Y153.237 E15.11273
G1 X90.096 Y153.038 E15.13608
G1 X89.743 Y152.915 E15.14851
G1 X89.078 Y152.646 E15.17237
G1 X88.742 Y152.491 E15.18468
G1 X88.126 Y152.171 E15.20776
G1 X87.816 Y151.991 E15.21969
G1 X87.189 Y151.583 E15.24457
G1 X86.88 Y151.359 E15.25726
G1 X86.312 Y150.903 E15.28149
G1 X86.046 Y150.667 E15.29332
G1 X85.569 Y150.204 E15.31542
G1 X85.312 Y149.931 E15.3279
G1 X84.819 Y149.35 E15.35324
G1 X84.596 Y149.058 E15.36546
G1 X84.177 Y148.449 E15.39005
G1 X83.986 Y148.139 E15.40216
G1 X83.615 Y147.459 E15.42792
G1 X83.459 Y147.134 E15.43991
G1 X83.195 Y146.515 E15.46229
G1 X83.068 Y146.174 E15.4744
G1 X82.84 Y145.448 E15.49971
G1 X82.749 Y145.097 E15.51177
G1 X82.616 Y144.478 E15.53282
G1 X82.541 Y144.036 E15.54773
G1 X82.452 Y143.272 E15.57332
G1 X82.437 Y142.798 E15.58909
G1 X82.437 Y92.255 E17.27016
G1 X82.518 Y91.164 E17.30654
G1 X82.59 Y90.681 E17.32279
G1 X82.741 Y89.934 E17.34813
G1 X82.831 Y89.583 E17.36019
G1 X83.055 Y88.863 E17.38527
G1 X83.181 Y88.521 E17.39739
G1 X83.455 Y87.875 E17.42073
G1 X83.614 Y87.544 E17.43294
G1 X83.983 Y86.867 E17.45858
G1 X84.177 Y86.552 E17.47089
G1 X84.595 Y85.944 E17.49543
G1 X84.814 Y85.657 E17.50744
G1 X85.287 Y85.097 E17.53182
G1 X85.539 Y84.827 E17.5441
G0 F6000 X85.832 Y85.1
G1 F900 X86.284 Y84.657 E17.56515
G1 X86.557 Y84.413 E17.57733
G1 X87.116 Y83.963 E17.6012
G1 X87.417 Y83.745 E17.61356
G1 X87.989 Y83.372 E17.63627
G1 X88.307 Y83.186 E17.64852
G1 X88.909 Y82.872 E17.67111
G1 X89.245 Y82.717 E17.68341
G1 X89.874 Y82.463 E17.70598
G1 X90.227 Y82.34 E17.71841
G1 X90.863 Y82.151 E17.74048
G1 X91.222 Y82.063 E17.75277
G1 X91.891 Y81.933 E17.77544
G1 X92.266 Y81.879 E17.78804
G1 X92.925 Y81.816 E17.81006
G1 X93.296 Y81.798 E17.82241
G1 X93.988 Y81.799 E17.84543
G1 X94.364 Y81.818 E17.85795
G1 X95.04 Y81.885 E17.88054
G1 X95.41 Y81.94 E17.89299
G1 X96.061 Y82.069 E17.91506
G1 X96.421 Y82.158 E17.92739
G1 X97.073 Y82.353 E17.95003
G1 X97.424 Y82.477 E17.96241
G1 X98.023 Y82.72 E17.98391
G1 X98.357 Y82.874 E17.99614
G1 X98.98 Y83.2 E18.01953
G1 X99.299 Y83.388 E18.03184
G1 X99.869 Y83.763 E18.05454
G1 X100.168 Y83.981 E18.06684
G1 X100.695 Y84.405 E18.08934
G1 X100.965 Y84.645 E18.10136
G1 X101.44 Y85.11 E18.12346
G1 X101.692 Y85.381 E18.13577
G1 X102.138 Y85.911 E18.15881
G1 X102.36 Y86.203 E18.17101
G1 X102.756 Y86.782 E18.19434
G1 X102.946 Y87.092 E18.20644
G1 X103.288 Y87.72 E18.23022
G1 X103.446 Y88.049 E18.24236
G1 X103.71 Y88.675 E18.26496
G1 X103.838 Y89.025 E18.27735
G1 X104.049 Y89.709 E18.30116
G1 X104.138 Y90.06 E18.3132
G1 X104.272 Y90.716 E18.33547
G1 X104.336 Y91.132 E18.34947
G1 X104.417 Y92.193 E18.38486
