;FLAVOR:Marlin
;TIME:3886
;Filament used: 2.2667m
;Layer height: 0.2
;MINX:65.62
;MINY:49.715
;MINZ:0.2
;MAXX:169.389
;MAXY:185.284
;MAXZ:3
;Generated with Cura_SteamEngine 5.2.1
M140 S65
M105
M190 S65
M104 S240
M105
M109 S240
M82 ;absolute extrusion mode
; Ender 3 Custom Start G-code
G92 E0 ; Reset Extruder
G28 ; Home all axes
G1 Z2.0 F3000 ; Move Z Axis up little to prevent scratching of Heat Bed
G1 X0.1 Y20 Z0.3 F5000.0 ; Move to start position
G1 X0.1 Y200.0 Z0.3 F1500.0 E15 ; Draw the first line
G1 X0.4 Y200.0 Z0.3 F5000.0 ; Move to side a little
G1 X0.4 Y20 Z0.3 F1500.0 E30 ; Draw the second line
G92 E0 ; Reset Extruder
G1 Z2.0 F3000 ; Move Z Axis up little to prevent scratching of Heat Bed
G1 X5 Y20 Z0.3 F5000.0 ; Move over to prevent blob squish
G92 E0
G92 E0
G1 F2700 E-5
;LAYER_COUNT:15
;LAYER:0
M107
G0 F6000 X73.203 Y102.923 Z0.2
;TYPE:SKIRT
G1 F2700 E0
G1 F900 X73.858 Y102.485 E0.02621
G1 X74.699 Y101.983 E0.05878
G1 X75.353 Y101.634 E0.08344
G1 X76.238 Y101.214 E0.11602
G1 X76.957 Y100.916 E0.14191
G1 X77.883 Y100.585 E0.17461
G1 X78.614 Y100.363 E0.20002
G1 X79.565 Y100.125 E0.23263
G1 X80.316 Y99.976 E0.2581
G1 X81.288 Y99.832 E0.29078
G1 X82.049 Y99.757 E0.31621
G1 X83.029 Y99.709 E0.34884
G1 X83.793 Y99.709 E0.37426
G1 X84.772 Y99.757 E0.40686
G1 X85.533 Y99.832 E0.43229
G1 X86.505 Y99.976 E0.46497
G1 X87.258 Y100.126 E0.49051
G1 X88.208 Y100.364 E0.52308
G1 X88.935 Y100.584 E0.54835
G1 X89.862 Y100.915 E0.58108
G1 X90.583 Y101.214 E0.60704
G1 X91.468 Y101.634 E0.63963
G1 X92.118 Y101.981 E0.66413
G1 X92.485 Y102.2 E0.67835
G1 X102.086 Y102.2 E0.99768
G1 X102.875 Y102.24 E1.02395
G1 X103.655 Y102.359 E1.0502
G1 X103.92 Y102.428 E1.05931
G1 X104.142 Y102.369 E1.06695
G1 X104.921 Y102.245 E1.09318
G1 X105.755 Y102.2 E1.12096
G1 X108.337 Y102.2 E1.20684
G1 X108.695 Y101.986 E1.22071
G1 X109.351 Y101.634 E1.24547
G1 X110.238 Y101.213 E1.27813
G1 X110.972 Y100.91 E1.30454
G1 X111.898 Y100.581 E1.33722
G1 X112.604 Y100.367 E1.36176
G1 X113.553 Y100.128 E1.39431
G1 X114.316 Y99.976 E1.42019
G1 X115.289 Y99.832 E1.4529
G1 X116.049 Y99.757 E1.4783
G1 X117.029 Y99.709 E1.51094
G1 X117.793 Y99.709 E1.53635
G1 X118.772 Y99.757 E1.56895
G1 X119.533 Y99.832 E1.59438
G1 X120.505 Y99.976 E1.62706
G1 X121.265 Y100.128 E1.65284
G1 X122.215 Y100.367 E1.68542
G1 X122.921 Y100.58 E1.70995
G1 X123.848 Y100.909 E1.74267
G1 X124.59 Y101.216 E1.76937
G1 X125.475 Y101.637 E1.80197
G1 X126.118 Y101.981 E1.82622
G1 X126.96 Y102.483 E1.85883
G1 X127.622 Y102.925 E1.8853
G1 X128.411 Y103.512 E1.91801
G1 X128.997 Y103.994 E1.94325
G1 X129.224 Y104.2 E1.95344
G1 X146.789 Y104.2 E2.53766
G1 X146.789 Y61.924 E3.94376
G1 X146.812 Y61.18 E3.96852
G1 X146.862 Y60.543 E3.98977
G1 X146.912 Y60.128 E4.00368
G1 X147.005 Y59.542 E4.02341
G1 X147.089 Y59.119 E4.03775
G1 X147.229 Y58.536 E4.0577
G1 X147.339 Y58.143 E4.07127
G1 X147.553 Y57.491 E4.09409
G1 X147.707 Y57.083 E4.1086
G1 X147.935 Y56.541 E4.12816
G1 X148.108 Y56.17 E4.14177
G1 X148.466 Y55.492 E4.16727
G1 X148.678 Y55.134 E4.18111
G1 X149.069 Y54.536 E4.20487
G1 X149.294 Y54.225 E4.21764
G1 X149.72 Y53.688 E4.24044
G1 X149.974 Y53.395 E4.25334
G1 X150.551 Y52.797 E4.28097
G1 X150.829 Y52.538 E4.29361
G1 X151.419 Y52.041 E4.31927
G1 X151.713 Y51.817 E4.33156
G1 X152.424 Y51.334 E4.36015
G1 X152.732 Y51.149 E4.3721
G1 X153.552 Y50.721 E4.40287
G1 X153.877 Y50.575 E4.41472
G1 X154.741 Y50.247 E4.44545
G1 X155.073 Y50.143 E4.45703
G1 X155.949 Y49.923 E4.48707
G1 X156.291 Y49.858 E4.49865
G1 X157.269 Y49.736 E4.53143
G1 X157.611 Y49.715 E4.54282
G1 X158.568 Y49.715 E4.57465
G1 X158.909 Y49.736 E4.58602
G1 X159.886 Y49.858 E4.61876
G1 X160.228 Y49.923 E4.63034
G1 X161.091 Y50.139 E4.65993
G1 X161.425 Y50.243 E4.67157
G1 X162.317 Y50.582 E4.7033
G1 X162.638 Y50.727 E4.71502
G1 X163.44 Y51.147 E4.74513
G1 X163.75 Y51.333 E4.75715
G1 X164.454 Y51.809 E4.78542
G1 X164.749 Y52.033 E4.79774
G1 X165.359 Y52.548 E4.82429
G1 X165.636 Y52.807 E4.8369
G1 X166.191 Y53.382 E4.86348
G1 X166.447 Y53.676 E4.87645
G1 X166.895 Y54.24 E4.90041
G1 X167.124 Y54.558 E4.91344
G1 X167.523 Y55.172 E4.9378
G1 X167.734 Y55.532 E4.95167
G1 X168.077 Y56.186 E4.97624
G1 X168.251 Y56.56 E4.98996
G1 X168.475 Y57.092 E5.00915
G1 X168.619 Y57.473 E5.0227
G1 X168.834 Y58.127 E5.0456
G1 X168.948 Y58.534 E5.05966
G1 X169.086 Y59.112 E5.07942
G1 X169.17 Y59.533 E5.0937
G1 X169.266 Y60.138 E5.11407
G1 X169.317 Y60.567 E5.12844
G1 X169.366 Y61.183 E5.149
G1 X169.389 Y61.923 E5.17362
G1 X169.389 Y173.089 E8.87102
G1 X169.366 Y173.825 E8.89551
G1 X169.317 Y174.434 E8.91583
G1 X169.266 Y174.862 E8.93017
G1 X169.175 Y175.441 E8.94966
G1 X169.092 Y175.864 E8.964
G1 X168.938 Y176.505 E8.98592
G1 X168.822 Y176.911 E8.99997
G1 X168.628 Y177.501 E9.02062
G1 X168.481 Y177.894 E9.03458
G1 X168.226 Y178.497 E9.05636
G1 X168.05 Y178.869 E9.07004
G1 X167.733 Y179.469 E9.09261
G1 X167.529 Y179.818 E9.10606
G1 X167.133 Y180.429 E9.13028
G1 X166.902 Y180.751 E9.14346
G1 X166.43 Y181.345 E9.16869
G1 X166.175 Y181.636 E9.18156
G1 X165.636 Y182.192 E9.20732
G1 X165.359 Y182.451 E9.21993
G1 X164.749 Y182.966 E9.24648
G1 X164.454 Y183.19 E9.2588
G1 X163.753 Y183.665 E9.28696
G1 X163.445 Y183.85 E9.29891
G1 X162.642 Y184.271 E9.32907
G1 X162.319 Y184.417 E9.34086
G1 X161.445 Y184.75 E9.37197
G1 X161.111 Y184.855 E9.38361
G1 X160.207 Y185.081 E9.41461
G1 X159.865 Y185.145 E9.42618
G1 X158.932 Y185.262 E9.45745
G1 X158.591 Y185.284 E9.46882
G1 X157.588 Y185.284 E9.50218
G1 X157.246 Y185.262 E9.51358
G1 X156.312 Y185.145 E9.54488
G1 X155.97 Y185.081 E9.55646
G1 X155.053 Y184.851 E9.5879
G1 X154.721 Y184.746 E9.59948
G1 X153.877 Y184.424 E9.62953
G1 X153.552 Y184.278 E9.64138
G1 X152.716 Y183.84 E9.67277
G1 X152.398 Y183.648 E9.68512
G1 X151.679 Y183.157 E9.71408
G1 X151.386 Y182.932 E9.72637
G1 X150.816 Y182.449 E9.75122
G1 X150.547 Y182.198 E9.76345
G1 X149.992 Y181.624 E9.79001
G1 X149.738 Y181.333 E9.80286
G1 X149.277 Y180.752 E9.82753
G1 X149.038 Y180.419 E9.84116
G1 X148.631 Y179.79 E9.86608
G1 X148.427 Y179.439 E9.87958
G1 X148.098 Y178.808 E9.90325
G1 X147.926 Y178.438 E9.91682
G1 X147.701 Y177.903 E9.93612
G1 X147.552 Y177.508 E9.95016
G1 X147.334 Y176.84 E9.97354
G1 X147.225 Y176.447 E9.9871
G1 X147.094 Y175.899 E10.00584
G1 X147.009 Y175.476 E10.02019
G1 X146.911 Y174.862 E10.04087
G1 X146.86 Y174.434 E10.05521
G1 X146.81 Y173.797 E10.07646
G1 X146.789 Y173.075 E10.10048
G1 X146.788 Y130.8 E11.50655
G1 X129.222 Y130.8 E12.0908
G1 X128.998 Y131.003 E12.10086
G1 X128.413 Y131.485 E12.12607
G1 X127.623 Y132.073 E12.15882
G1 X126.966 Y132.512 E12.1851
G1 X126.124 Y133.015 E12.21773
G1 X125.455 Y133.372 E12.24295
G1 X124.57 Y133.79 E12.2755
G1 X123.869 Y134.08 E12.30073
G1 X122.942 Y134.412 E12.33348
G1 X122.208 Y134.635 E12.359
G1 X121.258 Y134.873 E12.39157
G1 X120.505 Y135.023 E12.41711
G1 X119.533 Y135.167 E12.44979
G1 X118.78 Y135.241 E12.47495
G1 X117.801 Y135.29 E12.50756
G1 X117.021 Y135.29 E12.5335
G1 X116.041 Y135.241 E12.56613
G1 X115.289 Y135.167 E12.59127
G1 X114.316 Y135.023 E12.62398
G1 X113.561 Y134.873 E12.64958
G1 X112.612 Y134.635 E12.68213
G1 X111.884 Y134.414 E12.70743
G1 X110.958 Y134.083 E12.74014
G1 X110.251 Y133.791 E12.76558
G1 X109.364 Y133.372 E12.79821
G1 X108.689 Y133.011 E12.82367
G1 X108.337 Y132.8 E12.83732
G1 X92.484 Y132.8 E13.36459
G1 X92.13 Y133.012 E13.37831
G1 X91.455 Y133.372 E13.40376
G1 X90.57 Y133.79 E13.43631
G1 X89.869 Y134.08 E13.46154
G1 X88.942 Y134.412 E13.49429
G1 X88.208 Y134.635 E13.51981
G1 X87.258 Y134.873 E13.55238
G1 X86.505 Y135.023 E13.57792
G1 X85.533 Y135.167 E13.6106
G1 X84.78 Y135.241 E13.63576
G1 X83.801 Y135.29 E13.66837
G1 X83.021 Y135.29 E13.69431
G1 X82.041 Y135.241 E13.72695
G1 X81.288 Y135.167 E13.75211
G1 X80.316 Y135.023 E13.78479
G1 X79.565 Y134.874 E13.81026
G1 X78.614 Y134.636 E13.84286
G1 X77.876 Y134.411 E13.86853
G1 X76.95 Y134.079 E13.90124
G1 X76.251 Y133.79 E13.9264
G1 X75.366 Y133.372 E13.95895
G1 X74.687 Y133.01 E13.98455
G1 X73.846 Y132.506 E14.01716
G1 X73.208 Y132.079 E14.04269
G1 X72.417 Y131.492 E14.07545
G1 X71.826 Y131.007 E14.10088
G1 X71.099 Y130.348 E14.13352
G1 X70.562 Y129.811 E14.15878
G1 X69.904 Y129.086 E14.19134
G1 X69.412 Y128.486 E14.21715
G1 X68.827 Y127.696 E14.24984
G1 X68.401 Y127.058 E14.27536
G1 X67.898 Y126.217 E14.30795
G1 X67.547 Y125.561 E14.3327
G1 X67.125 Y124.673 E14.3654
G1 X66.82 Y123.937 E14.3919
G1 X66.492 Y123.014 E14.42448
G1 X66.279 Y122.311 E14.44891
G1 X66.039 Y121.36 E14.48153
G1 X65.886 Y120.593 E14.50754
G1 X65.742 Y119.62 E14.54026
G1 X65.667 Y118.853 E14.56589
G1 X65.62 Y117.876 E14.59842
G1 X65.62 Y117.127 E14.62333
G1 X65.667 Y116.147 E14.65597
G1 X65.742 Y115.379 E14.68163
G1 X65.886 Y114.406 E14.71435
G1 X66.04 Y113.637 E14.74043
G1 X66.28 Y112.687 E14.77302
G1 X66.491 Y111.989 E14.79727
G1 X66.819 Y111.065 E14.82989
G1 X67.124 Y110.329 E14.85638
G1 X67.546 Y109.44 E14.88911
G1 X67.9 Y108.778 E14.91408
G1 X68.403 Y107.938 E14.94665
G1 X68.827 Y107.303 E14.97204
G1 X69.412 Y106.513 E15.00474
G1 X69.904 Y105.913 E15.03055
G1 X70.562 Y105.188 E15.06311
G1 X71.099 Y104.651 E15.08837
G1 X71.826 Y103.992 E15.121
G1 X72.412 Y103.511 E15.14622
G1 X73.203 Y102.923 E15.179
G0 F6000 X73.441 Y103.244
G1 F900 X74.063 Y102.829 E15.20387
G1 X74.904 Y102.327 E15.23645
G1 X75.524 Y101.996 E15.25982
G1 X76.409 Y101.576 E15.2924
G1 X77.091 Y101.293 E15.31696
G1 X78.017 Y100.962 E15.34967
G1 X78.711 Y100.751 E15.3738
G1 X79.662 Y100.513 E15.4064
G1 X80.375 Y100.372 E15.43058
G1 X81.347 Y100.228 E15.46326
G1 X82.069 Y100.157 E15.48739
G1 X83.049 Y100.109 E15.52002
G1 X83.773 Y100.109 E15.5441
G1 X84.752 Y100.157 E15.5767
G1 X85.474 Y100.228 E15.60083
G1 X86.446 Y100.372 E15.63351
G1 X87.16 Y100.514 E15.65773
G1 X88.11 Y100.752 E15.6903
G1 X88.8 Y100.961 E15.71428
G1 X89.727 Y101.292 E15.74702
G1 X90.412 Y101.576 E15.77168
G1 X91.297 Y101.996 E15.80426
G1 X91.913 Y102.325 E15.82749
G1 X92.374 Y102.6 E15.84534
G1 X102.086 Y102.6 E16.16837
G1 X102.854 Y102.64 E16.19395
G1 X103.614 Y102.759 E16.21953
G1 X103.918 Y102.84 E16.23
G1 X104.46 Y102.714 E16.2485
G1 X105.223 Y102.619 E16.27408
G1 X105.755 Y102.6 E16.29178
G1 X108.447 Y102.6 E16.38132
G1 X108.9 Y102.329 E16.39888
G1 X109.523 Y101.996 E16.42237
G1 X110.41 Y101.575 E16.45503
G1 X111.106 Y101.287 E16.48008
G1 X112.032 Y100.958 E16.51276
G1 X112.702 Y100.755 E16.53605
G1 X113.651 Y100.516 E16.5686
G1 X114.375 Y100.372 E16.59315
G1 X115.348 Y100.228 E16.62587
G1 X116.069 Y100.157 E16.64996
G1 X117.049 Y100.109 E16.6826
G1 X117.773 Y100.109 E16.70668
G1 X118.752 Y100.157 E16.73928
G1 X119.474 Y100.228 E16.76341
G1 X120.446 Y100.372 E16.79609
G1 X121.167 Y100.516 E16.82054
G1 X122.117 Y100.755 E16.85312
G1 X122.787 Y100.957 E16.8764
G1 X123.714 Y101.286 E16.90912
G1 X124.418 Y101.578 E16.93447
G1 X125.303 Y101.999 E16.96706
G1 X125.913 Y102.325 E16.99007
G1 X126.755 Y102.827 E17.02267
G1 X127.383 Y103.246 E17.04778
G1 X128.172 Y103.833 E17.08049
G1 X128.728 Y104.29 E17.10443
G1 X129.07 Y104.6 E17.11978
G1 X147.189 Y104.6 E17.72242
G1 X147.189 Y61.924 E19.14183
G1 X147.211 Y61.195 E19.16609
G1 X147.259 Y60.591 E19.18624
G1 X147.309 Y60.176 E19.20014
G1 X147.398 Y59.62 E19.21887
G1 X147.482 Y59.197 E19.23321
G1 X147.614 Y58.643 E19.25215
G1 X147.724 Y58.25 E19.26573
G1 X147.927 Y57.632 E19.28736
G1 X148.081 Y57.224 E19.30187
G1 X148.297 Y56.71 E19.32041
G1 X148.47 Y56.339 E19.33403
G1 X148.81 Y55.695 E19.35825
G1 X149.022 Y55.337 E19.37209
G1 X149.394 Y54.77 E19.39464
G1 X149.619 Y54.459 E19.40741
G1 X150.023 Y53.95 E19.42902
G1 X150.277 Y53.657 E19.44192
G1 X150.824 Y53.09 E19.46812
G1 X151.102 Y52.831 E19.48076
G1 X151.661 Y52.359 E19.50509
G1 X151.955 Y52.135 E19.51739
G1 X152.63 Y51.677 E19.54452
G1 X152.938 Y51.492 E19.55647
G1 X153.716 Y51.086 E19.58566
G1 X154.041 Y50.94 E19.59751
G1 X154.861 Y50.628 E19.62669
G1 X155.193 Y50.524 E19.63826
G1 X156.023 Y50.316 E19.66672
G1 X156.365 Y50.251 E19.6783
G1 X157.293 Y50.135 E19.7094
G1 X157.635 Y50.114 E19.7208
G1 X158.544 Y50.114 E19.75103
G1 X158.885 Y50.135 E19.7624
G1 X159.812 Y50.251 E19.79347
G1 X160.154 Y50.316 E19.80505
G1 X160.972 Y50.521 E19.8331
G1 X161.306 Y50.625 E19.84473
G1 X162.152 Y50.946 E19.87483
G1 X162.473 Y51.091 E19.88654
G1 X163.234 Y51.49 E19.91512
G1 X163.544 Y51.676 E19.92714
G1 X164.212 Y52.127 E19.95395
G1 X164.507 Y52.351 E19.96627
G1 X165.086 Y52.84 E19.99148
G1 X165.363 Y53.099 E20.00409
G1 X165.89 Y53.645 E20.02933
G1 X166.146 Y53.939 E20.0423
G1 X166.57 Y54.474 E20.065
G1 X166.799 Y54.792 E20.07804
G1 X167.178 Y55.374 E20.10114
G1 X167.389 Y55.734 E20.11501
G1 X167.714 Y56.355 E20.13833
G1 X167.888 Y56.729 E20.15205
G1 X168.101 Y57.234 E20.17027
G1 X168.245 Y57.615 E20.18382
G1 X168.449 Y58.235 E20.20553
G1 X168.563 Y58.642 E20.21959
G1 X168.694 Y59.19 E20.23833
G1 X168.778 Y59.611 E20.25261
G1 X168.869 Y60.185 E20.27194
G1 X168.92 Y60.614 E20.28631
G1 X168.966 Y61.199 E20.30582
G1 X168.989 Y61.923 E20.32992
G1 X168.989 Y173.089 E24.02731
G1 X168.966 Y173.809 E24.05127
G1 X168.92 Y174.387 E24.07056
G1 X168.869 Y174.815 E24.08489
G1 X168.783 Y175.364 E24.10338
G1 X168.7 Y175.787 E24.11771
G1 X168.553 Y176.395 E24.13852
G1 X168.437 Y176.801 E24.15256
G1 X168.253 Y177.361 E24.17217
G1 X168.106 Y177.754 E24.18612
G1 X167.864 Y178.326 E24.20678
G1 X167.688 Y178.698 E24.22047
G1 X167.388 Y179.267 E24.24186
G1 X167.184 Y179.616 E24.25531
G1 X166.808 Y180.196 E24.2783
G1 X166.577 Y180.518 E24.29148
G1 X166.13 Y181.081 E24.31539
G1 X165.875 Y181.372 E24.32826
G1 X165.363 Y181.9 E24.35272
G1 X165.086 Y182.159 E24.36533
G1 X164.507 Y182.648 E24.39054
G1 X164.212 Y182.872 E24.40286
G1 X163.547 Y183.322 E24.42956
G1 X163.239 Y183.507 E24.44151
G1 X162.477 Y183.906 E24.47012
G1 X162.154 Y184.052 E24.48191
G1 X161.325 Y184.368 E24.51142
G1 X160.991 Y184.473 E24.52306
G1 X160.133 Y184.688 E24.55248
G1 X159.791 Y184.752 E24.56406
G1 X158.906 Y184.863 E24.59372
G1 X158.565 Y184.885 E24.60509
G1 X157.614 Y184.885 E24.63672
G1 X157.272 Y184.863 E24.64812
G1 X156.386 Y184.752 E24.67782
G1 X156.044 Y184.688 E24.68939
G1 X155.174 Y184.47 E24.71922
G1 X154.842 Y184.365 E24.7308
G1 X154.041 Y184.059 E24.75932
G1 X153.716 Y183.913 E24.77117
G1 X152.923 Y183.498 E24.80094
G1 X152.605 Y183.306 E24.81329
G1 X151.923 Y182.84 E24.84077
G1 X151.63 Y182.615 E24.85305
G1 X151.089 Y182.156 E24.87665
G1 X150.82 Y181.905 E24.88889
G1 X150.293 Y181.361 E24.91408
G1 X150.039 Y181.07 E24.92693
G1 X149.602 Y180.519 E24.95032
G1 X149.363 Y180.186 E24.96395
G1 X148.977 Y179.589 E24.9876
G1 X148.773 Y179.238 E25.0011
G1 X148.461 Y178.639 E25.02356
G1 X148.289 Y178.269 E25.03713
G1 X148.075 Y177.762 E25.05544
G1 X147.926 Y177.367 E25.06948
G1 X147.719 Y176.733 E25.09166
G1 X147.61 Y176.34 E25.10522
G1 X147.486 Y175.82 E25.123
G1 X147.401 Y175.397 E25.13735
G1 X147.308 Y174.815 E25.15696
G1 X147.257 Y174.387 E25.17129
G1 X147.21 Y173.782 E25.19148
G1 X147.189 Y173.075 E25.215
G1 X147.188 Y130.4 E26.63438
G1 X129.068 Y130.4 E27.23705
G1 X128.73 Y130.707 E27.25224
G1 X128.174 Y131.164 E27.27618
G1 X127.384 Y131.752 E27.30893
G1 X126.761 Y132.169 E27.33387
G1 X125.919 Y132.672 E27.36649
G1 X125.284 Y133.01 E27.39041
G1 X124.399 Y133.428 E27.42297
G1 X123.734 Y133.704 E27.44691
G1 X122.807 Y134.036 E27.47966
G1 X122.11 Y134.247 E27.50389
G1 X121.16 Y134.485 E27.53646
G1 X120.446 Y134.627 E27.56067
G1 X119.474 Y134.771 E27.59335
G1 X118.76 Y134.842 E27.61722
G1 X117.781 Y134.891 E27.64982
G1 X117.041 Y134.891 E27.67443
G1 X116.061 Y134.842 E27.70707
G1 X115.348 Y134.771 E27.7309
G1 X114.375 Y134.627 E27.76362
