;FLAVOR:Marlin
;TIME:2961
;Filament used: 1.77556m
;Layer height: 0.2
;MINX:82.61
;MINY:49.715
;MINZ:0.2
;MAXX:152.38
;MAXY:185.286
;MAXZ:8
;Generated with Cura_SteamEngine 5.2.1
M140 S65
M105
M190 S65
M104 S240
M105
M109 S240
M82 ;absolute extrusion mode
; Ender 3 Custom Start G-code
G92 E0 ; Reset Extruder
G28 ; Home all axes
G1 Z2.0 F3000 ; Move Z Axis up little to prevent scratching of Heat Bed
G1 X0.1 Y20 Z0.3 F5000.0 ; Move to start position
G1 X0.1 Y200.0 Z0.3 F1500.0 E15 ; Draw the first line
G1 X0.4 Y200.0 Z0.3 F5000.0 ; Move to side a little
G1 X0.4 Y20 Z0.3 F1500.0 E30 ; Draw the second line
G92 E0 ; Reset Extruder
G1 Z2.0 F3000 ; Move Z Axis up little to prevent scratching of Heat Bed
G1 X5 Y20 Z0.3 F5000.0 ; Move over to prevent blob squish
G92 E0
G92 E0
G1 F2700 E-5
;LAYER_COUNT:40
;LAYER:0
M107
G0 F6000 X84.657 Y55.167 Z0.2
;TYPE:SKIRT
G1 F2700 E0
G1 F900 X85.061 Y54.549 E0.02456
G1 X85.293 Y54.228 E0.03773
G1 X85.739 Y53.668 E0.06154
G1 X85.993 Y53.377 E0.07439
G1 X86.541 Y52.809 E0.10064
G1 X86.819 Y52.549 E0.1133
G1 X87.407 Y52.052 E0.13891
G1 X87.701 Y51.827 E0.15122
G1 X88.441 Y51.325 E0.18096
G1 X88.749 Y51.141 E0.19289
G1 X89.536 Y50.729 E0.22244
G1 X89.859 Y50.583 E0.23423
G1 X90.733 Y50.25 E0.26534
G1 X91.067 Y50.145 E0.27698
G1 X91.971 Y49.919 E0.30797
G1 X92.313 Y49.855 E0.31955
G1 X93.263 Y49.737 E0.35139
G1 X93.616 Y49.715 E0.36315
G1 X94.62 Y49.717 E0.39654
G1 X94.95 Y49.739 E0.40754
G1 X95.866 Y49.855 E0.43825
G1 X96.208 Y49.919 E0.44983
G1 X97.119 Y50.147 E0.48106
G1 X97.452 Y50.252 E0.49267
G1 X98.309 Y50.579 E0.52318
G1 X98.631 Y50.724 E0.53493
G1 X99.441 Y51.148 E0.56534
G1 X99.761 Y51.34 E0.57775
G1 X100.487 Y51.833 E0.60694
G1 X100.772 Y52.051 E0.61887
G1 X101.371 Y52.559 E0.64499
G1 X101.648 Y52.819 E0.65763
G1 X102.178 Y53.367 E0.68299
G1 X102.432 Y53.657 E0.69581
G1 X102.897 Y54.242 E0.72066
G1 X103.135 Y54.573 E0.73422
G1 X103.537 Y55.193 E0.7588
G1 X103.735 Y55.532 E0.77186
G1 X104.058 Y56.146 E0.79493
G1 X104.233 Y56.518 E0.8086
G1 X104.476 Y57.093 E0.82937
G1 X104.629 Y57.5 E0.84383
G1 X104.839 Y58.143 E0.86633
G1 X104.949 Y58.536 E0.8799
G1 X105.088 Y59.115 E0.89971
G1 X105.172 Y59.537 E0.91402
G1 X105.267 Y60.139 E0.93429
G1 X105.318 Y60.568 E0.94866
G1 X105.367 Y61.185 E0.96924
G1 X105.39 Y61.925 E0.99387
G1 X105.391 Y104.2 E2.39994
G1 X122.775 Y104.2 E2.97813
G1 X123.001 Y103.995 E2.98828
G1 X123.601 Y103.503 E3.01409
G1 X124.392 Y102.917 E3.04683
G1 X125.028 Y102.492 E3.07227
G1 X125.868 Y101.989 E3.10484
G1 X126.55 Y101.625 E3.13055
G1 X127.437 Y101.207 E3.16316
G1 X128.127 Y100.922 E3.18799
G1 X129.052 Y100.59 E3.22068
G1 X129.791 Y100.365 E3.24637
G1 X130.741 Y100.127 E3.27895
G1 X131.495 Y99.977 E3.30452
G1 X132.468 Y99.833 E3.33723
G1 X133.22 Y99.759 E3.36236
G1 X134.199 Y99.71 E3.39497
G1 X134.979 Y99.71 E3.42091
G1 X135.959 Y99.759 E3.45354
G1 X136.712 Y99.833 E3.47871
G1 X137.684 Y99.977 E3.51139
G1 X138.437 Y100.127 E3.53693
G1 X139.387 Y100.365 E3.5695
G1 X140.123 Y100.589 E3.59509
G1 X141.049 Y100.921 E3.62781
G1 X141.745 Y101.209 E3.65286
G1 X142.631 Y101.627 E3.68544
G1 X143.307 Y101.987 E3.71092
G1 X144.148 Y102.49 E3.74351
G1 X144.79 Y102.918 E3.76917
G1 X145.579 Y103.503 E3.80184
G1 X146.175 Y103.994 E3.82753
G1 X146.901 Y104.653 E3.86014
G1 X147.438 Y105.189 E3.88537
G1 X148.097 Y105.916 E3.91801
G1 X148.577 Y106.5 E3.94315
G1 X149.163 Y107.288 E3.97581
G1 X149.597 Y107.938 E4.00181
G1 X150.102 Y108.782 E4.03452
G1 X150.463 Y109.459 E4.06004
G1 X150.881 Y110.345 E4.09262
G1 X151.168 Y111.038 E4.11757
G1 X151.5 Y111.963 E4.15026
G1 X151.726 Y112.704 E4.17602
G1 X151.964 Y113.655 E4.20863
G1 X152.112 Y114.402 E4.23396
G1 X152.256 Y115.371 E4.26654
G1 X152.332 Y116.137 E4.29214
G1 X152.38 Y117.118 E4.32481
G1 X152.38 Y117.88 E4.35016
G1 X152.332 Y118.861 E4.38282
G1 X152.257 Y119.624 E4.40832
G1 X152.113 Y120.595 E4.44097
G1 X151.964 Y121.345 E4.4664
G1 X151.726 Y122.296 E4.49901
G1 X151.502 Y123.032 E4.5246
G1 X151.171 Y123.956 E4.55724
G1 X150.881 Y124.658 E4.58251
G1 X150.462 Y125.545 E4.61513
G1 X150.102 Y126.219 E4.64055
G1 X149.598 Y127.061 E4.67319
G1 X149.167 Y127.706 E4.69899
G1 X148.581 Y128.495 E4.73168
G1 X148.098 Y129.082 E4.75696
G1 X147.44 Y129.808 E4.78955
G1 X146.904 Y130.345 E4.81478
G1 X146.177 Y131.005 E4.84744
G1 X145.581 Y131.495 E4.8731
G1 X144.791 Y132.081 E4.90582
G1 X144.148 Y132.51 E4.93153
G1 X143.307 Y133.013 E4.96412
G1 X142.631 Y133.373 E4.98959
G1 X141.745 Y133.791 E5.02218
G1 X141.049 Y134.079 E5.04723
G1 X140.123 Y134.411 E5.07995
G1 X139.387 Y134.635 E5.10554
G1 X138.437 Y134.873 E5.13811
G1 X137.692 Y135.022 E5.16338
G1 X136.72 Y135.167 E5.19607
G1 X135.951 Y135.243 E5.22177
G1 X134.971 Y135.291 E5.2544
G1 X134.207 Y135.291 E5.27981
G1 X133.228 Y135.243 E5.31241
G1 X132.46 Y135.167 E5.33808
G1 X131.487 Y135.022 E5.3708
G1 X130.741 Y134.873 E5.3961
G1 X129.791 Y134.635 E5.42868
G1 X129.052 Y134.41 E5.45437
G1 X128.127 Y134.078 E5.48706
G1 X127.437 Y133.793 E5.51189
G1 X126.55 Y133.375 E5.5445
G1 X125.868 Y133.011 E5.57021
G1 X125.028 Y132.508 E5.60278
G1 X124.392 Y132.083 E5.62822
G1 X123.601 Y131.497 E5.66096
G1 X123.001 Y131.005 E5.68677
G1 X122.775 Y130.8 E5.69692
G1 X105.39 Y130.8 E6.27515
G1 X105.39 Y173.092 E7.68178
G1 X105.367 Y173.827 E7.70624
G1 X105.318 Y174.431 E7.7264
G1 X105.267 Y174.86 E7.74077
G1 X105.18 Y175.422 E7.75968
G1 X105.101 Y175.83 E7.7735
G1 X104.946 Y176.48 E7.79573
G1 X104.826 Y176.902 E7.81032
G1 X104.625 Y177.512 E7.83168
G1 X104.477 Y177.906 E7.84568
G1 X104.233 Y178.483 E7.86652
G1 X104.058 Y178.855 E7.88019
G1 X103.72 Y179.495 E7.90426
G1 X103.509 Y179.853 E7.91808
G1 X103.118 Y180.452 E7.94188
G1 X102.894 Y180.763 E7.95462
G1 X102.431 Y181.345 E7.97936
G1 X102.176 Y181.636 E7.99223
G1 X101.648 Y182.182 E8.01749
G1 X101.371 Y182.442 E8.03013
G1 X100.737 Y182.977 E8.05772
G1 X100.442 Y183.2 E8.07002
G1 X99.77 Y183.655 E8.09701
G1 X99.462 Y183.841 E8.10898
G1 X98.616 Y184.284 E8.14074
G1 X98.292 Y184.429 E8.15255
G1 X97.431 Y184.754 E8.18316
G1 X97.098 Y184.858 E8.19476
G1 X96.251 Y185.072 E8.22381
G1 X95.909 Y185.138 E8.2354
G1 X94.896 Y185.265 E8.26936
G1 X94.544 Y185.286 E8.28108
G1 X93.587 Y185.284 E8.31291
G1 X93.255 Y185.263 E8.32398
G1 X92.265 Y185.137 E8.35717
G1 X91.924 Y185.071 E8.36872
G1 X91.087 Y184.86 E8.39743
G1 X90.753 Y184.756 E8.40907
G1 X89.878 Y184.425 E8.44018
G1 X89.555 Y184.28 E8.45196
G1 X88.717 Y183.841 E8.48342
G1 X88.409 Y183.655 E8.49539
G1 X87.727 Y183.193 E8.52279
G1 X87.433 Y182.97 E8.53506
G1 X86.819 Y182.452 E8.56178
G1 X86.541 Y182.192 E8.57444
G1 X85.995 Y181.627 E8.60057
G1 X85.739 Y181.334 E8.61352
G1 X85.286 Y180.764 E8.63773
G1 X85.056 Y180.445 E8.65081
G1 X84.649 Y179.819 E8.67565
G1 X84.438 Y179.458 E8.68955
G1 X84.1 Y178.812 E8.7138
G1 X83.933 Y178.453 E8.72697
G1 X83.71 Y177.923 E8.7461
G1 X83.556 Y177.516 E8.76057
G1 X83.329 Y176.821 E8.78489
G1 X83.217 Y176.413 E8.79896
G1 X83.091 Y175.881 E8.81714
G1 X83.009 Y175.472 E8.83102
G1 X82.912 Y174.862 E8.85156
G1 X82.861 Y174.434 E8.8659
G1 X82.811 Y173.798 E8.88712
G1 X82.79 Y173.076 E8.91114
G1 X82.789 Y124.533 E10.52569
G1 X82.718 Y124.187 E10.53744
G1 X82.637 Y123.402 E10.56368
G1 X82.61 Y122.5 E10.5937
G1 X82.61 Y112.5 E10.9263
G1 X82.627 Y112.172 E10.93722
G1 X82.627 Y111.984 E10.94348
G1 X82.669 Y111.196 E10.96972
G1 X82.79 Y110.415 E10.99601
G1 X82.79 Y61.911 E12.60926
G1 X82.812 Y61.194 E12.63312
G1 X82.861 Y60.57 E12.65393
G1 X82.912 Y60.141 E12.6683
G1 X83.006 Y59.546 E12.68834
G1 X83.09 Y59.122 E12.70271
G1 X83.236 Y58.512 E12.72358
G1 X83.351 Y58.106 E12.73761
G1 X83.56 Y57.473 E12.75978
G1 X83.709 Y57.079 E12.77379
G1 X83.936 Y56.542 E12.79318
G1 X84.109 Y56.171 E12.8068
G1 X84.452 Y55.516 E12.83139
G1 X84.657 Y55.167 E12.84485
G0 F6000 X85.002 Y55.37
G1 F900 X85.385 Y54.783 E12.86817
G1 X85.617 Y54.462 E12.88134
G1 X86.04 Y53.931 E12.90392
G1 X86.294 Y53.64 E12.91677
G1 X86.814 Y53.101 E12.94168
G1 X87.092 Y52.841 E12.95434
G1 X87.65 Y52.369 E12.97864
G1 X87.944 Y52.144 E12.99096
G1 X88.646 Y51.668 E13.01917
G1 X88.954 Y51.484 E13.0311
G1 X89.701 Y51.094 E13.05913
G1 X90.024 Y50.948 E13.07092
G1 X90.853 Y50.632 E13.10043
G1 X91.187 Y50.527 E13.11207
G1 X92.045 Y50.312 E13.14149
G1 X92.387 Y50.248 E13.15306
G1 X93.288 Y50.136 E13.18326
G1 X93.641 Y50.114 E13.19502
G1 X94.593 Y50.116 E13.22669
G1 X94.923 Y50.138 E13.23769
G1 X95.792 Y50.248 E13.26682
G1 X96.134 Y50.312 E13.27839
G1 X96.998 Y50.529 E13.30802
G1 X97.331 Y50.634 E13.31964
G1 X98.144 Y50.944 E13.34858
G1 X98.466 Y51.089 E13.36032
G1 X99.235 Y51.491 E13.38918
G1 X99.555 Y51.683 E13.40159
G1 X100.244 Y52.15 E13.42928
G1 X100.529 Y52.368 E13.44121
G1 X101.097 Y52.85 E13.46599
G1 X101.374 Y53.11 E13.47863
G1 X101.877 Y53.63 E13.50269
G1 X102.131 Y53.92 E13.51551
G1 X102.572 Y54.476 E13.53911
G1 X102.81 Y54.807 E13.55267
G1 X103.192 Y55.395 E13.57599
G1 X103.39 Y55.734 E13.58905
G1 X103.696 Y56.316 E13.61092
G1 X103.871 Y56.688 E13.6246
G1 X104.102 Y57.234 E13.64431
G1 X104.255 Y57.641 E13.65878
G1 X104.454 Y58.25 E13.68009
G1 X104.564 Y58.643 E13.69366
G1 X104.696 Y59.193 E13.71247
G1 X104.78 Y59.615 E13.72678
G1 X104.87 Y60.186 E13.74601
G1 X104.921 Y60.615 E13.76038
G1 X104.967 Y61.201 E13.77993
G1 X104.99 Y61.925 E13.80402
G1 X104.991 Y104.6 E15.2234
G1 X122.93 Y104.6 E15.82005
G1 X123.27 Y104.291 E15.83533
G1 X123.839 Y103.824 E15.85981
G1 X124.63 Y103.238 E15.89256
G1 X125.233 Y102.835 E15.91668
G1 X126.073 Y102.332 E15.94924
G1 X126.72 Y101.987 E15.97363
G1 X127.607 Y101.569 E16.00624
G1 X128.262 Y101.298 E16.02982
G1 X129.187 Y100.966 E16.06251
G1 X129.889 Y100.753 E16.08691
G1 X130.839 Y100.515 E16.11948
G1 X131.554 Y100.373 E16.14373
G1 X132.527 Y100.229 E16.17644
G1 X133.24 Y100.158 E16.20027
G1 X134.219 Y100.109 E16.23288
G1 X134.959 Y100.109 E16.25749
G1 X135.939 Y100.158 E16.29012
G1 X136.653 Y100.229 E16.31399
G1 X137.625 Y100.373 E16.34667
G1 X138.339 Y100.515 E16.37088
G1 X139.289 Y100.753 E16.40346
G1 X139.988 Y100.965 E16.42775
G1 X140.914 Y101.297 E16.46047
G1 X141.574 Y101.57 E16.48423
G1 X142.46 Y101.988 E16.51681
G1 X143.101 Y102.33 E16.54097
G1 X143.942 Y102.833 E16.57357
G1 X144.551 Y103.24 E16.59793
G1 X145.34 Y103.825 E16.6306
G1 X145.907 Y104.29 E16.65499
G1 X146.633 Y104.949 E16.6876
G1 X147.142 Y105.458 E16.71154
G1 X147.801 Y106.185 E16.74418
G1 X148.256 Y106.739 E16.76802
G1 X148.842 Y107.527 E16.80068
G1 X149.254 Y108.143 E16.82533
G1 X149.759 Y108.987 E16.85804
G1 X150.102 Y109.63 E16.88228
G1 X150.52 Y110.516 E16.91486
G1 X150.792 Y111.173 E16.93852
G1 X151.124 Y112.098 E16.9712
G1 X151.338 Y112.801 E16.99564
G1 X151.576 Y113.752 E17.02825
G1 X151.717 Y114.461 E17.05229
G1 X151.861 Y115.43 E17.08488
G1 X151.932 Y116.156 E17.10914
G1 X151.98 Y117.137 E17.1418
G1 X151.98 Y117.861 E17.16589
G1 X151.932 Y118.842 E17.19855
G1 X151.861 Y119.566 E17.22275
G1 X151.717 Y120.537 E17.2554
G1 X151.576 Y121.248 E17.27951
G1 X151.338 Y122.199 E17.31211
G1 X151.125 Y122.898 E17.33642
G1 X150.794 Y123.822 E17.36906
G1 X150.519 Y124.487 E17.393
G1 X150.1 Y125.374 E17.42562
G1 X149.758 Y126.014 E17.44976
G1 X149.254 Y126.856 E17.4824
G1 X148.846 Y127.467 E17.50683
G1 X148.26 Y128.256 E17.53952
G1 X147.802 Y128.814 E17.56353
G1 X147.144 Y129.54 E17.59612
G1 X146.635 Y130.049 E17.62006
G1 X145.908 Y130.709 E17.65272
G1 X145.343 Y131.173 E17.67704
G1 X144.553 Y131.759 E17.70975
G1 X143.942 Y132.167 E17.73419
G1 X143.101 Y132.67 E17.76678
G1 X142.46 Y133.012 E17.79095
G1 X141.574 Y133.43 E17.82353
G1 X140.914 Y133.703 E17.84728
G1 X139.988 Y134.035 E17.88
G1 X139.289 Y134.247 E17.9043
G1 X138.339 Y134.485 E17.93687
G1 X137.633 Y134.626 E17.96082
G1 X136.661 Y134.771 E17.9935
G1 X135.931 Y134.843 E18.0179
G1 X134.951 Y134.891 E18.05054
G1 X134.227 Y134.891 E18.07462
G1 X133.248 Y134.843 E18.10722
G1 X132.519 Y134.771 E18.13158
G1 X131.546 Y134.626 E18.1643
G1 X130.839 Y134.485 E18.18828
G1 X129.889 Y134.247 E18.22085
G1 X129.187 Y134.034 E18.24525
G1 X128.262 Y133.702 E18.27794
G1 X127.607 Y133.431 E18.30152
G1 X126.72 Y133.013 E18.33413
G1 X126.073 Y132.668 E18.35852
G1 X125.233 Y132.165 E18.39108
G1 X124.63 Y131.762 E18.4152
G1 X123.839 Y131.176 E18.44795
G1 X123.27 Y130.709 E18.47243
G1 X122.93 Y130.4 E18.48771
G1 X104.99 Y130.4 E19.0844
G1 X104.99 Y173.092 E20.50434
G1 X104.967 Y173.811 E20.52826
G1 X104.921 Y174.384 E20.54738
G1 X104.87 Y174.813 E20.56175
G1 X104.787 Y175.346 E20.57969
G1 X104.708 Y175.754 E20.59352
G1 X104.561 Y176.371 E20.61461
G1 X104.441 Y176.793 E20.6292
G1 X104.25 Y177.371 E20.64945
G1 X104.102 Y177.765 E20.66345
G1 X103.871 Y178.313 E20.68323
G1 X103.696 Y178.685 E20.6969
G1 X103.375 Y179.292 E20.71974
G1 X103.164 Y179.65 E20.73356
G1 X102.794 Y180.218 E20.75611
G1 X102.57 Y180.529 E20.76886
G1 X102.131 Y181.081 E20.79231
G1 X101.876 Y181.372 E20.80518
G1 X101.374 Y181.891 E20.8292
G1 X101.097 Y182.151 E20.84183
G1 X100.495 Y182.658 E20.86801
G1 X100.2 Y182.881 E20.88031
G1 X99.563 Y183.313 E20.90591
G1 X99.255 Y183.499 E20.91788
G1 X98.453 Y183.918 E20.94797
G1 X98.129 Y184.063 E20.95978
G1 X97.312 Y184.373 E20.98884
G1 X96.979 Y184.477 E21.00045
G1 X96.175 Y184.679 E21.02802
G1 X95.833 Y184.745 E21.0396
G1 X94.872 Y184.866 E21.07182
G1 X94.52 Y184.887 E21.08355
G1 X93.612 Y184.885 E21.11375
G1 X93.28 Y184.864 E21.12481
G1 X92.341 Y184.744 E21.1563
G1 X92 Y184.678 E21.16785
G1 X91.206 Y184.478 E21.19508
G1 X90.872 Y184.374 E21.20672
G1 X90.041 Y184.06 E21.23626
G1 X89.718 Y183.915 E21.24804
G1 X88.924 Y183.499 E21.27785
G1 X88.616 Y183.313 E21.28982
G1 X87.969 Y182.874 E21.31583
G1 X87.675 Y182.651 E21.3281
G1 X87.092 Y182.16 E21.35345
G1 X86.814 Y181.9 E21.36611
G1 X86.296 Y181.364 E21.3909
G1 X86.04 Y181.071 E21.40384
G1 X85.611 Y180.53 E21.42681
G1 X85.381 Y180.211 E21.43989
G1 X84.994 Y179.617 E21.46347
G1 X84.783 Y179.256 E21.47738
G1 X84.462 Y178.643 E21.50039
G1 X84.295 Y178.284 E21.51356
G1 X84.084 Y177.782 E21.53167
G1 X83.93 Y177.375 E21.54615
G1 X83.715 Y176.715 E21.56923
G1 X83.603 Y176.307 E21.5833
G1 X83.483 Y175.803 E21.60054
G1 X83.401 Y175.394 E21.61441
G1 X83.309 Y174.815 E21.63391
G1 X83.258 Y174.387 E21.64825
G1 X83.211 Y173.783 E21.6684
G1 X83.19 Y173.076 E21.69192
G1 X83.189 Y124.518 E23.30697
G1 X83.076 Y123.849 E23.32953
G1 X83.027 Y123 E23.35782
G1 X83.027 Y122.795 E23.36464
G1 X83.01 Y122.5 E23.37446
G1 X83.01 Y112.5 E23.70706
G1 X83.027 Y112.181 E23.71769
G1 X83.027 Y111.985 E23.72421
G1 X83.069 Y111.217 E23.74979
G1 X83.19 Y110.458 E23.77535
G1 X83.19 Y61.911 E25.39003
G1 X83.211 Y61.209 E25.41339
G1 X83.258 Y60.617 E25.43314
G1 X83.309 Y60.188 E25.44751
G1 X83.398 Y59.624 E25.4665
G1 X83.482 Y59.2 E25.48088
G1 X83.621 Y58.621 E25.50069
G1 X83.736 Y58.215 E25.51472
G1 X83.934 Y57.614 E25.53577
G1 X84.083 Y57.22 E25.54978
G1 X84.298 Y56.711 E25.56815
G1 X84.471 Y56.34 E25.58177
G1 X84.797 Y55.719 E25.6051
G1 X85.002 Y55.37 E25.61856
G0 F6000 X85.347 Y55.573
G1 F900 X85.71 Y55.018 E25.64062
G1 X85.942 Y54.697 E25.65379
G1 X86.341 Y54.194 E25.67514
G1 X86.595 Y53.903 E25.68799
G1 X87.088 Y53.394 E25.71156
G1 X87.366 Y53.134 E25.72422
G1 X87.893 Y52.687 E25.7472
G1 X88.187 Y52.462 E25.75952
G1 X88.851 Y52.012 E25.7862
G1 X89.159 Y51.828 E25.79813
G1 X89.866 Y51.458 E25.82467
G1 X90.189 Y51.312 E25.83646
G1 X90.973 Y51.013 E25.86437
G1 X91.307 Y50.908 E25.87601
G1 X92.118 Y50.705 E25.90382
G1 X92.46 Y50.641 E25.91539
G1 X93.313 Y50.536 E25.94398
G1 X93.666 Y50.514 E25.95574
G1 X94.567 Y50.516 E25.98571
G1 X94.897 Y50.538 E25.99671
G1 X95.719 Y50.641 E26.02426
G1 X96.061 Y50.705 E26.03583
G1 X96.878 Y50.91 E26.06385
