;FLAVOR:Marlin
;TIME:2809
;Filament used: 1.78925m
;Layer height: 0.2
;MINX:78.5
;MINY:55
;MINZ:0.2
;MAXX:156.5
;MAXY:180
;MAXZ:3
;Generated with Cura_SteamEngine 5.2.1
M140 S65
M105
M190 S65
M104 S240
M105
M109 S240
M82 ;absolute extrusion mode
; Ender 3 Custom Start G-code
G92 E0 ; Reset Extruder
G28 ; Home all axes
G1 Z2.0 F3000 ; Move Z Axis up little to prevent scratching of Heat Bed
G1 X0.1 Y20 Z0.3 F5000.0 ; Move to start position
G1 X0.1 Y200.0 Z0.3 F1500.0 E15 ; Draw the first line
G1 X0.4 Y200.0 Z0.3 F5000.0 ; Move to side a little
G1 X0.4 Y20 Z0.3 F1500.0 E30 ; Draw the second line
G92 E0 ; Reset Extruder
G1 Z2.0 F3000 ; Move Z Axis up little to prevent scratching of Heat Bed
G1 X5 Y20 Z0.3 F5000.0 ; Move over to prevent blob squish
G92 E0
G92 E0
G1 F2700 E-5
;LAYER_COUNT:15
;LAYER:0
M107
G0 F6000 X79.897 Y58.346 Z0.2
;TYPE:SKIRT
G1 F2700 E0
G1 F900 X80.38 Y57.722 E0.02625
G1 X80.923 Y57.149 E0.0525
G1 X81.522 Y56.634 E0.07878
G1 X82.17 Y56.183 E0.10503
G1 X82.861 Y55.799 E0.13133
G1 X83.586 Y55.487 E0.15758
G1 X84.339 Y55.25 E0.18383
G1 X85.113 Y55.091 E0.21012
G1 X85.898 Y55.01 E0.23636
G1 X86.3 Y55 E0.24974
G1 X148.7 Y55 E2.32517
G1 X149.489 Y55.04 E2.35145
G1 X150.269 Y55.159 E2.37769
G1 X151.034 Y55.357 E2.40397
G1 X151.774 Y55.631 E2.43022
G1 X152.483 Y55.979 E2.45649
G1 X153.154 Y56.397 E2.48278
G1 X153.778 Y56.88 E2.50903
G1 X154.351 Y57.423 E2.53528
G1 X154.866 Y58.022 E2.56156
G1 X155.317 Y58.67 E2.58781
G1 X155.701 Y59.361 E2.61411
G1 X156.013 Y60.086 E2.64036
G1 X156.25 Y60.839 E2.66662
G1 X156.409 Y61.613 E2.6929
G1 X156.49 Y62.398 E2.71914
G1 X156.5 Y62.8 E2.73252
G1 X156.5 Y172.2 E6.37118
G1 X156.46 Y172.989 E6.39745
G1 X156.341 Y173.769 E6.4237
G1 X156.143 Y174.534 E6.44998
G1 X155.869 Y175.274 E6.47622
G1 X155.521 Y175.983 E6.50249
G1 X155.103 Y176.654 E6.52879
G1 X154.62 Y177.278 E6.55503
G1 X154.077 Y177.851 E6.58129
G1 X153.478 Y178.366 E6.60756
G1 X152.83 Y178.817 E6.63382
G1 X152.139 Y179.201 E6.66011
G1 X151.414 Y179.513 E6.68637
G1 X150.661 Y179.75 E6.71262
G1 X149.887 Y179.909 E6.7389
G1 X149.102 Y179.99 E6.76515
G1 X148.7 Y180 E6.77853
G1 X86.3 Y180 E8.85396
G1 X85.511 Y179.96 E8.88023
G1 X84.731 Y179.841 E8.90648
G1 X83.966 Y179.643 E8.93276
G1 X83.226 Y179.369 E8.95901
G1 X82.517 Y179.021 E8.98527
G1 X81.846 Y178.603 E9.01157
G1 X81.222 Y178.12 E9.03781
G1 X80.649 Y177.577 E9.06407
G1 X80.134 Y176.978 E9.09034
G1 X79.683 Y176.33 E9.1166
G1 X79.299 Y175.639 E9.14289
G1 X78.987 Y174.914 E9.16915
G1 X78.75 Y174.161 E9.1954
G1 X78.591 Y173.387 E9.22168
G1 X78.51 Y172.602 E9.24793
G1 X78.5 Y172.2 E9.26131
G1 X78.5 Y62.8 E12.89996
G1 X78.54 Y62.011 E12.92624
G1 X78.659 Y61.231 E12.95248
G1 X78.857 Y60.466 E12.97877
G1 X79.131 Y59.726 E13.00501
G1 X79.479 Y59.017 E13.03128
G1 X79.897 Y58.346 E13.05757
G0 F6000 X80.294 Y58.477
G1 F900 X80.775 Y57.877 E13.08315
G1 X81.316 Y57.33 E13.10874
G1 X81.911 Y56.842 E13.13433
G1 X82.553 Y56.419 E13.15991
G1 X83.236 Y56.064 E13.18551
G1 X83.951 Y55.783 E13.21106
G1 X84.693 Y55.577 E13.23667
G1 X85.451 Y55.449 E13.26224
G1 X86.3 Y55.4 E13.29052
G1 X148.7 Y55.4 E15.36596
G1 X149.468 Y55.44 E15.39154
G1 X150.228 Y55.559 E15.41712
G1 X150.971 Y55.757 E15.4427
G1 X151.69 Y56.031 E15.46829
G1 X152.376 Y56.378 E15.49386
G1 X153.023 Y56.794 E15.51944
G1 X153.623 Y57.275 E15.54502
G1 X154.17 Y57.816 E15.57061
G1 X154.658 Y58.411 E15.5962
G1 X155.081 Y59.053 E15.62177
G1 X155.436 Y59.736 E15.64737
G1 X155.717 Y60.451 E15.67293
G1 X155.923 Y61.193 E15.69854
G1 X156.051 Y61.951 E15.72411
G1 X156.1 Y62.8 E15.75239
G1 X156.1 Y172.2 E19.39105
G1 X156.06 Y172.968 E19.41663
G1 X155.941 Y173.728 E19.44221
G1 X155.743 Y174.471 E19.46779
G1 X155.469 Y175.19 E19.49338
G1 X155.122 Y175.876 E19.51895
G1 X154.706 Y176.523 E19.54453
G1 X154.225 Y177.123 E19.57011
G1 X153.684 Y177.67 E19.5957
G1 X153.089 Y178.158 E19.62129
G1 X152.447 Y178.581 E19.64686
G1 X151.764 Y178.936 E19.67247
G1 X151.049 Y179.217 E19.69802
G1 X150.307 Y179.423 E19.72363
G1 X149.549 Y179.551 E19.7492
G1 X148.7 Y179.6 E19.77748
G1 X86.3 Y179.6 E21.85292
G1 X85.532 Y179.56 E21.87849
G1 X84.772 Y179.441 E21.90408
G1 X84.029 Y179.243 E21.92965
G1 X83.31 Y178.969 E21.95525
G1 X82.624 Y178.622 E21.98082
G1 X81.977 Y178.206 E22.0064
G1 X81.377 Y177.725 E22.03198
G1 X80.83 Y177.184 E22.05756
G1 X80.342 Y176.589 E22.08316
G1 X79.919 Y175.947 E22.10873
G1 X79.564 Y175.264 E22.13433
G1 X79.283 Y174.549 E22.15988
G1 X79.077 Y173.807 E22.1855
G1 X78.949 Y173.049 E22.21106
G1 X78.9 Y172.2 E22.23935
G1 X78.9 Y62.8 E25.87801
G1 X78.94 Y62.032 E25.90359
G1 X79.059 Y61.272 E25.92917
G1 X79.257 Y60.529 E25.95475
G1 X79.531 Y59.81 E25.98034
G1 X79.878 Y59.124 E26.00591
G1 X80.294 Y58.477 E26.03149
G0 F6000 X80.692 Y58.611
G1 F900 X81.171 Y58.037 E26.05636
G1 X81.708 Y57.516 E26.08124
G1 X82.298 Y57.057 E26.10611
G1 X82.934 Y56.662 E26.13101
G1 X83.608 Y56.338 E26.15588
G1 X84.313 Y56.088 E26.18076
G1 X85.041 Y55.914 E26.20565
G1 X85.783 Y55.819 E26.23053
G1 X86.3 Y55.8 E26.24774
G1 X148.7 Y55.8 E28.32317
G1 X149.447 Y55.84 E28.34805
G1 X150.185 Y55.959 E28.37292
G1 X150.907 Y56.157 E28.39782
G1 X151.603 Y56.43 E28.42268
G1 X152.266 Y56.777 E28.44757
G1 X152.889 Y57.192 E28.47247
G1 X153.463 Y57.671 E28.49734
G1 X153.984 Y58.208 E28.52222
G1 X154.443 Y58.798 E28.54708
G1 X154.838 Y59.434 E28.57199
G1 X155.162 Y60.108 E28.59686
G1 X155.412 Y60.813 E28.62174
G1 X155.586 Y61.541 E28.64663
G1 X155.681 Y62.283 E28.67151
G1 X155.7 Y62.8 E28.68872
G1 X155.7 Y172.2 E32.32738
G1 X155.66 Y172.947 E32.35226
G1 X155.541 Y173.685 E32.37712
G1 X155.343 Y174.407 E32.40202
G1 X155.07 Y175.103 E32.42689
G1 X154.723 Y175.766 E32.45178
G1 X154.308 Y176.389 E32.47668
G1 X153.829 Y176.963 E32.50154
G1 X153.292 Y177.484 E32.52643
G1 X152.702 Y177.943 E32.55129
G1 X152.066 Y178.338 E32.57619
G1 X151.392 Y178.662 E32.60106
G1 X150.687 Y178.912 E32.62594
G1 X149.959 Y179.086 E32.65084
G1 X149.217 Y179.181 E32.67572
G1 X148.7 Y179.2 E32.69293
G1 X86.3 Y179.2 E34.76836
G1 X85.553 Y179.16 E34.79324
G1 X84.815 Y179.041 E34.8181
G1 X84.093 Y178.843 E34.843
G1 X83.397 Y178.57 E34.86787
G1 X82.734 Y178.223 E34.89276
G1 X82.111 Y177.808 E34.91766
G1 X81.537 Y177.329 E34.94252
G1 X81.016 Y176.792 E34.96741
G1 X80.557 Y176.202 E34.99227
G1 X80.162 Y175.566 E35.01717
G1 X79.838 Y174.892 E35.04204
G1 X79.588 Y174.187 E35.06692
G1 X79.414 Y173.459 E35.09182
G1 X79.319 Y172.717 E35.1167
G1 X79.3 Y172.2 E35.13391
G1 X79.3 Y62.8 E38.77256
G1 X79.34 Y62.053 E38.79744
G1 X79.459 Y61.315 E38.82231
G1 X79.657 Y60.593 E38.84721
G1 X79.93 Y59.897 E38.87207
G1 X80.277 Y59.234 E38.89696
G1 X80.692 Y58.611 E38.92186
G0 F6000 X81.089 Y58.75
G1 F900 X81.565 Y58.202 E38.946
G1 X82.099 Y57.709 E38.97018
G1 X82.684 Y57.279 E38.99432
G1 X83.313 Y56.915 E39.0185
G1 X83.978 Y56.622 E39.04266
G1 X84.671 Y56.404 E39.06683
G1 X85.383 Y56.264 E39.09096
G1 X86.3 Y56.2 E39.12154
G1 X148.7 Y56.2 E41.19697
G1 X149.425 Y56.24 E41.22112
G1 X150.142 Y56.359 E41.24529
G1 X150.841 Y56.557 E41.26946
G1 X151.514 Y56.83 E41.29361
G1 X152.153 Y57.175 E41.31776
G1 X152.75 Y57.589 E41.34193
G1 X153.298 Y58.065 E41.36607
G1 X153.791 Y58.599 E41.39024
G1 X154.221 Y59.184 E41.41439
G1 X154.585 Y59.813 E41.43856
G1 X154.878 Y60.478 E41.46273
G1 X155.096 Y61.171 E41.4869
G1 X155.236 Y61.883 E41.51103
G1 X155.3 Y62.8 E41.5416
G1 X155.3 Y172.2 E45.18026
G1 X155.26 Y172.925 E45.20441
G1 X155.141 Y173.642 E45.22859
G1 X154.943 Y174.341 E45.25275
G1 X154.67 Y175.014 E45.27691
G1 X154.325 Y175.653 E45.30106
G1 X153.911 Y176.25 E45.32522
G1 X153.435 Y176.798 E45.34936
G1 X152.901 Y177.291 E45.37354
G1 X152.316 Y177.721 E45.39768
G1 X151.687 Y178.085 E45.42186
G1 X151.022 Y178.378 E45.44603
G1 X150.329 Y178.596 E45.47019
G1 X149.617 Y178.736 E45.49432
G1 X148.7 Y178.8 E45.5249
G1 X86.3 Y178.8 E47.60033
G1 X85.575 Y178.76 E47.62448
G1 X84.858 Y178.641 E47.64865
G1 X84.159 Y178.443 E47.67282
G1 X83.486 Y178.17 E47.69697
G1 X82.847 Y177.825 E47.72113
G1 X82.25 Y177.411 E47.74529
G1 X81.702 Y176.935 E47.76943
G1 X81.209 Y176.401 E47.7936
G1 X80.779 Y175.816 E47.81775
G1 X80.415 Y175.187 E47.84192
G1 X80.122 Y174.522 E47.86609
G1 X79.904 Y173.829 E47.89026
G1 X79.764 Y173.117 E47.91439
G1 X79.7 Y172.2 E47.94496
G1 X79.7 Y62.8 E51.58362
G1 X79.74 Y62.075 E51.60777
G1 X79.859 Y61.358 E51.63195
G1 X80.057 Y60.659 E51.65611
G1 X80.33 Y59.986 E51.68027
G1 X80.675 Y59.347 E51.70442
G1 X81.089 Y58.75 E51.72858
G0 F6000 X81.485 Y58.894
G1 F900 X81.959 Y58.373 E51.75201
G1 X82.489 Y57.909 E51.77544
G1 X83.068 Y57.509 E51.79884
G1 X83.689 Y57.177 E51.82227
G1 X84.343 Y56.917 E51.84567
G1 X85.023 Y56.733 E51.8691
G1 X85.719 Y56.627 E51.89252
G1 X86.3 Y56.6 E51.91187
G1 X148.7 Y56.6 E53.9873
G1 X149.403 Y56.64 E54.01072
G1 X150.097 Y56.759 E54.03414
G1 X150.772 Y56.957 E54.05753
G1 X151.421 Y57.229 E54.08094
G1 X152.035 Y57.574 E54.10436
G1 X152.606 Y57.985 E54.12776
G1 X153.127 Y58.459 E54.15119
G1 X153.591 Y58.989 E54.17462
G1 X153.991 Y59.568 E54.19802
G1 X154.323 Y60.189 E54.22145
G1 X154.583 Y60.843 E54.24485
G1 X154.767 Y61.523 E54.26828
G1 X154.873 Y62.219 E54.2917
G1 X154.9 Y62.8 E54.31105
G1 X154.9 Y172.2 E57.9497
G1 X154.86 Y172.903 E57.97312
G1 X154.741 Y173.597 E57.99654
G1 X154.543 Y174.272 E58.01994
G1 X154.271 Y174.921 E58.04334
G1 X153.926 Y175.535 E58.06677
G1 X153.515 Y176.106 E58.09017
G1 X153.041 Y176.627 E58.1136
G1 X152.511 Y177.091 E58.13702
G1 X151.932 Y177.491 E58.16043
G1 X151.311 Y177.823 E58.18385
G1 X150.657 Y178.083 E58.20726
G1 X149.977 Y178.267 E58.23069
G1 X149.281 Y178.373 E58.25411
G1 X148.7 Y178.4 E58.27345
G1 X86.3 Y178.4 E60.34888
G1 X85.597 Y178.36 E60.3723
G1 X84.903 Y178.241 E60.39572
G1 X84.228 Y178.043 E60.41912
G1 X83.579 Y177.771 E60.44252
G1 X82.965 Y177.426 E60.46595
G1 X82.394 Y177.015 E60.48935
G1 X81.873 Y176.541 E60.51278
G1 X81.409 Y176.011 E60.5362
G1 X81.009 Y175.432 E60.55961
G1 X80.677 Y174.811 E60.58303
G1 X80.417 Y174.157 E60.60644
G1 X80.233 Y173.477 E60.62987
G1 X80.127 Y172.781 E60.65329
G1 X80.1 Y172.2 E60.67263
G1 X80.1 Y62.8 E64.31129
G1 X80.14 Y62.097 E64.33471
G1 X80.259 Y61.403 E64.35813
G1 X80.457 Y60.728 E64.38153
G1 X80.729 Y60.079 E64.40493
G1 X81.074 Y59.465 E64.42836
G1 X81.485 Y58.894 E64.45175
G0 F6000 X81.882 Y59.042
G1 F900 X82.353 Y58.551 E64.47438
G1 X82.878 Y58.117 E64.49704
G1 X83.45 Y57.748 E64.51968
G1 X84.062 Y57.449 E64.54233
G1 X84.704 Y57.224 E64.56496
G1 X85.369 Y57.075 E64.58763
G1 X86.3 Y57 E64.61869
G1 X148.7 Y57 E66.69413
G1 X149.38 Y57.04 E66.71678
G1 X150.05 Y57.159 E66.73941
G1 X150.702 Y57.356 E66.76207
G1 X151.326 Y57.628 E66.78471
G1 X151.914 Y57.972 E66.80737
G1 X152.458 Y58.382 E66.83002
G1 X152.949 Y58.853 E66.85265
G1 X153.383 Y59.378 E66.87531
G1 X153.752 Y59.95 E66.89795
G1 X154.051 Y60.562 E66.9206
G1 X154.276 Y61.204 E66.94323
G1 X154.425 Y61.869 E66.9659
G1 X154.5 Y62.8 E66.99696
G1 X154.5 Y172.2 E70.63562
G1 X154.46 Y172.88 E70.65828
G1 X154.341 Y173.55 E70.68091
G1 X154.144 Y174.202 E70.70356
G1 X153.872 Y174.826 E70.7262
G1 X153.528 Y175.414 E70.74886
G1 X153.118 Y175.958 E70.77152
G1 X152.647 Y176.449 E70.79415
G1 X152.122 Y176.883 E70.8168
G1 X151.55 Y177.252 E70.83944
G1 X150.938 Y177.551 E70.8621
G1 X150.296 Y177.776 E70.88472
G1 X149.631 Y177.925 E70.90739
G1 X148.7 Y178 E70.93846
G1 X86.3 Y178 E73.01389
G1 X85.62 Y177.96 E73.03654
G1 X84.95 Y177.841 E73.05918
G1 X84.298 Y177.644 E73.08183
G1 X83.674 Y177.372 E73.10447
G1 X83.086 Y177.028 E73.12713
G1 X82.542 Y176.618 E73.14979
G1 X82.051 Y176.147 E73.17242
G1 X81.617 Y175.622 E73.19507
G1 X81.248 Y175.05 E73.21771
G1 X80.949 Y174.438 E73.24037
G1 X80.724 Y173.796 E73.26299
G1 X80.575 Y173.131 E73.28566
G1 X80.5 Y172.2 E73.31672
G1 X80.5 Y62.8 E76.95538
G1 X80.54 Y62.12 E76.97804
G1 X80.659 Y61.45 E77.00067
G1 X80.856 Y60.798 E77.02333
G1 X81.128 Y60.174 E77.04597
G1 X81.472 Y59.586 E77.06862
G1 X81.882 Y59.042 E77.09128
G0 F6000 X82.278 Y59.197
G1 F900 X82.745 Y58.735 E77.11313
G1 X83.265 Y58.334 E77.13497
G1 X83.829 Y57.998 E77.15681
G1 X84.431 Y57.734 E77.17867
G1 X85.06 Y57.544 E77.20052
G1 X85.707 Y57.433 E77.22236
G1 X86.3 Y57.4 E77.24211
G1 X148.7 Y57.4 E79.31754
G1 X149.356 Y57.44 E79.3394
G1 X150.002 Y57.559 E79.36125
G1 X150.629 Y57.756 E79.38311
G1 X151.227 Y58.028 E79.40496
G1 X151.788 Y58.37 E79.42681
G1 X152.303 Y58.778 E79.44867
G1 X152.765 Y59.245 E79.47052
G1 X153.166 Y59.765 E79.49236
G1 X153.502 Y60.329 E79.51419
G1 X153.766 Y60.931 E79.53605
G1 X153.956 Y61.56 E79.55791
G1 X154.067 Y62.207 E79.57974
G1 X154.1 Y62.8 E79.5995
G1 X154.1 Y172.2 E83.23815
G1 X154.06 Y172.856 E83.26001
G1 X153.941 Y173.502 E83.28186
G1 X153.744 Y174.129 E83.30372
G1 X153.472 Y174.727 E83.32557
G1 X153.13 Y175.288 E83.34742
G1 X152.722 Y175.803 E83.36928
G1 X152.255 Y176.265 E83.39113
G1 X151.735 Y176.666 E83.41297
G1 X151.171 Y177.002 E83.4348
G1 X150.569 Y177.266 E83.45666
G1 X149.94 Y177.456 E83.47852
G1 X149.293 Y177.567 E83.50035
G1 X148.7 Y177.6 E83.52011
G1 X86.3 Y177.6 E85.59554
G1 X85.644 Y177.56 E85.6174
G1 X84.998 Y177.441 E85.63925
G1 X84.371 Y177.244 E85.6611
G1 X83.773 Y176.972 E85.68296
G1 X83.212 Y176.63 E85.70481
G1 X82.697 Y176.222 E85.72666
G1 X82.235 Y175.755 E85.74851
G1 X81.834 Y175.235 E85.77035
G1 X81.498 Y174.671 E85.79219
G1 X81.234 Y174.069 E85.81405
G1 X81.044 Y173.44 E85.8359
G1 X80.933 Y172.793 E85.85774
G1 X80.9 Y172.2 E85.87749
G1 X80.9 Y62.8 E89.51615
G1 X80.94 Y62.144 E89.53801
G1 X81.059 Y61.498 E89.55986
G1 X81.256 Y60.871 E89.58172
G1 X81.528 Y60.273 E89.60357
G1 X81.87 Y59.712 E89.62542
G1 X82.278 Y59.197 E89.64727
G0 F6000 X82.673 Y59.359
G1 F900 X83.136 Y58.929 E89.66829
G1 X83.65 Y58.56 E89.68933
G1 X84.206 Y58.26 E89.71035
G1 X84.795 Y58.032 E89.73135
G1 X85.409 Y57.88 E89.75239
G1 X86.3 Y57.8 E89.78214
G1 X148.7 Y57.8 E91.85758
G1 X149.331 Y57.84 E91.87861
G1 X149.952 Y57.959 E91.89964
G1 X150.552 Y58.156 E91.92064
G1 X151.124 Y58.427 E91.94169
G1 X151.656 Y58.767 E91.96269
G1 X152.141 Y59.173 E91.98373
G1 X152.571 Y59.636 E92.00475
G1 X152.94 Y60.15 E92.02579
G1 X153.24 Y60.706 E92.0468
G1 X153.468 Y61.295 E92.06781
G1 X153.62 Y61.909 E92.08885
G1 X153.7 Y62.8 E92.1186
G1 X153.7 Y172.2 E95.75726
G1 X153.66 Y172.831 E95.77829
G1 X153.541 Y173.452 E95.79932
G1 X153.344 Y174.052 E95.82033
G1 X153.073 Y174.624 E95.84138
G1 X152.733 Y175.156 E95.86238
G1 X152.327 Y175.641 E95.88341
G1 X151.864 Y176.071 E95.90443
G1 X151.35 Y176.44 E95.92547
G1 X150.794 Y176.74 E95.94649
G1 X150.205 Y176.968 E95.96749
G1 X149.591 Y177.12 E95.98853
G1 X148.7 Y177.2 E96.01829
G1 X86.3 Y177.2 E98.09372
G1 X85.669 Y177.16 E98.11475
G1 X85.048 Y177.041 E98.13578
G1 X84.448 Y176.844 E98.15678
G1 X83.876 Y176.573 E98.17783
G1 X83.344 Y176.233 E98.19883
G1 X82.859 Y175.827 E98.21987
G1 X82.429 Y175.364 E98.24089
G1 X82.06 Y174.85 E98.26193
G1 X81.76 Y174.294 E98.28295
G1 X81.532 Y173.705 E98.30395
G1 X81.38 Y173.091 E98.32499
G1 X81.3 Y172.2 E98.35474
G1 X81.3 Y62.8 E101.9934
G1 X81.34 Y62.169 E102.01443
G1 X81.459 Y61.548 E102.03546
G1 X81.656 Y60.948 E102.05647
G1 X81.927 Y60.376 E102.07752
G1 X82.267 Y59.844 E102.09852
G1 X82.673 Y59.359 E102.11956
G0 F6000 X83.067 Y59.528
G1 F900 X83.525 Y59.131 E102.13971
G1 X84.032 Y58.798 E102.15989
G1 X84.578 Y58.534 E102.18006
G1 X85.154 Y58.345 E102.20022
G1 X85.75 Y58.233 E102.22039
G1 X86.3 Y58.2 E102.23872
G1 X148.7 Y58.2 E104.31415
G1 X149.305 Y58.24 E104.33432
G1 X149.899 Y58.359 E104.35447
G1 X150.473 Y58.555 E104.37464
G1 X151.016 Y58.826 E104.39483
G1 X151.519 Y59.165 E104.415
G1 X151.972 Y59.567 E104.43514
G1 X152.369 Y60.025 E104.4553
