;FLAVOR:Marlin
;TIME:4309
;Filament used: 2.34959m
;Layer height: 0.2
;MINX:64.726
;MINY:80.999
;MINZ:0.2
;MAXX:170.378
;MAXY:154.001
;MAXZ:14
;Generated with Cura_SteamEngine 5.2.1
M140 S65
M105
M190 S65
M104 S240
M105
M109 S240
M82 ;absolute extrusion mode
; Ender 3 Custom Start G-code
G92 E0 ; Reset Extruder
G28 ; Home all axes
G1 Z2.0 F3000 ; Move Z Axis up little to prevent scratching of Heat Bed
G1 X0.1 Y20 Z0.3 F5000.0 ; Move to start position
G1 X0.1 Y200.0 Z0.3 F1500.0 E15 ; Draw the first line
G1 X0.4 Y200.0 Z0.3 F5000.0 ; Move to side a little
G1 X0.4 Y20 Z0.3 F1500.0 E30 ; Draw the second line
G92 E0 ; Reset Extruder
G1 Z2.0 F3000 ; Move Z Axis up little to prevent scratching of Heat Bed
G1 X5 Y20 Z0.3 F5000.0 ; Move over to prevent blob squish
G92 E0
G92 E0
G1 F2700 E-5
;LAYER_COUNT:70
;LAYER:0
M107
G0 F6000 X68.691 Y83.826 Z0.2
;TYPE:SKIRT
G1 F2700 E0
G1 F900 X69.294 Y83.337 E0.02582
G1 X69.592 Y83.119 E0.0381
G1 X70.222 Y82.703 E0.06321
G1 X70.536 Y82.517 E0.07535
G1 X71.228 Y82.153 E0.10136
G1 X71.562 Y81.998 E0.1136
G1 X72.259 Y81.714 E0.13864
G1 X72.609 Y81.591 E0.15098
G1 X73.318 Y81.379 E0.17559
G1 X73.673 Y81.291 E0.18775
G1 X74.415 Y81.145 E0.21291
G1 X74.782 Y81.091 E0.22524
G1 X75.535 Y81.017 E0.25041
G1 X75.902 Y80.999 E0.26263
G1 X76.666 Y80.999 E0.28804
G1 X77.033 Y81.017 E0.30026
G1 X77.786 Y81.091 E0.32543
G1 X78.153 Y81.145 E0.33777
G1 X78.895 Y81.291 E0.36292
G1 X79.25 Y81.379 E0.37508
G1 X79.959 Y81.591 E0.3997
G1 X80.309 Y81.714 E0.41203
G1 X81.013 Y82.001 E0.43732
G1 X81.344 Y82.155 E0.44946
G1 X82.017 Y82.509 E0.47475
G1 X82.334 Y82.696 E0.487
G1 X82.973 Y83.116 E0.51243
G1 X83.27 Y83.333 E0.52466
G1 X83.888 Y83.835 E0.55114
G1 X84.16 Y84.08 E0.56332
G1 X84.685 Y84.6 E0.5879
G1 X84.933 Y84.87 E0.60009
G1 X85.407 Y85.439 E0.62472
G1 X85.628 Y85.731 E0.6369
G1 X86.069 Y86.378 E0.66294
G1 X86.258 Y86.688 E0.67502
G1 X86.638 Y87.389 E0.70154
G1 X86.795 Y87.718 E0.71367
G1 X87.084 Y88.408 E0.73855
G1 X87.21 Y88.754 E0.75079
G1 X87.444 Y89.516 E0.77731
G1 X87.532 Y89.865 E0.78928
G1 X87.679 Y90.592 E0.81395
G1 X87.752 Y91.069 E0.83
G1 X87.842 Y92.249 E0.86936
G1 X87.842 Y104.2 E1.26685
G1 X106.774 Y104.199 E1.89653
G1 X107.007 Y103.988 E1.90699
G1 X107.59 Y103.51 E1.93206
G1 X108.38 Y102.923 E1.9648
G1 X109.025 Y102.492 E1.9906
G1 X109.865 Y101.989 E2.02316
G1 X110.534 Y101.631 E2.0484
G1 X111.421 Y101.211 E2.08104
G1 X112.141 Y100.914 E2.10694
G1 X113.067 Y100.584 E2.13964
G1 X113.782 Y100.367 E2.16449
G1 X114.732 Y100.128 E2.19707
G1 X115.492 Y99.976 E2.22285
G1 X116.464 Y99.832 E2.25553
G1 X117.225 Y99.757 E2.28097
G1 X118.204 Y99.709 E2.31357
G1 X118.968 Y99.709 E2.33898
G1 X119.948 Y99.757 E2.37161
G1 X120.709 Y99.832 E2.39705
G1 X121.681 Y99.976 E2.42973
G1 X122.441 Y100.128 E2.45551
G1 X123.391 Y100.367 E2.48809
G1 X124.106 Y100.584 E2.51294
G1 X125.032 Y100.914 E2.54564
G1 X125.755 Y101.213 E2.57166
G1 X126.641 Y101.633 E2.60427
G1 X127.304 Y101.987 E2.62927
G1 X127.66 Y102.2 E2.64307
G1 X143.513 Y102.2 E3.17034
G1 X143.863 Y101.99 E3.18392
G1 X144.532 Y101.633 E3.20914
G1 X145.418 Y101.213 E3.24175
G1 X146.141 Y100.914 E3.26777
G1 X147.067 Y100.584 E3.30047
G1 X147.782 Y100.367 E3.32532
G1 X148.732 Y100.128 E3.3579
G1 X149.493 Y99.976 E3.38371
G1 X150.466 Y99.832 E3.41643
G1 X151.226 Y99.757 E3.44183
G1 X152.205 Y99.709 E3.47443
G1 X152.969 Y99.709 E3.49984
G1 X153.948 Y99.757 E3.53244
G1 X154.708 Y99.832 E3.55784
G1 X155.681 Y99.976 E3.59055
G1 X156.442 Y100.128 E3.61637
G1 X157.392 Y100.367 E3.64895
G1 X158.107 Y100.584 E3.6738
G1 X159.033 Y100.914 E3.7065
G1 X159.756 Y101.213 E3.73252
G1 X160.642 Y101.633 E3.76513
G1 X161.311 Y101.99 E3.79035
G1 X162.152 Y102.494 E3.82296
G1 X162.788 Y102.919 E3.8484
G1 X163.577 Y103.504 E3.88107
G1 X164.169 Y103.991 E3.90657
G1 X164.895 Y104.649 E3.93916
G1 X165.436 Y105.189 E3.96458
G1 X166.095 Y105.916 E3.99722
G1 X166.578 Y106.504 E4.02252
G1 X167.164 Y107.293 E4.05521
G1 X167.595 Y107.938 E4.08101
G1 X168.099 Y108.78 E4.11365
G1 X168.454 Y109.445 E4.13873
G1 X168.874 Y110.331 E4.17134
G1 X169.173 Y111.054 E4.19736
G1 X169.503 Y111.98 E4.23006
G1 X169.72 Y112.695 E4.25491
G1 X169.959 Y113.645 E4.28749
G1 X170.111 Y114.404 E4.31324
G1 X170.255 Y115.375 E4.34588
G1 X170.33 Y116.137 E4.37135
G1 X170.378 Y117.117 E4.40398
G1 X170.378 Y117.881 E4.4294
G1 X170.33 Y118.861 E4.46203
G1 X170.255 Y119.621 E4.48743
G1 X170.111 Y120.594 E4.52014
G1 X169.959 Y121.355 E4.54596
G1 X169.72 Y122.305 E4.57854
G1 X169.504 Y123.018 E4.60332
G1 X169.175 Y123.942 E4.63594
G1 X168.875 Y124.667 E4.66204
G1 X168.454 Y125.555 E4.69472
G1 X168.1 Y126.218 E4.71972
G1 X167.597 Y127.059 E4.75231
G1 X167.165 Y127.706 E4.77819
G1 X166.579 Y128.495 E4.81088
G1 X166.096 Y129.082 E4.83616
G1 X165.438 Y129.808 E4.86875
G1 X164.898 Y130.349 E4.89417
G1 X164.171 Y131.008 E4.92681
G1 X163.584 Y131.49 E4.95207
G1 X162.794 Y132.077 E4.9848
G1 X162.146 Y132.51 E5.01073
G1 X161.305 Y133.013 E5.04332
G1 X160.636 Y133.37 E5.06854
G1 X159.75 Y133.789 E5.10114
G1 X159.047 Y134.08 E5.12644
G1 X158.121 Y134.412 E5.15916
G1 X157.385 Y134.636 E5.18475
G1 X156.435 Y134.874 E5.21732
G1 X155.681 Y135.024 E5.24289
G1 X154.708 Y135.168 E5.27561
G1 X153.948 Y135.243 E5.30101
G1 X152.969 Y135.291 E5.33361
G1 X152.205 Y135.291 E5.35902
G1 X151.226 Y135.243 E5.39162
G1 X150.466 Y135.168 E5.41702
G1 X149.493 Y135.024 E5.44974
G1 X148.739 Y134.874 E5.47531
G1 X147.789 Y134.636 E5.50788
G1 X147.053 Y134.412 E5.53347
G1 X146.127 Y134.08 E5.56619
G1 X145.424 Y133.789 E5.59149
G1 X144.538 Y133.37 E5.62409
G1 X143.869 Y133.013 E5.64931
G1 X143.513 Y132.8 E5.66311
G1 X133.911 Y132.8 E5.98247
G1 X133.122 Y132.76 E6.00875
G1 X132.342 Y132.641 E6.03499
G1 X132.077 Y132.572 E6.0441
G1 X131.856 Y132.631 E6.05171
G1 X131.077 Y132.755 E6.07794
G1 X130.242 Y132.8 E6.10576
G1 X127.66 Y132.8 E6.19163
G1 X127.304 Y133.013 E6.20543
G1 X126.641 Y133.367 E6.23043
G1 X125.755 Y133.787 E6.26304
G1 X125.032 Y134.086 E6.28906
G1 X124.106 Y134.416 E6.32176
G1 X123.391 Y134.633 E6.34661
G1 X122.441 Y134.872 E6.37919
G1 X121.681 Y135.024 E6.40497
G1 X120.709 Y135.168 E6.43765
G1 X119.948 Y135.243 E6.46309
G1 X118.968 Y135.291 E6.49572
G1 X118.204 Y135.291 E6.52113
G1 X117.225 Y135.243 E6.55373
G1 X116.464 Y135.168 E6.57917
G1 X115.492 Y135.024 E6.61185
G1 X114.732 Y134.872 E6.63763
G1 X113.782 Y134.633 E6.67021
G1 X113.067 Y134.416 E6.69506
G1 X112.141 Y134.086 E6.72776
G1 X111.421 Y133.789 E6.75366
G1 X110.534 Y133.369 E6.7863
G1 X109.865 Y133.011 E6.81154
G1 X109.025 Y132.508 E6.8441
G1 X108.38 Y132.077 E6.86991
G1 X107.59 Y131.49 E6.90264
G1 X107.007 Y131.012 E6.92772
G1 X106.773 Y130.8 E6.93822
G1 X87.843 Y130.8 E7.56783
G1 X87.842 Y142.755 E7.96546
G1 X87.802 Y143.544 E7.99173
G1 X87.747 Y143.972 E8.00608
G1 X87.669 Y144.466 E8.02272
G1 X87.518 Y145.193 E8.04741
G1 X87.431 Y145.531 E8.05902
G1 X87.188 Y146.306 E8.08604
G1 X87.053 Y146.669 E8.09892
G1 X86.782 Y147.308 E8.122
G1 X86.637 Y147.612 E8.13321
G1 X86.257 Y148.314 E8.15976
G1 X86.068 Y148.624 E8.17183
G1 X85.62 Y149.281 E8.19828
G1 X85.399 Y149.572 E8.21043
G1 X84.927 Y150.136 E8.2349
G1 X84.674 Y150.411 E8.24732
G1 X84.131 Y150.947 E8.2727
G1 X83.859 Y151.19 E8.28483
G1 X83.243 Y151.686 E8.31114
G1 X82.944 Y151.903 E8.32342
G1 X82.329 Y152.307 E8.3479
G1 X82.014 Y152.493 E8.36007
G1 X81.314 Y152.859 E8.38634
G1 X80.98 Y153.013 E8.39857
G1 X80.281 Y153.295 E8.42364
G1 X79.931 Y153.417 E8.43597
G1 X79.221 Y153.628 E8.4606
G1 X78.866 Y153.715 E8.47276
G1 X78.148 Y153.855 E8.49709
G1 X77.789 Y153.908 E8.50916
G1 X77.023 Y153.983 E8.53476
G1 X76.647 Y154.001 E8.54728
G1 X75.871 Y154 E8.57309
G1 X75.504 Y153.981 E8.58531
G1 X74.751 Y153.905 E8.61048
G1 X74.384 Y153.85 E8.62283
G1 X73.653 Y153.704 E8.64762
G1 X73.304 Y153.617 E8.65958
G1 X72.589 Y153.402 E8.68442
G1 X72.233 Y153.276 E8.69698
G1 X71.538 Y152.992 E8.72195
G1 X71.21 Y152.839 E8.73399
G1 X70.535 Y152.483 E8.75937
G1 X70.224 Y152.299 E8.77139
G1 X69.591 Y151.881 E8.79662
G1 X69.293 Y151.663 E8.8089
G1 X68.69 Y151.174 E8.83472
G1 X68.418 Y150.93 E8.84687
G1 X67.881 Y150.4 E8.87197
G1 X67.633 Y150.13 E8.88416
G1 X67.148 Y149.548 E8.90936
G1 X66.928 Y149.256 E8.92152
G1 X66.498 Y148.622 E8.947
G1 X66.309 Y148.312 E8.95907
G1 X65.93 Y147.612 E8.98555
G1 X65.772 Y147.281 E8.99775
G1 X65.478 Y146.58 E9.02303
G1 X65.354 Y146.238 E9.03513
G1 X65.126 Y145.496 E9.06095
G1 X65.037 Y145.145 E9.07299
G1 X64.864 Y144.282 E9.10227
G1 X64.751 Y143.425 E9.13102
G1 X64.726 Y142.802 E9.15175
G1 X64.727 Y92.248 E10.83319
G1 X64.812 Y91.098 E10.87154
G1 X64.881 Y90.635 E10.88711
G1 X65.034 Y89.874 E10.91293
G1 X65.126 Y89.51 E10.92542
G1 X65.355 Y88.762 E10.95143
G1 X65.479 Y88.42 E10.96353
G1 X65.773 Y87.719 E10.98882
G1 X65.931 Y87.388 E11.00102
G1 X66.31 Y86.688 E11.02749
G1 X66.499 Y86.378 E11.03957
G1 X66.929 Y85.744 E11.06505
G1 X67.149 Y85.452 E11.07721
G1 X67.634 Y84.87 E11.1024
G1 X67.882 Y84.6 E11.1146
G1 X68.419 Y84.07 E11.13969
G1 X68.691 Y83.826 E11.15185
G0 F6000 X68.958 Y84.124
G1 F900 X69.53 Y83.66 E11.17634
G1 X69.828 Y83.442 E11.18862
G1 X70.426 Y83.047 E11.21246
G1 X70.74 Y82.861 E11.2246
G1 X71.396 Y82.516 E11.24925
G1 X71.73 Y82.361 E11.2615
G1 X72.392 Y82.092 E11.28526
G1 X72.742 Y81.969 E11.2976
G1 X73.415 Y81.767 E11.32097
G1 X73.77 Y81.679 E11.33314
G1 X74.473 Y81.541 E11.35697
G1 X74.84 Y81.487 E11.3693
G1 X75.554 Y81.417 E11.39317
G1 X75.921 Y81.399 E11.40539
G1 X76.647 Y81.399 E11.42953
G1 X77.014 Y81.417 E11.44175
G1 X77.728 Y81.487 E11.46562
G1 X78.095 Y81.541 E11.47795
G1 X78.798 Y81.679 E11.50178
G1 X79.153 Y81.767 E11.51395
G1 X79.826 Y81.969 E11.53732
G1 X80.176 Y82.092 E11.54966
G1 X80.845 Y82.364 E11.57368
G1 X81.176 Y82.518 E11.58582
G1 X81.814 Y82.853 E11.60979
G1 X82.131 Y83.04 E11.62203
G1 X82.737 Y83.439 E11.64616
G1 X83.034 Y83.656 E11.65839
G1 X83.621 Y84.133 E11.68355
G1 X83.893 Y84.378 E11.69573
G1 X84.39 Y84.87 E11.71899
G1 X84.638 Y85.14 E11.73118
G1 X85.089 Y85.68 E11.75458
G1 X85.31 Y85.972 E11.76676
G1 X85.727 Y86.586 E11.79145
G1 X85.916 Y86.896 E11.80352
G1 X86.277 Y87.561 E11.82869
G1 X86.434 Y87.89 E11.84081
G1 X86.708 Y88.545 E11.86443
G1 X86.834 Y88.891 E11.87668
G1 X87.056 Y89.614 E11.90183
G1 X87.144 Y89.963 E11.9138
G1 X87.284 Y90.653 E11.93722
G1 X87.357 Y91.13 E11.95327
G1 X87.442 Y92.249 E11.99059
G1 X87.442 Y104.6 E12.40139
G1 X106.929 Y104.599 E13.04953
G1 X107.276 Y104.285 E13.0651
G1 X107.829 Y103.831 E13.08889
G1 X108.619 Y103.244 E13.12163
G1 X109.23 Y102.835 E13.14608
G1 X110.07 Y102.332 E13.17865
G1 X110.705 Y101.993 E13.20259
G1 X111.592 Y101.573 E13.23523
G1 X112.275 Y101.29 E13.25982
G1 X113.201 Y100.96 E13.29252
G1 X113.88 Y100.755 E13.31611
G1 X114.83 Y100.516 E13.34869
G1 X115.551 Y100.372 E13.37314
G1 X116.523 Y100.228 E13.40582
G1 X117.245 Y100.157 E13.42995
G1 X118.224 Y100.109 E13.46255
G1 X118.948 Y100.109 E13.48664
G1 X119.928 Y100.157 E13.51927
G1 X120.65 Y100.228 E13.5434
G1 X121.622 Y100.372 E13.57608
G1 X122.343 Y100.516 E13.60053
G1 X123.293 Y100.755 E13.63312
G1 X123.972 Y100.96 E13.65671
G1 X124.898 Y101.29 E13.6894
G1 X125.584 Y101.574 E13.7141
G1 X126.47 Y101.994 E13.74671
G1 X127.098 Y102.33 E13.7704
G1 X127.549 Y102.6 E13.78788
G1 X143.625 Y102.6 E14.32257
G1 X144.069 Y102.334 E14.33979
G1 X144.703 Y101.994 E14.36371
G1 X145.589 Y101.574 E14.39633
G1 X146.275 Y101.29 E14.42102
G1 X147.201 Y100.96 E14.45372
G1 X147.88 Y100.755 E14.47731
G1 X148.83 Y100.516 E14.50989
G1 X149.552 Y100.372 E14.53438
G1 X150.525 Y100.228 E14.56709
G1 X151.246 Y100.157 E14.59119
G1 X152.225 Y100.109 E14.62379
G1 X152.949 Y100.109 E14.64787
G1 X153.928 Y100.157 E14.68047
G1 X154.649 Y100.228 E14.70456
G1 X155.622 Y100.372 E14.73728
G1 X156.344 Y100.516 E14.76177
G1 X157.294 Y100.755 E14.79435
G1 X157.973 Y100.96 E14.81794
G1 X158.899 Y101.29 E14.85063
G1 X159.585 Y101.574 E14.87533
G1 X160.471 Y101.994 E14.90794
G1 X161.105 Y102.334 E14.93187
G1 X161.946 Y102.838 E14.96448
G1 X162.549 Y103.241 E14.9886
G1 X163.338 Y103.826 E15.02127
G1 X163.901 Y104.287 E15.04547
G1 X164.627 Y104.945 E15.07806
G1 X165.14 Y105.458 E15.10219
G1 X165.799 Y106.185 E15.13483
G1 X166.257 Y106.743 E15.15884
G1 X166.843 Y107.532 E15.19153
G1 X167.251 Y108.143 E15.21596
G1 X167.755 Y108.985 E15.2486
G1 X168.093 Y109.616 E15.27241
G1 X168.513 Y110.502 E15.30502
G1 X168.797 Y111.188 E15.32971
G1 X169.127 Y112.114 E15.36241
G1 X169.332 Y112.793 E15.386
G1 X169.571 Y113.743 E15.41858
G1 X169.715 Y114.462 E15.44297
G1 X169.859 Y115.433 E15.47562
G1 X169.93 Y116.157 E15.49982
G1 X169.978 Y117.137 E15.53245
G1 X169.978 Y117.861 E15.55653
G1 X169.93 Y118.841 E15.58917
G1 X169.859 Y119.562 E15.61326
G1 X169.715 Y120.535 E15.64598
G1 X169.571 Y121.257 E15.67046
G1 X169.332 Y122.207 E15.70304
G1 X169.127 Y122.884 E15.72657
G1 X168.798 Y123.808 E15.75919
G1 X168.514 Y124.496 E15.78395
G1 X168.093 Y125.384 E15.81664
G1 X167.757 Y126.012 E15.84033
G1 X167.254 Y126.853 E15.87292
G1 X166.844 Y127.467 E15.89747
G1 X166.258 Y128.256 E15.93016
G1 X165.8 Y128.814 E15.95417
G1 X165.142 Y129.54 E15.98676
G1 X164.629 Y130.053 E16.01089
G1 X163.902 Y130.712 E16.04353
G1 X163.345 Y131.169 E16.06749
G1 X162.555 Y131.756 E16.10023
G1 X161.94 Y132.167 E16.12483
G1 X161.099 Y132.67 E16.15742
G1 X160.465 Y133.009 E16.18133
G1 X159.579 Y133.428 E16.21393
G1 X158.912 Y133.704 E16.23794
G1 X157.986 Y134.036 E16.27066
G1 X157.287 Y134.248 E16.29495
G1 X156.337 Y134.486 E16.32753
G1 X155.622 Y134.628 E16.35177
G1 X154.649 Y134.772 E16.38449
G1 X153.928 Y134.843 E16.40858
G1 X152.949 Y134.891 E16.44118
G1 X152.225 Y134.891 E16.46526
G1 X151.246 Y134.843 E16.49787
G1 X150.525 Y134.772 E16.52196
G1 X149.552 Y134.628 E16.55468
G1 X148.837 Y134.486 E16.57892
G1 X147.887 Y134.248 E16.6115
G1 X147.188 Y134.036 E16.63579
G1 X146.262 Y133.704 E16.66851
G1 X145.595 Y133.428 E16.69252
G1 X144.709 Y133.009 E16.72511
G1 X144.075 Y132.67 E16.74903
G1 X143.624 Y132.4 E16.76651
G1 X133.911 Y132.4 E17.08957
G1 X133.143 Y132.36 E17.11514
G1 X132.383 Y132.241 E17.14073
G1 X132.08 Y132.16 E17.15116
G1 X131.538 Y132.286 E17.16967
G1 X130.775 Y132.381 E17.19524
G1 X130.242 Y132.4 E17.21298
G1 X127.549 Y132.4 E17.30255
G1 X127.098 Y132.67 E17.32003
G1 X126.47 Y133.006 E17.34372
G1 X125.584 Y133.426 E17.37633
G1 X124.898 Y133.71 E17.40103
G1 X123.972 Y134.04 E17.43373
G1 X123.293 Y134.245 E17.45732
G1 X122.343 Y134.484 E17.4899
G1 X121.622 Y134.628 E17.51435
G1 X120.65 Y134.772 E17.54703
G1 X119.928 Y134.843 E17.57116
G1 X118.948 Y134.891 E17.6038
G1 X118.224 Y134.891 E17.62788
G1 X117.245 Y134.843 E17.66048
G1 X116.523 Y134.772 E17.68461
G1 X115.551 Y134.628 E17.71729
G1 X114.83 Y134.484 E17.74174
G1 X113.88 Y134.245 E17.77433
G1 X113.201 Y134.04 E17.79792
G1 X112.275 Y133.71 E17.83061
G1 X111.592 Y133.427 E17.8552
G1 X110.705 Y133.007 E17.88784
G1 X110.07 Y132.668 E17.91179
G1 X109.23 Y132.165 E17.94435
G1 X108.619 Y131.756 E17.9688
G1 X107.829 Y131.169 E18.00154
G1 X107.276 Y130.715 E18.02534
G1 X106.928 Y130.4 E18.04095
G1 X87.443 Y130.4 E18.68902
G1 X87.442 Y142.755 E19.09995
G1 X87.402 Y143.523 E19.12553
G1 X87.351 Y143.909 E19.13848
G1 X87.273 Y144.403 E19.15511
G1 X87.13 Y145.094 E19.17858
G1 X87.043 Y145.432 E19.19019
G1 X86.813 Y146.166 E19.21578
G1 X86.678 Y146.529 E19.22866
G1 X86.421 Y147.136 E19.25058
G1 X86.276 Y147.44 E19.26178
G1 X85.915 Y148.106 E19.28698
G1 X85.726 Y148.416 E19.29905
G1 X85.301 Y149.04 E19.32417
G1 X85.08 Y149.331 E19.33632
G1 X84.633 Y149.865 E19.35948
G1 X84.38 Y150.14 E19.37191
G1 X83.864 Y150.648 E19.39599
G1 X83.592 Y150.891 E19.40812
