;FLAVOR:Marlin
;TIME:2013
;Filament used: 1.18108m
;Layer height: 0.2
;MINX:84.112
;MINY:49.713
;MINZ:0.2
;MAXX:150.878
;MAXY:185.284
;MAXZ:2.2
;Generated with Cura_SteamEngine 5.2.1
M140 S65
M105
M190 S65
M104 S240
M105
M109 S240
M82 ;absolute extrusion mode
; Ender 3 Custom Start G-code
G92 E0 ; Reset Extruder
G28 ; Home all axes
G1 Z2.0 F3000 ; Move Z Axis up little to prevent scratching of Heat Bed
G1 X0.1 Y20 Z0.3 F5000.0 ; Move to start position
G1 X0.1 Y200.0 Z0.3 F1500.0 E15 ; Draw the first line
G1 X0.4 Y200.0 Z0.3 F5000.0 ; Move to side a little
G1 X0.4 Y20 Z0.3 F1500.0 E30 ; Draw the second line
G92 E0 ; Reset Extruder
G1 Z2.0 F3000 ; Move Z Axis up little to prevent scratching of Heat Bed
G1 X5 Y20 Z0.3 F5000.0 ; Move over to prevent blob squish
G92 E0
G92 E0
G1 F2700 E-5
;LAYER_COUNT:11
;LAYER:0
M107
G0 F6000 X85.509 Y53.076 Z0.2
;TYPE:SKIRT
G1 F2700 E0
G1 F900 X85.992 Y52.452 E0.02625
G1 X86.535 Y51.879 E0.0525
G1 X87.134 Y51.364 E0.07878
G1 X87.782 Y50.913 E0.10503
G1 X88.473 Y50.529 E0.13133
G1 X89.198 Y50.217 E0.15758
G1 X89.951 Y49.98 E0.18383
G1 X90.725 Y49.821 E0.21012
G1 X91.442 Y49.744 E0.2341
G1 X91.939 Y49.714 E0.25066
G1 X92.864 Y49.713 E0.28143
G1 X93.189 Y49.732 E0.29225
G1 X94.143 Y49.847 E0.32421
G1 X94.486 Y49.91 E0.33581
G1 X95.383 Y50.131 E0.36654
G1 X95.732 Y50.239 E0.37869
G1 X96.647 Y50.586 E0.41124
G1 X96.969 Y50.732 E0.423
G1 X97.745 Y51.138 E0.45213
G1 X98.055 Y51.323 E0.46413
G1 X98.775 Y51.809 E0.49303
G1 X99.07 Y52.033 E0.50535
G1 X99.691 Y52.558 E0.53239
G1 X99.968 Y52.818 E0.54503
G1 X100.498 Y53.366 E0.57038
G1 X100.752 Y53.656 E0.58321
G1 X101.215 Y54.239 E0.60797
G1 X101.446 Y54.56 E0.62112
G1 X101.845 Y55.174 E0.64548
G1 X102.05 Y55.524 E0.65897
G1 X102.375 Y56.138 E0.68207
G1 X102.55 Y56.509 E0.69572
G1 X102.791 Y57.078 E0.71627
G1 X102.94 Y57.472 E0.73028
G1 X103.155 Y58.127 E0.75321
G1 X103.269 Y58.534 E0.76727
G1 X103.407 Y59.112 E0.78703
G1 X103.491 Y59.533 E0.80131
G1 X103.587 Y60.138 E0.82168
G1 X103.638 Y60.567 E0.83605
G1 X103.688 Y61.203 E0.85727
G1 X103.709 Y61.925 E0.8813
G1 X103.71 Y104.2 E2.28737
G1 X121.276 Y104.2 E2.87162
G1 X121.509 Y103.989 E2.88207
G1 X122.086 Y103.515 E2.90691
G1 X122.876 Y102.927 E2.93966
G1 X123.529 Y102.49 E2.9658
G1 X124.37 Y101.987 E2.99839
G1 X125.033 Y101.633 E3.02339
G1 X125.919 Y101.213 E3.056
G1 X126.642 Y100.914 E3.08202
G1 X127.568 Y100.584 E3.11472
G1 X128.283 Y100.367 E3.13957
G1 X129.233 Y100.128 E3.17215
G1 X130.001 Y99.975 E3.1982
G1 X130.973 Y99.832 E3.23087
G1 X131.718 Y99.759 E3.25577
G1 X132.698 Y99.71 E3.28841
G1 X133.478 Y99.71 E3.31435
G1 X134.457 Y99.759 E3.34695
G1 X135.201 Y99.832 E3.37182
G1 X136.174 Y99.975 E3.40453
G1 X136.945 Y100.128 E3.43067
G1 X137.894 Y100.367 E3.46322
G1 X138.607 Y100.584 E3.48801
G1 X139.533 Y100.914 E3.5207
G1 X140.253 Y101.211 E3.54661
G1 X141.14 Y101.631 E3.57925
G1 X141.809 Y101.989 E3.60449
G1 X142.649 Y102.492 E3.63705
G1 X143.294 Y102.923 E3.66285
G1 X144.084 Y103.51 E3.69559
G1 X144.666 Y103.988 E3.72064
G1 X145.392 Y104.645 E3.7532
G1 X145.937 Y105.189 E3.77882
G1 X146.596 Y105.916 E3.81145
G1 X147.08 Y106.506 E3.83683
G1 X147.665 Y107.294 E3.86947
G1 X148.093 Y107.935 E3.89511
G1 X148.598 Y108.778 E3.92779
G1 X148.963 Y109.461 E3.95355
G1 X149.381 Y110.348 E3.98616
G1 X149.666 Y111.038 E4.011
G1 X149.998 Y111.963 E4.04368
G1 X150.223 Y112.702 E4.06938
G1 X150.461 Y113.652 E4.10195
G1 X150.611 Y114.405 E4.12749
G1 X150.755 Y115.377 E4.16017
G1 X150.829 Y116.13 E4.18533
G1 X150.878 Y117.109 E4.21794
G1 X150.878 Y117.889 E4.24388
G1 X150.829 Y118.869 E4.27651
G1 X150.755 Y119.621 E4.30165
G1 X150.611 Y120.594 E4.33436
G1 X150.461 Y121.348 E4.35993
G1 X150.223 Y122.298 E4.3925
G1 X150.003 Y123.025 E4.41777
G1 X149.673 Y123.949 E4.4504
G1 X149.38 Y124.658 E4.47592
G1 X148.96 Y125.547 E4.50862
G1 X148.595 Y126.228 E4.53432
G1 X148.091 Y127.068 E4.5669
G1 X147.669 Y127.701 E4.5922
G1 X147.084 Y128.49 E4.62487
G1 X146.597 Y129.082 E4.65037
G1 X145.939 Y129.808 E4.68296
G1 X145.399 Y130.349 E4.70838
G1 X144.672 Y131.008 E4.74102
G1 X144.081 Y131.493 E4.76644
G1 X143.29 Y132.08 E4.79921
G1 X142.649 Y132.508 E4.82484
G1 X141.809 Y133.011 E4.85741
G1 X141.14 Y133.369 E4.88264
G1 X140.253 Y133.789 E4.91528
G1 X139.533 Y134.086 E4.94119
G1 X138.607 Y134.416 E4.97388
G1 X137.894 Y134.633 E4.99867
G1 X136.945 Y134.872 E5.03122
G1 X136.182 Y135.024 E5.0571
G1 X135.209 Y135.168 E5.08981
G1 X134.449 Y135.243 E5.11521
G1 X133.47 Y135.291 E5.14781
G1 X132.706 Y135.291 E5.17323
G1 X131.726 Y135.243 E5.20586
G1 X130.965 Y135.168 E5.23129
G1 X129.993 Y135.024 E5.26397
G1 X129.233 Y134.872 E5.28975
G1 X128.283 Y134.633 E5.32233
G1 X127.568 Y134.416 E5.34719
G1 X126.642 Y134.086 E5.37988
G1 X125.919 Y133.787 E5.40591
G1 X125.033 Y133.367 E5.43852
G1 X124.37 Y133.013 E5.46351
G1 X123.529 Y132.51 E5.49611
G1 X122.881 Y132.077 E5.52203
G1 X122.091 Y131.49 E5.55476
G1 X121.504 Y131.008 E5.58003
G1 X121.275 Y130.8 E5.59032
G1 X103.709 Y130.8 E6.17456
G1 X103.709 Y173.097 E7.58137
G1 X103.687 Y173.812 E7.60516
G1 X103.639 Y174.428 E7.62571
G1 X103.588 Y174.858 E7.64011
G1 X103.497 Y175.437 E7.65961
G1 X103.414 Y175.861 E7.67398
G1 X103.257 Y176.511 E7.69622
G1 X103.141 Y176.916 E7.71023
G1 X102.949 Y177.501 E7.73071
G1 X102.802 Y177.894 E7.74466
G1 X102.554 Y178.482 E7.76589
G1 X102.378 Y178.856 E7.77964
G1 X102.049 Y179.48 E7.8031
G1 X101.845 Y179.828 E7.81652
G1 X101.44 Y180.448 E7.84115
G1 X101.209 Y180.768 E7.85427
G1 X100.76 Y181.334 E7.8783
G1 X100.505 Y181.626 E7.8912
G1 X99.957 Y182.192 E7.9174
G1 X99.68 Y182.451 E7.93001
G1 X99.083 Y182.956 E7.95602
G1 X98.788 Y183.181 E7.96836
G1 X98.074 Y183.666 E7.99707
G1 X97.766 Y183.851 E8.00902
G1 X96.954 Y184.275 E8.03949
G1 X96.63 Y184.421 E8.05131
G1 X95.731 Y184.762 E8.08328
G1 X95.398 Y184.865 E8.09488
G1 X94.545 Y185.077 E8.12411
G1 X94.202 Y185.142 E8.13572
G1 X93.252 Y185.262 E8.16757
G1 X92.911 Y185.284 E8.17894
G1 X91.892 Y185.283 E8.21283
G1 X91.395 Y185.25 E8.2294
G1 X90.611 Y185.158 E8.25565
G1 X89.84 Y184.987 E8.28192
G1 X89.09 Y184.739 E8.30819
G1 X88.369 Y184.416 E8.33447
G1 X87.685 Y184.022 E8.36072
G1 X87.044 Y183.561 E8.38698
G1 X86.453 Y183.038 E8.41323
G1 X85.917 Y182.457 E8.43952
G1 X85.443 Y181.826 E8.46577
G1 X85.036 Y181.149 E8.49204
G1 X84.699 Y180.435 E8.5183
G1 X84.436 Y179.691 E8.54455
G1 X84.249 Y178.923 E8.57084
G1 X84.141 Y178.141 E8.5971
G1 X84.112 Y177.467 E8.61954
G1 X84.112 Y57.53 E12.60866
G1 X84.152 Y56.741 E12.63493
G1 X84.271 Y55.961 E12.66117
G1 X84.469 Y55.196 E12.68746
G1 X84.743 Y54.456 E12.7137
G1 X85.091 Y53.747 E12.73997
G1 X85.509 Y53.076 E12.76627
G0 F6000 X85.906 Y53.207
G1 F900 X86.387 Y52.607 E12.79184
G1 X86.928 Y52.06 E12.81743
G1 X87.523 Y51.572 E12.84303
G1 X88.165 Y51.149 E12.8686
G1 X88.848 Y50.794 E12.8942
G1 X89.563 Y50.513 E12.91975
G1 X90.305 Y50.307 E12.94536
G1 X91.063 Y50.179 E12.97093
G1 X91.466 Y50.143 E12.98439
G1 X91.963 Y50.113 E13.00095
G1 X92.841 Y50.113 E13.03015
G1 X93.166 Y50.132 E13.04098
G1 X94.071 Y50.241 E13.0713
G1 X94.414 Y50.304 E13.0829
G1 X95.265 Y50.513 E13.11204
G1 X95.614 Y50.621 E13.12419
G1 X96.482 Y50.95 E13.15507
G1 X96.804 Y51.096 E13.16683
G1 X97.54 Y51.482 E13.19447
G1 X97.85 Y51.667 E13.20647
G1 X98.533 Y52.127 E13.23386
G1 X98.828 Y52.351 E13.24618
G1 X99.417 Y52.849 E13.27184
G1 X99.694 Y53.109 E13.28447
G1 X100.197 Y53.629 E13.30854
G1 X100.451 Y53.919 E13.32136
G1 X100.89 Y54.473 E13.34487
G1 X101.121 Y54.794 E13.35802
G1 X101.5 Y55.376 E13.38112
G1 X101.705 Y55.726 E13.39461
G1 X102.013 Y56.309 E13.41654
G1 X102.188 Y56.68 E13.43019
G1 X102.417 Y57.219 E13.44966
G1 X102.566 Y57.613 E13.46367
G1 X102.77 Y58.235 E13.48545
G1 X102.884 Y58.642 E13.4995
G1 X103.015 Y59.19 E13.51824
G1 X103.099 Y59.611 E13.53252
G1 X103.19 Y60.185 E13.55185
G1 X103.241 Y60.614 E13.56622
G1 X103.288 Y61.217 E13.58634
G1 X103.309 Y61.925 E13.6099
G1 X103.31 Y104.6 E15.02927
G1 X121.43 Y104.6 E15.63195
G1 X121.777 Y104.286 E15.64751
G1 X122.325 Y103.836 E15.6711
G1 X123.115 Y103.248 E15.70385
G1 X123.735 Y102.833 E15.72866
G1 X124.576 Y102.33 E15.76126
G1 X125.204 Y101.994 E15.78495
G1 X126.09 Y101.574 E15.81756
G1 X126.776 Y101.29 E15.84225
G1 X127.702 Y100.96 E15.87495
G1 X128.381 Y100.755 E15.89854
G1 X129.331 Y100.516 E15.93112
G1 X130.059 Y100.371 E15.95581
G1 X131.031 Y100.228 E15.98849
G1 X131.738 Y100.158 E16.01212
G1 X132.718 Y100.109 E16.04475
G1 X133.458 Y100.109 E16.06937
G1 X134.437 Y100.158 E16.10197
G1 X135.143 Y100.228 E16.12556
G1 X136.116 Y100.371 E16.15827
G1 X136.847 Y100.516 E16.18306
G1 X137.796 Y100.755 E16.21561
G1 X138.473 Y100.96 E16.23914
G1 X139.399 Y101.29 E16.27183
G1 X140.082 Y101.573 E16.29642
G1 X140.969 Y101.993 E16.32907
G1 X141.604 Y102.332 E16.35301
G1 X142.444 Y102.835 E16.38557
G1 X143.055 Y103.244 E16.41003
G1 X143.845 Y103.831 E16.44276
G1 X144.397 Y104.284 E16.46651
G1 X145.123 Y104.941 E16.49908
G1 X145.641 Y105.458 E16.52342
G1 X146.3 Y106.185 E16.55606
G1 X146.759 Y106.744 E16.58011
G1 X147.344 Y107.532 E16.61275
G1 X147.75 Y108.14 E16.63707
G1 X148.255 Y108.983 E16.66975
G1 X148.601 Y109.631 E16.69419
G1 X149.019 Y110.518 E16.7268
G1 X149.29 Y111.173 E16.75038
G1 X149.622 Y112.098 E16.78306
G1 X149.835 Y112.8 E16.80746
G1 X150.073 Y113.75 E16.84004
G1 X150.215 Y114.464 E16.86425
G1 X150.359 Y115.436 E16.89693
G1 X150.43 Y116.15 E16.9208
G1 X150.479 Y117.129 E16.9534
G1 X150.479 Y117.869 E16.97801
G1 X150.43 Y118.849 E17.01065
G1 X150.359 Y119.562 E17.03448
G1 X150.215 Y120.535 E17.06719
G1 X150.073 Y121.25 E17.09144
G1 X149.835 Y122.2 E17.12401
G1 X149.626 Y122.891 E17.14802
G1 X149.296 Y123.815 E17.18066
G1 X149.018 Y124.487 E17.20485
G1 X148.598 Y125.376 E17.23755
G1 X148.252 Y126.022 E17.26192
G1 X147.748 Y126.862 E17.2945
G1 X147.347 Y127.462 E17.31851
G1 X146.762 Y128.251 E17.35117
G1 X146.301 Y128.814 E17.37538
G1 X145.643 Y129.54 E17.40797
G1 X145.13 Y130.053 E17.4321
G1 X144.403 Y130.712 E17.46473
G1 X143.843 Y131.171 E17.48881
G1 X143.052 Y131.758 E17.52158
G1 X142.444 Y132.165 E17.54591
G1 X141.604 Y132.668 E17.57847
G1 X140.969 Y133.007 E17.60242
G1 X140.082 Y133.427 E17.63506
G1 X139.399 Y133.71 E17.65965
G1 X138.473 Y134.04 E17.69234
G1 X137.796 Y134.245 E17.71587
G1 X136.847 Y134.484 E17.74842
G1 X136.123 Y134.628 E17.77297
G1 X135.15 Y134.772 E17.80569
G1 X134.429 Y134.843 E17.82978
G1 X133.45 Y134.891 E17.86238
G1 X132.726 Y134.891 E17.88646
G1 X131.746 Y134.843 E17.9191
G1 X131.024 Y134.772 E17.94323
G1 X130.052 Y134.628 E17.97591
G1 X129.331 Y134.484 E18.00036
G1 X128.381 Y134.245 E18.03295
G1 X127.702 Y134.04 E18.05654
G1 X126.776 Y133.71 E18.08923
G1 X126.09 Y133.426 E18.11393
G1 X125.204 Y133.006 E18.14654
G1 X124.576 Y132.67 E18.17023
G1 X123.735 Y132.167 E18.20282
G1 X123.12 Y131.756 E18.22742
G1 X122.33 Y131.169 E18.26016
G1 X121.773 Y130.712 E18.28412
G1 X121.429 Y130.4 E18.29957
G1 X103.309 Y130.4 E18.90224
G1 X103.309 Y173.097 E20.32235
G1 X103.287 Y173.796 E20.34561
G1 X103.241 Y174.381 E20.36513
G1 X103.19 Y174.811 E20.37953
G1 X103.104 Y175.361 E20.39804
G1 X103.021 Y175.785 E20.41241
G1 X102.873 Y176.401 E20.43349
G1 X102.757 Y176.806 E20.4475
G1 X102.574 Y177.361 E20.46693
G1 X102.427 Y177.754 E20.48089
G1 X102.192 Y178.312 E20.50103
G1 X102.016 Y178.686 E20.51478
G1 X101.704 Y179.277 E20.537
G1 X101.5 Y179.625 E20.55042
G1 X101.116 Y180.214 E20.57381
G1 X100.885 Y180.534 E20.58693
G1 X100.459 Y181.071 E20.60973
G1 X100.204 Y181.363 E20.62263
G1 X99.684 Y181.9 E20.64749
G1 X99.407 Y182.159 E20.6601
G1 X98.841 Y182.638 E20.68476
G1 X98.546 Y182.863 E20.6971
G1 X97.868 Y183.323 E20.72435
G1 X97.56 Y183.508 E20.7363
G1 X96.79 Y183.911 E20.76521
G1 X96.466 Y184.057 E20.77703
G1 X95.613 Y184.38 E20.80737
G1 X95.28 Y184.483 E20.81896
G1 X94.471 Y184.684 E20.84668
G1 X94.128 Y184.749 E20.8583
G1 X93.226 Y184.863 E20.88853
G1 X92.885 Y184.885 E20.8999
G1 X91.919 Y184.884 E20.93203
G1 X91.422 Y184.851 E20.9486
G1 X90.658 Y184.76 E20.97419
G1 X89.908 Y184.59 E20.99976
G1 X89.179 Y184.344 E21.02535
G1 X88.48 Y184.023 E21.05094
G1 X87.818 Y183.631 E21.07653
G1 X87.2 Y183.173 E21.10211
G1 X86.634 Y182.653 E21.12767
G1 X86.124 Y182.077 E21.15326
G1 X85.676 Y181.452 E21.17884
G1 X85.296 Y180.783 E21.20443
G1 X84.988 Y180.078 E21.23002
G1 X84.754 Y179.345 E21.25561
G1 X84.598 Y178.592 E21.28119
G1 X84.512 Y177.467 E21.31871
G1 X84.512 Y57.53 E25.30783
G1 X84.552 Y56.762 E25.33341
G1 X84.671 Y56.002 E25.359
G1 X84.869 Y55.259 E25.38457
G1 X85.143 Y54.54 E25.41016
G1 X85.49 Y53.854 E25.43573
G1 X85.906 Y53.207 E25.46132
G0 F6000 X86.304 Y53.341
G1 F900 X86.783 Y52.767 E25.48618
G1 X87.32 Y52.246 E25.51107
G1 X87.91 Y51.787 E25.53593
G1 X88.546 Y51.392 E25.56083
G1 X89.22 Y51.068 E25.5857
G1 X89.925 Y50.818 E25.61058
G1 X90.653 Y50.644 E25.63548
G1 X91.49 Y50.543 E25.66352
G1 X91.987 Y50.513 E25.68008
G1 X92.818 Y50.512 E25.70772
G1 X93.143 Y50.531 E25.71855
G1 X93.999 Y50.634 E25.74722
G1 X94.342 Y50.697 E25.75882
G1 X95.146 Y50.895 E25.78636
G1 X95.495 Y51.003 E25.79851
G1 X96.317 Y51.315 E25.82776
G1 X96.639 Y51.461 E25.83952
G1 X97.335 Y51.825 E25.86564
G1 X97.645 Y52.01 E25.87765
G1 X98.291 Y52.446 E25.90357
G1 X98.586 Y52.67 E25.91589
G1 X99.144 Y53.141 E25.94017
G1 X99.421 Y53.401 E25.95281
G1 X99.896 Y53.893 E25.97556
G1 X100.15 Y54.183 E25.98838
G1 X100.566 Y54.706 E26.01061
G1 X100.797 Y55.027 E26.02376
G1 X101.155 Y55.578 E26.04561
G1 X101.36 Y55.928 E26.0591
G1 X101.651 Y56.48 E26.07986
G1 X101.826 Y56.851 E26.0935
G1 X102.042 Y57.361 E26.11192
G1 X102.191 Y57.755 E26.12593
G1 X102.385 Y58.343 E26.14653
G1 X102.499 Y58.75 E26.16059
G1 X102.623 Y59.268 E26.1783
G1 X102.707 Y59.689 E26.19258
G1 X102.793 Y60.233 E26.2109
G1 X102.844 Y60.662 E26.22527
G1 X102.888 Y61.232 E26.24428
G1 X102.909 Y61.925 E26.26734
G1 X102.91 Y105 E27.70002
G1 X121.584 Y105 E28.32112
G1 X122.046 Y104.582 E28.34184
G1 X122.563 Y104.157 E28.3641
G1 X123.353 Y103.569 E28.39686
G1 X123.94 Y103.177 E28.42034
G1 X124.781 Y102.674 E28.45293
G1 X125.376 Y102.356 E28.47537
G1 X126.262 Y101.936 E28.50798
G1 X126.91 Y101.667 E28.53131
G1 X127.836 Y101.337 E28.56401
G1 X128.478 Y101.143 E28.58632
G1 X129.428 Y100.904 E28.6189
G1 X130.117 Y100.767 E28.64226
G1 X131.089 Y100.624 E28.67494
G1 X131.758 Y100.558 E28.6973
G1 X132.738 Y100.509 E28.72994
G1 X133.438 Y100.509 E28.75322
G1 X134.417 Y100.558 E28.78582
G1 X135.085 Y100.623 E28.80814
G1 X136.058 Y100.766 E28.84085
G1 X136.75 Y100.904 E28.86432
G1 X137.699 Y101.143 E28.89687
G1 X138.339 Y101.337 E28.91911
G1 X139.265 Y101.667 E28.95181
G1 X139.911 Y101.934 E28.97506
G1 X140.798 Y102.354 E29.0077
G1 X141.398 Y102.675 E29.03033
G1 X142.238 Y103.178 E29.0629
G1 X142.817 Y103.565 E29.08606
G1 X143.607 Y104.152 E29.1188
G1 X144.129 Y104.581 E29.14127
G1 X144.855 Y105.238 E29.17384
G1 X145.344 Y105.727 E29.19684
G1 X146.003 Y106.454 E29.22947
G1 X146.437 Y106.982 E29.25221
G1 X147.022 Y107.77 E29.28485
G1 X147.407 Y108.346 E29.30789
G1 X147.912 Y109.189 E29.34057
G1 X148.239 Y109.802 E29.36368
G1 X148.657 Y110.689 E29.3963
G1 X148.913 Y111.308 E29.41858
G1 X149.245 Y112.233 E29.45126
G1 X149.447 Y112.897 E29.47435
G1 X149.685 Y113.847 E29.50692
G1 X149.819 Y114.522 E29.52981
G1 X149.963 Y115.494 E29.56249
G1 X150.03 Y116.17 E29.58508
G1 X150.079 Y117.149 E29.61769
G1 X150.079 Y117.849 E29.64097
G1 X150.03 Y118.829 E29.6736
G1 X149.964 Y119.504 E29.69616
G1 X149.82 Y120.477 E29.72888
G1 X149.685 Y121.153 E29.7518
G1 X149.447 Y122.103 E29.78438
G1 X149.249 Y122.756 E29.80707
G1 X148.919 Y123.68 E29.83971
G1 X148.656 Y124.316 E29.8626
