;FLAVOR:Marlin
;TIME:1406
;Filament used: 0.718253m
;Layer height: 0.2
;MINX:83.208
;MINY:92.107
;MINZ:0.2
;MAXX:151.791
;MAXY:142.91
;MAXZ:7
;Generated with Cura_SteamEngine 5.2.1
M140 S65
M105
M190 S65
M104 S240
M105
M109 S240
M82 ;absolute extrusion mode
; Ender 3 Custom Start G-code
G92 E0 ; Reset Extruder
G28 ; Home all axes
G1 Z2.0 F3000 ; Move Z Axis up little to prevent scratching of Heat Bed
G1 X0.1 Y20 Z0.3 F5000.0 ; Move to start position
G1 X0.1 Y200.0 Z0.3 F1500.0 E15 ; Draw the first line
G1 X0.4 Y200.0 Z0.3 F5000.0 ; Move to side a little
G1 X0.4 Y20 Z0.3 F1500.0 E30 ; Draw the second line
G92 E0 ; Reset Extruder
G1 Z2.0 F3000 ; Move Z Axis up little to prevent scratching of Heat Bed
G1 X5 Y20 Z0.3 F5000.0 ; Move over to prevent blob squish
G92 E0
G92 E0
G1 F2700 E-5
;LAYER_COUNT:35
;LAYER:0
M107
G0 F6000 X86.243 Y94.94 Z0.2
;TYPE:SKIRT
G1 F2700 E0
G1 F900 X86.775 Y94.46 E0.02383
G1 X87.153 Y94.149 E0.04011
G1 X87.788 Y93.678 E0.06641
G1 X88.413 Y93.303 E0.09065
G1 X88.82 Y93.084 E0.10602
G1 X89.533 Y92.746 E0.13227
G1 X90.278 Y92.481 E0.15857
G1 X91.044 Y92.293 E0.1848
G1 X91.827 Y92.184 E0.21109
G1 X92.516 Y92.153 E0.23403
G1 X106.155 Y92.153 E0.68767
G1 X106.601 Y92.107 E0.70258
G1 X107.391 Y92.107 E0.72886
G1 X108.177 Y92.186 E0.75513
G1 X108.95 Y92.344 E0.78137
G1 X109.704 Y92.58 E0.80765
G1 X110.122 Y92.748 E0.82263
G1 X110.459 Y92.895 E0.83486
G1 X111.362 Y93.361 E0.86866
G1 X111.583 Y93.494 E0.87724
G1 X112.521 Y94.157 E0.91544
G1 X112.89 Y94.461 E0.93134
G1 X113.473 Y94.993 E0.9576
G1 X113.953 Y95.525 E0.98143
G1 X114.264 Y95.903 E0.99771
G1 X114.735 Y96.538 E1.024
G1 X115.117 Y97.176 E1.04874
G1 X115.35 Y97.611 E1.06515
G1 X115.687 Y98.325 E1.09141
G1 X115.942 Y99.042 E1.11672
G1 X116.119 Y99.629 E1.13711
G1 X116.308 Y100.396 E1.16339
G1 X116.419 Y101.178 E1.18966
G1 X116.451 Y101.881 E1.21306
G1 X116.451 Y102.2 E1.22367
G1 X124.928 Y102.2 E1.50562
G1 X125.273 Y101.993 E1.519
G1 X125.948 Y101.631 E1.54448
G1 X126.835 Y101.211 E1.57712
G1 X127.555 Y100.914 E1.60302
G1 X128.481 Y100.584 E1.63572
G1 X129.194 Y100.367 E1.66051
G1 X130.143 Y100.128 E1.69306
G1 X130.906 Y99.976 E1.71893
G1 X131.879 Y99.832 E1.75165
G1 X132.639 Y99.757 E1.77705
G1 X133.618 Y99.709 E1.80965
G1 X134.382 Y99.709 E1.83506
G1 X135.362 Y99.757 E1.86769
G1 X136.123 Y99.832 E1.89313
G1 X137.095 Y99.976 E1.92581
G1 X137.855 Y100.128 E1.95159
G1 X138.805 Y100.367 E1.98417
G1 X139.52 Y100.584 E2.00902
G1 X140.446 Y100.914 E2.04172
G1 X141.169 Y101.213 E2.06774
G1 X142.055 Y101.633 E2.10035
G1 X142.724 Y101.99 E2.12557
G1 X143.565 Y102.494 E2.15818
G1 X144.201 Y102.919 E2.18362
G1 X144.99 Y103.504 E2.21629
G1 X145.582 Y103.991 E2.24179
G1 X146.308 Y104.649 E2.27438
G1 X146.849 Y105.189 E2.2998
G1 X147.508 Y105.916 E2.33244
G1 X147.991 Y106.504 E2.35775
G1 X148.577 Y107.293 E2.39043
G1 X149.004 Y107.932 E2.416
G1 X149.509 Y108.774 E2.44865
G1 X149.874 Y109.458 E2.47444
G1 X150.292 Y110.344 E2.50702
G1 X150.58 Y111.04 E2.53207
G1 X150.912 Y111.966 E2.56479
G1 X151.136 Y112.702 E2.59038
G1 X151.374 Y113.652 E2.62295
G1 X151.524 Y114.404 E2.64846
G1 X151.668 Y115.375 E2.68111
G1 X151.743 Y116.137 E2.70657
G1 X151.791 Y117.117 E2.73921
G1 X151.791 Y117.881 E2.76462
G1 X151.743 Y118.861 E2.79725
G1 X151.668 Y119.621 E2.82265
G1 X151.524 Y120.594 E2.85537
G1 X151.374 Y121.348 E2.88094
G1 X151.136 Y122.298 E2.91351
G1 X150.913 Y123.032 E2.93903
G1 X150.582 Y123.956 E2.97167
G1 X150.293 Y124.654 E2.9968
G1 X149.874 Y125.542 E3.02946
G1 X149.511 Y126.224 E3.05515
G1 X149.007 Y127.065 E3.08776
G1 X148.578 Y127.706 E3.11342
G1 X147.992 Y128.495 E3.1461
G1 X147.509 Y129.082 E3.17139
G1 X146.851 Y129.808 E3.20398
G1 X146.311 Y130.349 E3.2294
G1 X145.584 Y131.008 E3.26204
G1 X144.997 Y131.49 E3.2873
G1 X144.207 Y132.077 E3.32003
G1 X143.559 Y132.51 E3.34595
G1 X142.718 Y133.013 E3.37855
G1 X142.049 Y133.37 E3.40377
G1 X141.163 Y133.789 E3.43637
G1 X140.46 Y134.08 E3.46167
G1 X139.534 Y134.412 E3.49439
G1 X138.798 Y134.636 E3.51998
G1 X137.848 Y134.874 E3.55255
G1 X137.095 Y135.024 E3.57809
G1 X136.123 Y135.168 E3.61077
G1 X135.362 Y135.243 E3.6362
G1 X134.382 Y135.291 E3.66884
G1 X133.618 Y135.291 E3.69425
G1 X132.639 Y135.243 E3.72685
G1 X131.879 Y135.168 E3.75225
G1 X130.906 Y135.024 E3.78496
G1 X130.151 Y134.874 E3.81057
G1 X129.202 Y134.636 E3.84311
G1 X128.467 Y134.412 E3.86866
G1 X127.541 Y134.08 E3.90138
G1 X126.841 Y133.791 E3.92657
G1 X125.954 Y133.372 E3.9592
G1 X125.279 Y133.011 E3.98466
G1 X124.927 Y132.8 E3.99831
G1 X116.461 Y132.8 E4.27989
G1 X116.425 Y133.533 E4.3043
G1 X116.368 Y134.106 E4.32345
G1 X116.25 Y134.887 E4.34972
G1 X115.946 Y135.973 E4.38723
G1 X115.768 Y136.468 E4.40473
G1 X115.463 Y137.197 E4.43101
G1 X115.111 Y137.851 E4.45571
G1 X114.919 Y138.17 E4.4681
G1 X114.256 Y139.108 E4.5063
G1 X113.952 Y139.477 E4.5222
G1 X113.42 Y140.06 E4.54845
G1 X112.886 Y140.541 E4.57236
G1 X112.43 Y140.916 E4.59199
G1 X111.796 Y141.387 E4.61826
G1 X110.79 Y141.953 E4.65665
G1 X110.317 Y142.175 E4.67403
G1 X109.586 Y142.474 E4.7003
G1 X108.829 Y142.697 E4.72655
G1 X108.053 Y142.843 E4.75281
G1 X107.266 Y142.91 E4.77908
G1 X106.476 Y142.896 E4.80536
G1 X105.692 Y142.803 E4.83162
G1 X105.445 Y142.748 E4.84004
G1 X92.309 Y142.748 E5.27694
G1 X91.52 Y142.708 E5.30322
G1 X90.74 Y142.589 E5.32946
G1 X89.975 Y142.391 E5.35574
G1 X89.235 Y142.117 E5.38199
G1 X88.157 Y141.562 E5.42232
G1 X87.14 Y140.841 E5.46378
G1 X86.77 Y140.536 E5.47973
G1 X86.186 Y140.003 E5.50603
G1 X85.706 Y139.471 E5.52986
G1 X85.396 Y139.094 E5.54609
G1 X84.926 Y138.459 E5.57237
G1 X84.539 Y137.812 E5.59744
G1 X84.261 Y137.291 E5.61708
G1 X83.925 Y136.576 E5.64336
G1 X83.574 Y135.504 E5.68088
G1 X83.448 Y134.998 E5.69822
G1 X83.296 Y134.223 E5.72449
G1 X83.225 Y133.467 E5.74974
G1 X83.208 Y133.093 E5.7622
G1 X83.238 Y131.967 E5.79966
G1 X83.295 Y131.394 E5.81881
G1 X83.413 Y130.613 E5.84508
G1 X83.717 Y129.527 E5.88259
G1 X83.895 Y129.032 E5.90009
G1 X84.2 Y128.303 E5.92637
G1 X84.552 Y127.649 E5.95107
G1 X84.744 Y127.33 E5.96346
G1 X85.394 Y126.408 E6.00098
G1 X85.68 Y126.059 E6.01598
G1 X86.211 Y125.474 E6.04226
G1 X86.798 Y124.946 E6.06852
G1 X87.436 Y124.48 E6.0948
G1 X88.117 Y124.081 E6.12105
G1 X88.835 Y123.753 E6.14731
G1 X89.583 Y123.499 E6.17358
G1 X90.353 Y123.323 E6.19985
G1 X91.136 Y123.224 E6.2261
G1 X91.713 Y123.203 E6.2453
G1 X96.202 Y123.203 E6.39461
G1 X96.202 Y111.798 E6.77394
G1 X91.714 Y111.798 E6.92321
G1 X90.925 Y111.758 E6.94949
G1 X90.145 Y111.639 E6.97573
G1 X89.38 Y111.441 E7.00201
G1 X88.64 Y111.167 E7.02826
G1 X87.931 Y110.819 E7.05453
G1 X87.26 Y110.401 E7.08082
G1 X86.636 Y109.918 E7.10707
G1 X86.063 Y109.375 E7.13332
G1 X85.678 Y108.938 E7.15269
G1 X85.385 Y108.58 E7.16808
G1 X84.916 Y107.945 E7.19434
G1 X84.539 Y107.312 E7.21884
G1 X84.261 Y106.791 E7.23848
G1 X83.925 Y106.076 E7.26476
G1 X83.574 Y105.004 E7.30228
G1 X83.448 Y104.498 E7.31962
G1 X83.296 Y103.723 E7.34589
G1 X83.225 Y102.967 E7.37114
G1 X83.208 Y102.593 E7.38359
G1 X83.238 Y101.467 E7.42106
G1 X83.295 Y100.894 E7.44021
G1 X83.413 Y100.113 E7.46648
G1 X83.717 Y99.027 E7.50399
G1 X83.895 Y98.532 E7.52149
G1 X84.2 Y97.803 E7.54777
G1 X84.552 Y97.149 E7.57247
G1 X84.744 Y96.83 E7.58486
G1 X85.407 Y95.892 E7.62306
G1 X85.711 Y95.523 E7.63896
G1 X86.243 Y94.94 E7.66521
G0 F6000 X86.539 Y95.21
G1 F900 X87.029 Y94.769 E7.68714
G1 X87.407 Y94.458 E7.70342
G1 X88.026 Y94 E7.72903
G1 X88.603 Y93.655 E7.75139
G1 X89.01 Y93.436 E7.76676
G1 X89.705 Y93.108 E7.79232
G1 X90.431 Y92.853 E7.81792
G1 X91.179 Y92.675 E7.84349
G1 X91.942 Y92.575 E7.86908
G1 X92.516 Y92.553 E7.88819
G1 X106.113 Y92.553 E8.34043
G1 X106.922 Y92.497 E8.3674
G1 X107.69 Y92.529 E8.39297
G1 X108.451 Y92.64 E8.41854
G1 X109.197 Y92.83 E8.44415
G1 X109.962 Y93.114 E8.47129
G1 X110.299 Y93.261 E8.48352
G1 X111.156 Y93.704 E8.5156
G1 X111.377 Y93.837 E8.52418
G1 X112.266 Y94.466 E8.5604
G1 X112.635 Y94.77 E8.57631
G1 X113.203 Y95.289 E8.6019
G1 X113.644 Y95.779 E8.62382
G1 X113.955 Y96.157 E8.6401
G1 X114.413 Y96.776 E8.66571
G1 X114.764 Y97.365 E8.68852
G1 X114.997 Y97.8 E8.70493
G1 X115.325 Y98.496 E8.73052
G1 X115.559 Y99.158 E8.75388
G1 X115.736 Y99.745 E8.77427
G1 X115.919 Y100.492 E8.79985
G1 X116.024 Y101.254 E8.82543
G1 X116.051 Y101.881 E8.84631
G1 X116.054 Y102.6 E8.87022
G1 X125.039 Y102.6 E9.16906
G1 X125.479 Y102.336 E9.18613
G1 X126.119 Y101.993 E9.21028
G1 X127.006 Y101.573 E9.24292
G1 X127.689 Y101.29 E9.26751
G1 X128.615 Y100.96 E9.30021
G1 X129.292 Y100.755 E9.32373
G1 X130.241 Y100.516 E9.35628
G1 X130.965 Y100.372 E9.38084
G1 X131.938 Y100.228 E9.41355
G1 X132.659 Y100.157 E9.43765
G1 X133.638 Y100.109 E9.47025
G1 X134.362 Y100.109 E9.49433
G1 X135.342 Y100.157 E9.52696
G1 X136.064 Y100.228 E9.55109
G1 X137.036 Y100.372 E9.58377
G1 X137.757 Y100.516 E9.60823
G1 X138.707 Y100.755 E9.64081
G1 X139.386 Y100.96 E9.6644
G1 X140.312 Y101.29 E9.6971
G1 X140.998 Y101.574 E9.72179
G1 X141.884 Y101.994 E9.7544
G1 X142.518 Y102.334 E9.77833
G1 X143.359 Y102.838 E9.81094
G1 X143.962 Y103.241 E9.83506
G1 X144.751 Y103.826 E9.86773
G1 X145.314 Y104.287 E9.89193
G1 X146.04 Y104.945 E9.92452
G1 X146.553 Y105.458 E9.94865
G1 X147.212 Y106.185 E9.98129
G1 X147.67 Y106.743 E10.0053
G1 X148.256 Y107.532 E10.03799
G1 X148.661 Y108.138 E10.06223
G1 X149.166 Y108.98 E10.09488
G1 X149.513 Y109.629 E10.11936
G1 X149.931 Y110.515 E10.15195
G1 X150.204 Y111.175 E10.1757
G1 X150.536 Y112.101 E10.20842
G1 X150.748 Y112.8 E10.23271
G1 X150.986 Y113.75 E10.26529
G1 X151.128 Y114.462 E10.28944
G1 X151.272 Y115.433 E10.32208
G1 X151.343 Y116.157 E10.34628
G1 X151.391 Y117.137 E10.37891
G1 X151.391 Y117.861 E10.40299
G1 X151.343 Y118.841 E10.43563
G1 X151.272 Y119.562 E10.45972
G1 X151.128 Y120.535 E10.49244
G1 X150.986 Y121.25 E10.51668
G1 X150.748 Y122.2 E10.54926
G1 X150.536 Y122.898 E10.57352
G1 X150.205 Y123.822 E10.60617
G1 X149.931 Y124.484 E10.63
G1 X149.512 Y125.372 E10.66265
G1 X149.167 Y126.018 E10.68701
G1 X148.663 Y126.859 E10.71962
G1 X148.257 Y127.467 E10.74394
G1 X147.671 Y128.256 E10.77663
G1 X147.213 Y128.814 E10.80064
G1 X146.555 Y129.54 E10.83323
G1 X146.042 Y130.053 E10.85736
G1 X145.315 Y130.712 E10.88999
G1 X144.758 Y131.169 E10.91395
G1 X143.968 Y131.756 E10.94669
G1 X143.353 Y132.167 E10.97129
G1 X142.512 Y132.67 E11.00388
G1 X141.878 Y133.009 E11.0278
G1 X140.992 Y133.428 E11.06039
G1 X140.325 Y133.704 E11.0844
G1 X139.399 Y134.036 E11.11712
G1 X138.7 Y134.248 E11.14142
G1 X137.75 Y134.486 E11.17399
G1 X137.036 Y134.628 E11.1982
G1 X136.064 Y134.772 E11.23088
G1 X135.342 Y134.843 E11.25501
G1 X134.362 Y134.891 E11.28765
G1 X133.638 Y134.891 E11.31173
G1 X132.659 Y134.843 E11.34433
G1 X131.938 Y134.772 E11.36843
G1 X130.965 Y134.628 E11.40114
G1 X130.248 Y134.486 E11.42545
G1 X129.299 Y134.248 E11.45799
G1 X128.602 Y134.036 E11.48222
G1 X127.676 Y133.704 E11.51494
G1 X127.012 Y133.429 E11.53885
G1 X126.125 Y133.01 E11.57147
G1 X125.484 Y132.668 E11.59564
G1 X125.036 Y132.4 E11.613
G1 X116.063 Y132.4 E11.91144
G1 X116.063 Y132.761 E11.92345
G1 X116.027 Y133.494 E11.94786
G1 X115.97 Y134.067 E11.96701
G1 X115.854 Y134.827 E11.99258
G1 X115.569 Y135.838 E12.02752
G1 X115.391 Y136.333 E12.04502
G1 X115.094 Y137.042 E12.07058
G1 X114.768 Y137.645 E12.09338
G1 X114.576 Y137.964 E12.10576
G1 X113.947 Y138.853 E12.14199
G1 X113.643 Y139.222 E12.15789
G1 X113.124 Y139.79 E12.18348
G1 X112.632 Y140.233 E12.2055
G1 X112.176 Y140.608 E12.22513
G1 X111.558 Y141.065 E12.2507
G1 X110.62 Y141.591 E12.28647
G1 X110.147 Y141.813 E12.30385
G1 X109.435 Y142.103 E12.32942
G1 X108.696 Y142.318 E12.35501
G1 X107.939 Y142.455 E12.3806
G1 X107.172 Y142.512 E12.40618
G1 X106.403 Y142.49 E12.43177
G1 X105.641 Y142.388 E12.45734
G1 X105.476 Y142.348 E12.46299
G1 X92.309 Y142.348 E12.90092
G1 X91.541 Y142.308 E12.9265
G1 X90.781 Y142.189 E12.95209
G1 X90.038 Y141.991 E12.97766
G1 X89.319 Y141.717 E13.00325
G1 X88.361 Y141.217 E13.0392
G1 X87.394 Y140.532 E13.07861
G1 X87.024 Y140.227 E13.09456
G1 X86.457 Y139.708 E13.12012
G1 X86.015 Y139.217 E13.1421
G1 X85.705 Y138.84 E13.15833
G1 X85.248 Y138.221 E13.18392
G1 X84.892 Y137.624 E13.20704
G1 X84.614 Y137.103 E13.22668
G1 X84.288 Y136.406 E13.25227
G1 X83.962 Y135.407 E13.28723
G1 X83.836 Y134.901 E13.30457
G1 X83.689 Y134.146 E13.33015
G1 X83.625 Y133.449 E13.35343
G1 X83.608 Y133.075 E13.36588
G1 X83.636 Y132.006 E13.40145
G1 X83.693 Y131.433 E13.4206
G1 X83.809 Y130.673 E13.44617
G1 X84.094 Y129.662 E13.48111
G1 X84.272 Y129.167 E13.49861
G1 X84.569 Y128.458 E13.52417
G1 X84.895 Y127.855 E13.54697
G1 X85.087 Y127.536 E13.55936
G1 X85.703 Y126.662 E13.59492
G1 X85.989 Y126.313 E13.60993
G1 X86.507 Y125.744 E13.63552
G1 X87.081 Y125.232 E13.6611
G1 X87.705 Y124.782 E13.68669
G1 X88.373 Y124.4 E13.71229
G1 X89.076 Y124.089 E13.73785
G1 X89.808 Y123.852 E13.76344
G1 X90.561 Y123.693 E13.78904
G1 X91.325 Y123.613 E13.81459
G1 X91.713 Y123.603 E13.8275
G1 X96.602 Y123.603 E13.99011
G1 X96.602 Y111.398 E14.39605
G1 X91.714 Y111.398 E14.55862
G1 X90.946 Y111.358 E14.5842
G1 X90.186 Y111.239 E14.60979
G1 X89.443 Y111.041 E14.63536
G1 X88.724 Y110.767 E14.66095
G1 X88.038 Y110.42 E14.68652
G1 X87.391 Y110.004 E14.71211
G1 X86.791 Y109.523 E14.73768
G1 X86.244 Y108.982 E14.76327
G1 X85.987 Y108.685 E14.77634
G1 X85.694 Y108.327 E14.79172
G1 X85.239 Y107.707 E14.8173
G1 X84.892 Y107.124 E14.83987
G1 X84.614 Y106.603 E14.85951
G1 X84.288 Y105.906 E14.8851
G1 X83.962 Y104.907 E14.92005
G1 X83.836 Y104.401 E14.9374
G1 X83.689 Y103.646 E14.96298
G1 X83.625 Y102.949 E14.98626
G1 X83.608 Y102.575 E14.99871
G1 X83.636 Y101.506 E15.03428
G1 X83.693 Y100.933 E15.05343
G1 X83.809 Y100.173 E15.079
G1 X84.094 Y99.162 E15.11394
G1 X84.272 Y98.667 E15.13143
G1 X84.569 Y97.958 E15.157
G1 X84.895 Y97.355 E15.1798
G1 X85.087 Y97.036 E15.19218
G1 X85.716 Y96.147 E15.2284
G1 X86.02 Y95.778 E15.2443
G1 X86.539 Y95.21 E15.2699
G0 F6000 X86.834 Y95.481
G1 F900 X87.284 Y95.077 E15.29001
G1 X87.662 Y94.766 E15.30629
G1 X88.264 Y94.323 E15.33115
G1 X88.792 Y94.008 E15.3516
G1 X89.199 Y93.789 E15.36697
G1 X89.876 Y93.47 E15.39186
G1 X90.583 Y93.225 E15.41675
G1 X91.312 Y93.057 E15.44163
G1 X92.054 Y92.968 E15.46649
G1 X92.516 Y92.953 E15.48186
G1 X106.197 Y92.953 E15.93689
G1 X106.486 Y92.916 E15.94658
G1 X107.234 Y92.901 E15.97147
G1 X107.979 Y92.965 E15.99634
G1 X108.713 Y93.109 E16.02122
G1 X109.428 Y93.33 E16.04611
G1 X109.802 Y93.481 E16.05952
G1 X110.139 Y93.628 E16.07175
G1 X110.949 Y94.046 E16.10207
G1 X111.17 Y94.179 E16.11065
G1 X112.012 Y94.774 E16.14494
G1 X112.381 Y95.078 E16.16084
G1 X112.932 Y95.584 E16.18572
G1 X113.336 Y96.034 E16.20583
G1 X113.647 Y96.412 E16.22212
G1 X114.09 Y97.014 E16.24697
G1 X114.412 Y97.554 E16.26789
G1 X114.645 Y97.989 E16.2843
G1 X114.962 Y98.666 E16.30916
G1 X115.176 Y99.273 E16.33057
G1 X115.353 Y99.86 E16.35096
G1 X115.53 Y100.587 E16.37585
G1 X115.629 Y101.328 E16.40071
G1 X115.651 Y101.881 E16.41912
G1 X115.651 Y102.423 E16.43715
G1 X115.672 Y103 E16.45635
G1 X125.15 Y103 E16.77159
G1 X125.685 Y102.679 E16.79234
G1 X126.29 Y102.354 E16.81518
G1 X127.177 Y101.934 E16.84783
G1 X127.823 Y101.667 E16.87107
G1 X128.749 Y101.337 E16.90377
G1 X129.389 Y101.143 E16.92601
G1 X130.338 Y100.904 E16.95856
G1 X131.023 Y100.767 E16.9818
G1 X131.996 Y100.623 E17.01451
G1 X132.678 Y100.556 E17.0373
G1 X133.657 Y100.508 E17.06991
G1 X134.342 Y100.508 E17.09269
G1 X135.322 Y100.556 E17.12532
G1 X136.006 Y100.624 E17.14818
G1 X136.978 Y100.768 E17.18087
G1 X137.66 Y100.904 E17.204
G1 X138.61 Y101.143 E17.23658
G1 X139.252 Y101.337 E17.25888
