;FLAVOR:Marlin
;TIME:2254
;Filament used: 1.29422m
;Layer height: 0.2
;MINX:79.61
;MINY:91.95
;MINZ:0.2
;MAXX:155.381
;MAXY:143.05
;MAXZ:5
;Generated with Cura_SteamEngine 5.2.1
M140 S65
M105
M190 S65
M104 S240
M105
M109 S240
M82 ;absolute extrusion mode
; Ender 3 Custom Start G-code
G92 E0 ; Reset Extruder
G28 ; Home all axes
G1 Z2.0 F3000 ; Move Z Axis up little to prevent scratching of Heat Bed
G1 X0.1 Y20 Z0.3 F5000.0 ; Move to start position
G1 X0.1 Y200.0 Z0.3 F1500.0 E15 ; Draw the first line
G1 X0.4 Y200.0 Z0.3 F5000.0 ; Move to side a little
G1 X0.4 Y20 Z0.3 F1500.0 E30 ; Draw the second line
G92 E0 ; Reset Extruder
G1 Z2.0 F3000 ; Move Z Axis up little to prevent scratching of Heat Bed
G1 X5 Y20 Z0.3 F5000.0 ; Move over to prevent blob squish
G92 E0
G92 E0
G1 F2700 E-5
;LAYER_COUNT:25
;LAYER:0
M107
G0 F6000 X82.033 Y94.099 Z0.2
;TYPE:SKIRT
G1 F2700 E0
G1 F900 X82.632 Y93.584 E0.02627
G1 X83.28 Y93.133 E0.05253
G1 X83.971 Y92.749 E0.07883
G1 X84.696 Y92.437 E0.10508
G1 X85.449 Y92.2 E0.13133
G1 X86.223 Y92.041 E0.15761
G1 X87.008 Y91.96 E0.18386
G1 X87.41 Y91.95 E0.19724
G1 X95.889 Y91.95 E0.47925
G1 X96.678 Y91.99 E0.50553
G1 X97.458 Y92.109 E0.53177
G1 X98.223 Y92.307 E0.55805
G1 X98.782 Y92.514 E0.57788
G1 X98.881 Y92.544 E0.58132
G1 X99.505 Y92.799 E0.60374
G1 X99.827 Y92.947 E0.61553
G1 X100.596 Y93.353 E0.64445
G1 X100.825 Y93.491 E0.65334
G1 X101.763 Y94.155 E0.69156
G1 X102.14 Y94.466 E0.70782
G1 X102.722 Y94.999 E0.73407
G1 X103.207 Y95.537 E0.75816
G1 X103.517 Y95.915 E0.77442
G1 X103.986 Y96.55 E0.80068
G1 X104.355 Y97.165 E0.82453
G1 X104.588 Y97.598 E0.84088
G1 X104.926 Y98.311 E0.86713
G1 X105.182 Y99.025 E0.89236
G1 X105.324 Y99.492 E0.90859
G1 X105.515 Y100.258 E0.93485
G1 X105.623 Y100.996 E0.95966
G1 X105.671 Y101.483 E0.97593
G1 X105.709 Y102.272 E1.0022
G1 X105.695 Y102.544 E1.01126
G1 X105.709 Y102.751 E1.01816
G1 X105.709 Y104.2 E1.06636
G1 X125.777 Y104.2 E1.73382
G1 X126.006 Y103.992 E1.74411
G1 X126.593 Y103.51 E1.76937
G1 X127.383 Y102.923 E1.80211
G1 X128.028 Y102.492 E1.82791
G1 X128.868 Y101.989 E1.86047
G1 X129.537 Y101.631 E1.88571
G1 X130.424 Y101.211 E1.91835
G1 X131.144 Y100.914 E1.94426
G1 X132.07 Y100.584 E1.97695
G1 X132.785 Y100.367 E2.00181
G1 X133.735 Y100.128 E2.03439
G1 X134.496 Y99.976 E2.0602
G1 X135.469 Y99.832 E2.09291
G1 X136.229 Y99.757 E2.11831
G1 X137.208 Y99.709 E2.15091
G1 X137.972 Y99.709 E2.17633
G1 X138.95 Y99.757 E2.20889
G1 X139.709 Y99.832 E2.23426
G1 X140.683 Y99.976 E2.26701
G1 X141.445 Y100.128 E2.29285
G1 X142.395 Y100.367 E2.32543
G1 X143.11 Y100.584 E2.35029
G1 X144.036 Y100.914 E2.38298
G1 X144.759 Y101.213 E2.409
G1 X145.645 Y101.633 E2.44162
G1 X146.311 Y101.989 E2.46673
G1 X147.151 Y102.492 E2.4993
G1 X147.791 Y102.919 E2.52489
G1 X148.581 Y103.505 E2.5576
G1 X149.176 Y103.994 E2.58322
G1 X149.901 Y104.652 E2.61578
G1 X150.438 Y105.189 E2.64104
G1 X151.097 Y105.916 E2.67368
G1 X151.581 Y106.506 E2.69906
G1 X152.166 Y107.294 E2.7317
G1 X152.591 Y107.929 E2.75711
G1 X153.097 Y108.772 E2.78982
G1 X153.466 Y109.464 E2.8159
G1 X153.883 Y110.35 E2.84847
G1 X154.166 Y111.033 E2.87306
G1 X154.499 Y111.959 E2.90579
G1 X154.725 Y112.702 E2.93162
G1 X154.963 Y113.652 E2.96419
G1 X155.111 Y114.396 E2.98942
G1 X155.256 Y115.367 E3.02208
G1 X155.333 Y116.137 E3.04781
G1 X155.381 Y117.117 E3.08045
G1 X155.381 Y117.881 E3.10586
G1 X155.333 Y118.861 E3.13849
G1 X155.257 Y119.629 E3.16416
G1 X155.112 Y120.602 E3.19688
G1 X154.963 Y121.348 E3.22218
G1 X154.725 Y122.298 E3.25476
G1 X154.5 Y123.04 E3.28054
G1 X154.168 Y123.964 E3.3132
G1 X153.884 Y124.648 E3.33783
G1 X153.466 Y125.536 E3.37048
G1 X153.096 Y126.229 E3.39661
G1 X152.591 Y127.07 E3.42923
G1 X152.17 Y127.701 E3.45446
G1 X151.585 Y128.49 E3.48713
G1 X151.098 Y129.082 E3.51263
G1 X150.44 Y129.808 E3.54522
G1 X149.903 Y130.345 E3.57048
G1 X149.177 Y131.004 E3.60309
G1 X148.583 Y131.493 E3.62868
G1 X147.792 Y132.08 E3.66144
G1 X147.151 Y132.508 E3.68707
G1 X146.311 Y133.011 E3.71964
G1 X145.645 Y133.367 E3.74476
G1 X144.759 Y133.787 E3.77737
G1 X144.036 Y134.086 E3.80339
G1 X143.11 Y134.416 E3.83609
G1 X142.395 Y134.633 E3.86094
G1 X141.445 Y134.872 E3.89352
G1 X140.683 Y135.024 E3.91936
G1 X139.709 Y135.168 E3.95211
G1 X138.95 Y135.243 E3.97748
G1 X137.972 Y135.291 E4.01005
G1 X137.208 Y135.291 E4.03546
G1 X136.229 Y135.243 E4.06806
G1 X135.469 Y135.168 E4.09346
G1 X134.496 Y135.024 E4.12617
G1 X133.735 Y134.872 E4.15198
G1 X132.785 Y134.633 E4.18456
G1 X132.07 Y134.416 E4.20942
G1 X131.144 Y134.086 E4.24211
G1 X130.424 Y133.789 E4.26802
G1 X129.537 Y133.369 E4.30066
G1 X128.868 Y133.011 E4.3259
G1 X128.028 Y132.508 E4.35846
G1 X127.383 Y132.077 E4.38426
G1 X126.593 Y131.49 E4.417
G1 X126.006 Y131.008 E4.44226
G1 X125.777 Y130.8 E4.45255
G1 X105.708 Y130.8 E5.12005
G1 X105.708 Y132.77 E5.18557
G1 X105.669 Y133.545 E5.21138
G1 X105.622 Y134.015 E5.22709
G1 X105.504 Y134.796 E5.25336
G1 X105.325 Y135.502 E5.27758
G1 X105.184 Y135.967 E5.29375
G1 X104.917 Y136.711 E5.32004
G1 X104.588 Y137.402 E5.34549
G1 X104.294 Y137.948 E5.36612
G1 X103.885 Y138.623 E5.39237
G1 X103.409 Y139.254 E5.41866
G1 X102.947 Y139.76 E5.44145
G1 X102.443 Y140.265 E5.46518
G1 X101.857 Y140.795 E5.49146
G1 X100.92 Y141.453 E5.52954
G1 X100.471 Y141.721 E5.54693
G1 X99.773 Y142.091 E5.5732
G1 X99.077 Y142.375 E5.59821
G1 X98.282 Y142.674 E5.62646
G1 X97.519 Y142.878 E5.65272
G1 X96.74 Y143.003 E5.67897
G1 X95.889 Y143.05 E5.70731
G1 X87.41 Y143.05 E5.98933
G1 X86.621 Y143.01 E6.0156
G1 X85.841 Y142.891 E6.04185
G1 X85.076 Y142.693 E6.06813
G1 X84.336 Y142.419 E6.09437
G1 X83.627 Y142.071 E6.12064
G1 X82.956 Y141.653 E6.14694
G1 X82.332 Y141.17 E6.17318
G1 X81.759 Y140.627 E6.19944
G1 X81.244 Y140.028 E6.22571
G1 X80.793 Y139.38 E6.25197
G1 X80.409 Y138.689 E6.27826
G1 X80.097 Y137.964 E6.30451
G1 X79.86 Y137.211 E6.33077
G1 X79.701 Y136.437 E6.35705
G1 X79.62 Y135.652 E6.3833
G1 X79.61 Y135.25 E6.39667
G1 X79.61 Y130.25 E6.56297
G1 X79.65 Y129.461 E6.58925
G1 X79.769 Y128.681 E6.61549
G1 X79.967 Y127.916 E6.64178
G1 X80.241 Y127.176 E6.66802
G1 X80.589 Y126.467 E6.69429
G1 X81.007 Y125.796 E6.72058
G1 X81.49 Y125.172 E6.74683
G1 X82.033 Y124.599 E6.77309
G1 X82.632 Y124.084 E6.79936
G1 X83.28 Y123.633 E6.82562
G1 X83.971 Y123.249 E6.85191
G1 X84.696 Y122.937 E6.87816
G1 X85.109 Y122.807 E6.89256
G1 X85.109 Y112.202 E7.24529
G1 X84.336 Y111.919 E7.27267
G1 X83.627 Y111.571 E7.29894
G1 X82.956 Y111.153 E7.32523
G1 X82.332 Y110.67 E7.35147
G1 X81.759 Y110.127 E7.37773
G1 X81.244 Y109.528 E7.404
G1 X80.793 Y108.88 E7.43026
G1 X80.409 Y108.189 E7.45656
G1 X80.097 Y107.464 E7.48281
G1 X79.86 Y106.711 E7.50906
G1 X79.701 Y105.937 E7.53535
G1 X79.62 Y105.152 E7.56159
G1 X79.61 Y104.75 E7.57497
G1 X79.61 Y99.75 E7.74127
G1 X79.65 Y98.961 E7.76754
G1 X79.769 Y98.181 E7.79379
G1 X79.967 Y97.416 E7.82007
G1 X80.241 Y96.676 E7.84632
G1 X80.589 Y95.967 E7.87258
G1 X81.007 Y95.296 E7.89888
G1 X81.49 Y94.672 E7.92512
G1 X82.033 Y94.099 E7.95138
G0 F6000 X82.426 Y94.28
G1 F900 X83.021 Y93.792 E7.97697
G1 X83.663 Y93.369 E8.00255
G1 X84.346 Y93.014 E8.02815
G1 X85.061 Y92.733 E8.0537
G1 X85.803 Y92.527 E8.07931
G1 X86.561 Y92.399 E8.10488
G1 X87.41 Y92.35 E8.13316
G1 X95.889 Y92.35 E8.41518
G1 X96.657 Y92.39 E8.44076
G1 X97.417 Y92.509 E8.46634
G1 X98.16 Y92.707 E8.49192
G1 X98.627 Y92.885 E8.50854
G1 X98.765 Y92.927 E8.51334
G1 X99.338 Y93.162 E8.53393
G1 X99.66 Y93.31 E8.54572
G1 X100.389 Y93.696 E8.57316
G1 X100.618 Y93.834 E8.58205
G1 X101.508 Y94.464 E8.61832
G1 X101.885 Y94.775 E8.63457
G1 X102.452 Y95.294 E8.66014
G1 X102.898 Y95.79 E8.68232
G1 X103.208 Y96.168 E8.69858
G1 X103.664 Y96.788 E8.72418
G1 X104.002 Y97.354 E8.74611
G1 X104.235 Y97.787 E8.76246
G1 X104.564 Y98.483 E8.78807
G1 X104.799 Y99.141 E8.81131
G1 X104.941 Y99.608 E8.82754
G1 X105.126 Y100.355 E8.85314
G1 X105.225 Y101.035 E8.87599
G1 X105.273 Y101.522 E8.89227
G1 X105.309 Y102.29 E8.91784
G1 X105.309 Y102.751 E8.93317
G1 X105.309 Y104.6 E8.99467
G1 X125.931 Y104.6 E9.68056
G1 X126.275 Y104.288 E9.69601
G1 X126.832 Y103.831 E9.71997
G1 X127.622 Y103.244 E9.75271
G1 X128.233 Y102.835 E9.77716
G1 X129.073 Y102.332 E9.80973
G1 X129.708 Y101.993 E9.83367
G1 X130.595 Y101.573 E9.86631
G1 X131.278 Y101.29 E9.8909
G1 X132.204 Y100.96 E9.92359
G1 X132.883 Y100.755 E9.94719
G1 X133.833 Y100.516 E9.97977
G1 X134.555 Y100.372 E10.00425
G1 X135.528 Y100.228 E10.03697
G1 X136.249 Y100.157 E10.06106
G1 X137.228 Y100.109 E10.09367
G1 X137.953 Y100.109 E10.11778
G1 X138.931 Y100.157 E10.15035
G1 X139.65 Y100.228 E10.17438
G1 X140.624 Y100.372 E10.20712
G1 X141.347 Y100.516 E10.23164
G1 X142.297 Y100.755 E10.26423
G1 X142.976 Y100.96 E10.28782
G1 X143.902 Y101.29 E10.32051
G1 X144.588 Y101.574 E10.34521
G1 X145.474 Y101.994 E10.37782
G1 X146.106 Y102.332 E10.40166
G1 X146.946 Y102.835 E10.43422
G1 X147.553 Y103.241 E10.45851
G1 X148.343 Y103.827 E10.49122
G1 X148.907 Y104.29 E10.51549
G1 X149.632 Y104.948 E10.54806
G1 X150.142 Y105.458 E10.57205
G1 X150.801 Y106.185 E10.60468
G1 X151.26 Y106.744 E10.62874
G1 X151.845 Y107.532 E10.66138
G1 X152.248 Y108.135 E10.68551
G1 X152.754 Y108.978 E10.71821
G1 X153.104 Y109.635 E10.74297
G1 X153.521 Y110.521 E10.77553
G1 X153.789 Y111.168 E10.79883
G1 X154.122 Y112.094 E10.83156
G1 X154.337 Y112.8 E10.8561
G1 X154.575 Y113.75 E10.88868
G1 X154.716 Y114.455 E10.91259
G1 X154.861 Y115.426 E10.94524
G1 X154.933 Y116.157 E10.96967
G1 X154.981 Y117.137 E11.00231
G1 X154.981 Y117.861 E11.02639
G1 X154.933 Y118.841 E11.05902
G1 X154.861 Y119.57 E11.08339
G1 X154.716 Y120.543 E11.11611
G1 X154.575 Y121.25 E11.14008
G1 X154.337 Y122.2 E11.17266
G1 X154.123 Y122.904 E11.19713
G1 X153.791 Y123.828 E11.22979
G1 X153.522 Y124.478 E11.25318
G1 X153.104 Y125.366 E11.28583
G1 X152.753 Y126.023 E11.3106
G1 X152.248 Y126.864 E11.34323
G1 X151.848 Y127.462 E11.36716
G1 X151.263 Y128.251 E11.39983
G1 X150.802 Y128.814 E11.42403
G1 X150.144 Y129.54 E11.45662
G1 X149.635 Y130.049 E11.48056
G1 X148.909 Y130.708 E11.51317
G1 X148.345 Y131.171 E11.53744
G1 X147.554 Y131.758 E11.5702
G1 X146.946 Y132.165 E11.59454
G1 X146.106 Y132.668 E11.6271
G1 X145.474 Y133.006 E11.65094
G1 X144.588 Y133.426 E11.68355
G1 X143.902 Y133.71 E11.70825
G1 X142.976 Y134.04 E11.74094
G1 X142.297 Y134.245 E11.76453
G1 X141.347 Y134.484 E11.79712
G1 X140.624 Y134.628 E11.82163
G1 X139.65 Y134.772 E11.85438
G1 X138.931 Y134.843 E11.87841
G1 X137.953 Y134.891 E11.91098
G1 X137.228 Y134.891 E11.93509
G1 X136.249 Y134.843 E11.96769
G1 X135.528 Y134.772 E11.99179
G1 X134.555 Y134.628 E12.02451
G1 X133.833 Y134.484 E12.04899
G1 X132.883 Y134.245 E12.08157
G1 X132.204 Y134.04 E12.10516
G1 X131.278 Y133.71 E12.13786
G1 X130.595 Y133.427 E12.16245
G1 X129.708 Y133.007 E12.19509
G1 X129.073 Y132.668 E12.21903
G1 X128.233 Y132.165 E12.2516
G1 X127.622 Y131.756 E12.27605
G1 X126.832 Y131.169 E12.30879
G1 X126.275 Y130.712 E12.33275
G1 X125.931 Y130.4 E12.3482
G1 X105.308 Y130.4 E13.03412
G1 X105.308 Y132.77 E13.11295
G1 X105.271 Y133.505 E13.13743
G1 X105.224 Y133.975 E13.15314
G1 X105.108 Y134.736 E13.17874
G1 X104.943 Y135.386 E13.20104
G1 X104.802 Y135.851 E13.2172
G1 X104.54 Y136.575 E13.24281
G1 X104.235 Y137.212 E13.2663
G1 X103.941 Y137.758 E13.28693
G1 X103.542 Y138.416 E13.31252
G1 X103.077 Y139.028 E13.33809
G1 X102.664 Y139.477 E13.35838
G1 X102.16 Y139.982 E13.38211
G1 X101.589 Y140.498 E13.40771
G1 X100.715 Y141.109 E13.44317
G1 X100.266 Y141.377 E13.46057
G1 X99.586 Y141.737 E13.48616
G1 X98.943 Y141.998 E13.50924
G1 X98.676 Y142.105 E13.5188
G1 X97.949 Y142.357 E13.5444
G1 X97.2 Y142.533 E13.56999
G1 X96.437 Y142.63 E13.59557
G1 X95.889 Y142.65 E13.61381
G1 X87.41 Y142.65 E13.89582
G1 X86.642 Y142.61 E13.9214
G1 X85.882 Y142.491 E13.94698
G1 X85.139 Y142.293 E13.97256
G1 X84.42 Y142.019 E13.99815
G1 X83.734 Y141.672 E14.02372
G1 X83.087 Y141.256 E14.0493
G1 X82.487 Y140.775 E14.07488
G1 X81.94 Y140.234 E14.10047
G1 X81.452 Y139.639 E14.12606
G1 X81.029 Y138.997 E14.15163
G1 X80.674 Y138.314 E14.17724
G1 X80.393 Y137.599 E14.20279
G1 X80.187 Y136.857 E14.2284
G1 X80.059 Y136.099 E14.25397
G1 X80.01 Y135.25 E14.28225
G1 X80.01 Y130.25 E14.44855
G1 X80.05 Y129.482 E14.47413
G1 X80.169 Y128.722 E14.49972
G1 X80.367 Y127.979 E14.52529
G1 X80.641 Y127.26 E14.55088
G1 X80.988 Y126.574 E14.57645
G1 X81.404 Y125.927 E14.60204
G1 X81.885 Y125.327 E14.62761
G1 X82.426 Y124.78 E14.6532
G1 X83.021 Y124.292 E14.6788
G1 X83.663 Y123.869 E14.70437
G1 X84.346 Y123.514 E14.72997
G1 X85.061 Y123.233 E14.75552
G1 X85.509 Y123.109 E14.77098
G1 X85.509 Y111.892 E15.14406
G1 X85.139 Y111.793 E15.1568
G1 X84.42 Y111.519 E15.18239
G1 X83.734 Y111.172 E15.20796
G1 X83.087 Y110.756 E15.23355
G1 X82.487 Y110.275 E15.25912
G1 X81.94 Y109.734 E15.28471
G1 X81.452 Y109.139 E15.31031
G1 X81.029 Y108.497 E15.33588
G1 X80.674 Y107.814 E15.36148
G1 X80.393 Y107.099 E15.38703
G1 X80.187 Y106.357 E15.41264
G1 X80.059 Y105.599 E15.43821
G1 X80.01 Y104.75 E15.4665
G1 X80.01 Y99.75 E15.6328
G1 X80.05 Y98.982 E15.65838
G1 X80.169 Y98.222 E15.68396
G1 X80.367 Y97.479 E15.70954
G1 X80.641 Y96.76 E15.73513
G1 X80.988 Y96.074 E15.7607
G1 X81.404 Y95.427 E15.78628
G1 X81.885 Y94.827 E15.81186
G1 X82.426 Y94.28 E15.83745
G0 F6000 X82.818 Y94.466
G1 F900 X83.408 Y94.007 E15.86231
G1 X84.044 Y93.612 E15.88721
G1 X84.718 Y93.288 E15.91208
G1 X85.423 Y93.038 E15.93696
G1 X86.151 Y92.864 E15.96186
G1 X86.893 Y92.769 E15.98674
G1 X87.41 Y92.75 E16.00394
G1 X95.889 Y92.75 E16.28596
G1 X96.636 Y92.79 E16.31084
G1 X97.374 Y92.909 E16.3357
G1 X98.096 Y93.107 E16.3606
G1 X98.494 Y93.263 E16.37482
G1 X98.648 Y93.31 E16.38017
G1 X99.171 Y93.526 E16.39899
G1 X99.493 Y93.674 E16.41078
G1 X100.183 Y94.038 E16.43673
G1 X100.412 Y94.176 E16.44562
G1 X101.253 Y94.772 E16.47991
G1 X101.63 Y95.083 E16.49616
G1 X102.181 Y95.589 E16.52104
G1 X102.589 Y96.044 E16.54137
G1 X102.899 Y96.422 E16.55763
G1 X103.341 Y97.025 E16.58249
G1 X103.65 Y97.544 E16.60258
G1 X103.883 Y97.977 E16.61894
G1 X104.202 Y98.654 E16.64383
G1 X104.416 Y99.258 E16.66514
G1 X104.558 Y99.725 E16.68138
G1 X104.737 Y100.451 E16.70625
G1 X104.827 Y101.074 E16.72718
G1 X104.875 Y101.561 E16.74346
G1 X104.909 Y102.309 E16.76836
G1 X104.9 Y102.481 E16.77409
G1 X104.909 Y102.751 E16.78308
G1 X104.909 Y105 E16.85788
G1 X126.086 Y105 E17.56223
G1 X126.544 Y104.585 E17.58279
G1 X127.07 Y104.152 E17.60545
G1 X127.86 Y103.565 E17.63818
G1 X128.439 Y103.178 E17.66134
G1 X129.279 Y102.675 E17.69391
G1 X129.879 Y102.354 E17.71654
G1 X130.766 Y101.934 E17.74918
G1 X131.412 Y101.667 E17.77243
G1 X132.338 Y101.337 E17.80513
G1 X132.98 Y101.143 E17.82744
G1 X133.93 Y100.904 E17.86002
G1 X134.613 Y100.767 E17.88319
G1 X135.586 Y100.623 E17.9159
G1 X136.268 Y100.556 E17.93869
G1 X137.247 Y100.508 E17.97129
G1 X137.933 Y100.508 E17.99411
G1 X138.911 Y100.556 E18.02668
G1 X139.592 Y100.623 E18.04944
G1 X140.566 Y100.767 E18.08219
G1 X141.25 Y100.904 E18.10539
G1 X142.2 Y101.143 E18.13797
G1 X142.842 Y101.337 E18.16028
G1 X143.768 Y101.667 E18.19297
G1 X144.416 Y101.936 E18.21631
G1 X145.302 Y102.356 E18.24892
G1 X145.9 Y102.675 E18.27146
G1 X146.74 Y103.178 E18.30403
G1 X147.314 Y103.562 E18.327
G1 X148.104 Y104.148 E18.35971
G1 X148.638 Y104.587 E18.3827
G1 X149.363 Y105.245 E18.41527
G1 X149.845 Y105.727 E18.43794
G1 X150.504 Y106.454 E18.47058
G1 X150.938 Y106.982 E18.49331
G1 X151.523 Y107.77 E18.52595
G1 X151.905 Y108.34 E18.54877
G1 X152.411 Y109.183 E18.58147
G1 X152.743 Y109.805 E18.60492
G1 X153.16 Y110.691 E18.63749
G1 X153.413 Y111.303 E18.65952
