;FLAVOR:Marlin
;TIME:10723
;Filament used: 7.67706m
;Layer height: 0.2
;MINX:67.7
;MINY:41.658
;MINZ:0.2
;MAXX:167.3
;MAXY:193.342
;MAXZ:3.6
;Generated with Cura_SteamEngine 5.2.1
M140 S65
M105
M190 S65
M104 S240
M105
M109 S240
M82 ;absolute extrusion mode
; Ender 3 Custom Start G-code
G92 E0 ; Reset Extruder
G28 ; Home all axes
G1 Z2.0 F3000 ; Move Z Axis up little to prevent scratching of Heat Bed
G1 X0.1 Y20 Z0.3 F5000.0 ; Move to start position
G1 X0.1 Y200.0 Z0.3 F1500.0 E15 ; Draw the first line
G1 X0.4 Y200.0 Z0.3 F5000.0 ; Move to side a little
G1 X0.4 Y20 Z0.3 F1500.0 E30 ; Draw the second line
G92 E0 ; Reset Extruder
G1 Z2.0 F3000 ; Move Z Axis up little to prevent scratching of Heat Bed
G1 X5 Y20 Z0.3 F5000.0 ; Move over to prevent blob squish
G92 E0
G92 E0
G1 F2700 E-5
;LAYER_COUNT:18
;LAYER:0
M107
;MESH:plate_mesh.stl
G0 F6000 X88.993 Y154.715 Z0.2
;TYPE:WALL-INNER
G1 F2700 E0
G1 F900 X88.703 Y154.561 E0.01092
G1 X88.396 Y154.272 E0.02494
G1 X88.174 Y153.902 E0.0393
G1 X88.103 Y153.51 E0.05255
G1 X88.104 Y53.29 E3.38588
G1 X88.215 Y52.851 E3.40094
G1 X88.347 Y52.613 E3.40999
G1 X88.545 Y52.384 E3.42006
G1 X88.812 Y52.189 E3.43105
G1 X89.138 Y52.056 E3.44277
G1 X89.372 Y52.009 E3.4507
G1 X145.63 Y52.009 E5.32185
G1 X145.862 Y52.056 E5.32973
G1 X146.188 Y52.189 E5.34144
G1 X146.455 Y52.384 E5.35243
G1 X146.653 Y52.613 E5.3625
G1 X146.785 Y52.851 E5.37155
G1 X146.895 Y53.29 E5.38661
G1 X146.897 Y153.592 E8.72266
G1 X146.797 Y153.939 E8.73467
G1 X146.593 Y154.285 E8.74803
G1 X146.401 Y154.482 E8.75718
G1 X146.134 Y154.658 E8.76782
G1 X145.725 Y154.809 E8.78232
G1 X89.378 Y154.809 E10.65643
G1 X88.993 Y154.715 E10.66961
G0 F6000 X89.412 Y154.409
G1 F900 X89.138 Y154.342 E10.67899
G1 X88.931 Y154.232 E10.68679
G1 X88.711 Y154.025 E10.69684
G1 X88.562 Y153.758 E10.70701
G1 X88.502 Y153.481 E10.71643
G1 X88.503 Y53.324 E14.04767
G1 X88.582 Y53.01 E14.05844
G1 X88.676 Y52.84 E14.0649
G1 X89.008 Y52.537 E14.07985
G1 X89.323 Y52.409 E14.09116
G1 X145.678 Y52.409 E15.96553
G1 X145.992 Y52.537 E15.97681
G1 X146.182 Y52.677 E15.98466
G1 X146.418 Y53.01 E15.99823
G1 X146.497 Y53.324 E16.009
G1 X146.498 Y153.481 E19.34024
G1 X146.46 Y153.691 E19.34734
G1 X146.359 Y153.923 E19.35575
G1 X146.166 Y154.156 E19.36582
G1 X145.848 Y154.347 E19.37815
G1 X145.591 Y154.409 E19.38695
G1 X89.412 Y154.409 E21.25547
G1 F2700 E16.25547
G0 F6000 X89.226 Y154.967
G0 X89.226 Y165.196
G0 X85.149 Y165.937
G0 X84.488 Y166.232
G0 X84.112 Y166.561
G0 X83.764 Y167.085
G0 X83.661 Y167.708
G0 X83.661 Y175.227
G0 X83.71 Y175.622
G0 X83.861 Y176.021
G0 X84.125 Y176.406
G0 X85.392 Y177.576
G1 F2700 E21.25547
G1 F900 X84.919 Y177.505 E21.27138
G1 X84.434 Y177.339 E21.28843
G1 X83.916 Y176.986 E21.30928
G1 X83.714 Y176.798 E21.31845
G1 X83.367 Y176.285 E21.33905
G1 X83.16 Y175.745 E21.35829
G1 X83.1 Y175.267 E21.37431
G1 X83.104 Y167.661 E21.62729
G1 X83.208 Y167.047 E21.648
G1 X83.315 Y166.743 E21.65872
G1 X83.691 Y166.191 E21.68093
G1 X84.197 Y165.746 E21.70334
G1 X84.829 Y165.467 E21.72632
G1 X85.21 Y165.38 E21.73932
G1 X149.499 Y165.376 E23.87758
G1 X149.583 Y165.378 E23.88038
G1 X149.893 Y165.412 E23.89075
G1 X150.217 Y165.49 E23.90183
G1 X150.818 Y165.76 E23.92375
G1 X151.3 Y166.181 E23.94503
G1 X151.645 Y166.69 E23.96548
G1 X151.833 Y167.172 E23.98269
G1 X151.9 Y167.681 E23.99977
G1 X151.9 Y175.267 E24.25208
G1 X151.839 Y175.749 E24.26824
G1 X151.631 Y176.29 E24.28752
G1 X151.275 Y176.81 E24.30848
G1 X151.073 Y176.996 E24.31761
G1 X150.566 Y177.334 E24.33788
G1 X150.195 Y177.481 E24.35115
G1 X149.614 Y177.572 E24.37071
G1 X85.392 Y177.576 E26.50674
G0 F6000 X85.423 Y177.176
G1 F900 X85.015 Y177.117 E26.52045
G1 X84.611 Y176.976 E26.53468
G1 X84.164 Y176.673 E26.55264
G1 X83.996 Y176.502 E26.56062
G1 X83.722 Y176.099 E26.57683
G1 X83.55 Y175.651 E26.59279
G1 X83.5 Y175.242 E26.60649
G1 X83.503 Y167.694 E26.85754
G1 X83.595 Y167.147 E26.87599
G1 X83.67 Y166.932 E26.88356
G1 X83.993 Y166.457 E26.90267
G1 X84.401 Y166.097 E26.92076
G1 X85.026 Y165.814 E26.94358
G1 X85.244 Y165.779 E26.95093
G1 X149.499 Y165.776 E29.08806
G1 X149.559 Y165.777 E29.09005
G1 X150.014 Y165.833 E29.1053
G1 X150.614 Y166.106 E29.12723
G1 X151 Y166.449 E29.1444
G1 X151.281 Y166.856 E29.16085
G1 X151.447 Y167.296 E29.17649
G1 X151.5 Y167.707 E29.19027
G1 X151.5 Y175.242 E29.44089
G1 X151.448 Y175.657 E29.4548
G1 X151.269 Y176.119 E29.47128
G1 X150.971 Y176.547 E29.48863
G1 X150.826 Y176.681 E29.49519
G1 X150.332 Y177.002 E29.51479
G1 X150.101 Y177.091 E29.52302
G1 X149.581 Y177.173 E29.54053
G1 X85.423 Y177.176 E31.67443
G0 F6000 X85.425 Y176.772
G1 F900 X85.111 Y176.728 E31.68498
G1 X84.793 Y176.61 E31.69626
G1 X84.367 Y176.329 E31.71323
G1 X84.082 Y175.923 E31.72973
G1 X83.942 Y175.565 E31.74252
G1 X83.9 Y175.178 E31.75546
G1 X83.902 Y167.727 E32.00329
G1 X83.996 Y167.168 E32.02214
G1 X84.286 Y166.73 E32.03961
G1 X84.623 Y166.433 E32.05455
G1 X85.2 Y166.177 E32.07555
G1 X149.499 Y166.176 E34.21414
G1 X149.892 Y166.22 E34.22729
G1 X150.38 Y166.436 E34.24504
G1 X150.709 Y166.724 E34.25959
G1 X150.942 Y167.075 E34.2736
G1 X151.06 Y167.415 E34.28557
G1 X151.096 Y167.701 E34.29516
G1 X151.096 Y175.249 E34.5462
G1 X151.058 Y175.558 E34.55656
G1 X150.925 Y175.91 E34.56907
G1 X150.635 Y176.333 E34.58613
G1 X150.092 Y176.687 E34.60769
G1 X149.548 Y176.774 E34.62601
G1 X85.425 Y176.772 E36.75875
G0 F6000 X85.475 Y176.375
;TYPE:WALL-OUTER
G1 F900 X85.207 Y176.34 E36.76774
G1 X84.975 Y176.254 E36.77597
G1 X84.638 Y176.024 E36.78954
G1 X84.437 Y175.731 E36.80136
G1 X84.331 Y175.452 E36.81129
G1 X84.301 Y175.203 E36.81963
G1 X84.3 Y167.761 E37.06715
G1 X84.372 Y167.329 E37.08172
G1 X84.592 Y166.995 E37.09502
G1 X84.835 Y166.776 E37.1059
G1 X85.281 Y166.578 E37.12213
G1 X149.499 Y166.576 E39.25803
G1 X149.785 Y166.61 E39.26761
G1 X150.158 Y166.776 E39.28119
G1 X150.404 Y166.989 E39.29201
G1 X150.571 Y167.238 E39.30198
G1 X150.664 Y167.479 E39.31057
G1 X150.699 Y167.749 E39.31963
G1 X150.699 Y175.2 E39.56745
G1 X150.668 Y175.454 E39.57596
G1 X150.561 Y175.735 E39.58596
G1 X150.357 Y176.029 E39.59786
G1 X149.944 Y176.305 E39.61439
G1 X149.515 Y176.376 E39.62885
G1 X85.475 Y176.375 E41.75883
G1 F2700 E36.75883
G0 F6000 X85.387 Y177.068
G0 X127.194 Y177.756
G0 X127 Y189.858
G0 X127.194 Y190.058
;TYPE:WALL-INNER
G1 F2700 E41.75883
G1 F900 X127.266 Y190.142 E41.76251
G1 X165.588 Y190.142 E43.0371
G1 X165.855 Y190.018 E43.04689
G1 X165.963 Y189.911 E43.05195
G1 X166.1 Y189.641 E43.06202
G1 X166.1 Y43.534 E47.92156
G1 X166.041 Y43.211 E47.93248
G1 X165.869 Y42.994 E47.94169
G1 X165.601 Y42.858 E47.95169
G1 X69.616 Y42.858 E51.14416
G1 X69.367 Y42.88 E51.15247
G1 X69.14 Y42.986 E51.16081
G1 X69.038 Y43.087 E51.16558
G1 X68.926 Y43.309 E51.17385
G1 X68.9 Y43.536 E51.18145
G1 X68.901 Y189.548 E56.03783
G1 X69.029 Y189.82 E56.04783
G1 X69.137 Y189.927 E56.05288
G1 X69.35 Y190.032 E56.06078
G1 X69.578 Y190.058 E56.06841
G1 X127.194 Y190.058 E57.98473
G0 F6000 X127.139 Y190.458
G1 F900 X127.211 Y190.542 E57.98841
G1 X165.444 Y190.542 E59.26005
G1 X165.83 Y190.498 E59.27297
G1 X166.1 Y190.337 E59.28342
G1 X166.276 Y190.165 E59.29161
G1 X166.468 Y189.777 E59.30601
G1 X166.5 Y189.488 E59.31568
G1 X166.5 Y43.512 E64.17086
G1 X166.456 Y43.122 E64.18391
G1 X166.28 Y42.84 E64.19497
G1 X165.932 Y42.559 E64.20985
G1 X165.74 Y42.49 E64.21663
G1 X165.445 Y42.458 E64.2265
G1 X69.616 Y42.458 E67.41379
G1 X69.553 Y42.458 E67.41588
G1 X69.281 Y42.487 E67.42498
G1 X68.893 Y42.668 E67.43922
G1 X68.724 Y42.834 E67.4471
G1 X68.533 Y43.221 E67.46145
G1 X68.5 Y43.514 E67.47126
G1 X68.501 Y189.408 E72.32371
G1 X68.529 Y189.68 E72.33281
G1 X68.714 Y190.071 E72.34719
G1 X68.886 Y190.242 E72.35526
G1 X69.262 Y190.425 E72.36917
G1 X69.556 Y190.458 E72.37901
G1 X127.139 Y190.458 E74.29423
G0 F6000 X127.089 Y190.864
G1 F900 X127.156 Y190.942 E74.29765
G1 X165.466 Y190.942 E75.57184
G1 X165.811 Y190.904 E75.58339
G1 X166.075 Y190.818 E75.59262
G1 X166.346 Y190.656 E75.60312
G1 X166.589 Y190.419 E75.61441
G1 X166.769 Y190.135 E75.6256
G1 X166.862 Y189.865 E75.6351
G1 X166.9 Y189.509 E75.647
G1 X166.9 Y43.49 E80.50361
G1 X166.861 Y43.142 E80.51526
G1 X166.769 Y42.869 E80.52484
G1 X166.596 Y42.59 E80.53576
G1 X166.374 Y42.367 E80.54623
G1 X166.109 Y42.198 E80.55668
G1 X165.83 Y42.098 E80.56654
G1 X165.466 Y42.058 E80.57872
G1 X69.616 Y42.058 E83.7667
G1 X69.533 Y42.058 E83.76946
G1 X69.195 Y42.093 E83.78077
G1 X68.907 Y42.191 E83.79088
G1 X68.646 Y42.351 E83.80107
G1 X68.411 Y42.581 E83.812
G1 X68.233 Y42.864 E83.82312
G1 X68.14 Y43.133 E83.83259
G1 X68.1 Y43.492 E83.8446
G1 X68.101 Y189.428 E88.69845
G1 X68.135 Y189.767 E88.70979
G1 X68.24 Y190.067 E88.72036
G1 X68.399 Y190.321 E88.73032
G1 X68.635 Y190.557 E88.74142
G1 X68.899 Y190.723 E88.7518
G1 X69.174 Y190.818 E88.76147
G1 X69.534 Y190.858 E88.77352
G1 X127.089 Y190.864 E90.68781
G0 F6000 X127.03 Y191.26
;TYPE:WALL-OUTER
G1 F900 X127.101 Y191.342 E90.69142
G1 X165.488 Y191.342 E91.96817
G1 X165.895 Y191.297 E91.98179
G1 X166.242 Y191.184 E91.99393
G1 X166.592 Y190.975 E92.00749
G1 X166.902 Y190.673 E92.02188
G1 X167.132 Y190.309 E92.0362
G1 X167.255 Y189.952 E92.04876
G1 X167.3 Y189.53 E92.06288
G1 X167.3 Y43.468 E96.92092
G1 X167.254 Y43.055 E96.93474
G1 X167.133 Y42.697 E96.94731
G1 X166.912 Y42.34 E96.96128
G1 X166.626 Y42.053 E96.97475
G1 X166.287 Y41.836 E96.98814
G1 X165.92 Y41.705 E97.0011
G1 X165.488 Y41.658 E97.01555
G1 X69.616 Y41.658 E100.20427
G1 X69.512 Y41.658 E100.20773
G1 X69.109 Y41.7 E100.2212
G1 X68.736 Y41.827 E100.23431
G1 X68.398 Y42.033 E100.24747
G1 X68.097 Y42.328 E100.26149
G1 X67.869 Y42.69 E100.27572
G1 X67.747 Y43.045 E100.28821
G1 X67.7 Y43.47 E100.30243
G1 X67.701 Y189.448 E105.15768
G1 X67.742 Y189.855 E105.17128
G1 X67.877 Y190.241 E105.18488
G1 X68.084 Y190.572 E105.19787
G1 X68.384 Y190.872 E105.21198
G1 X68.725 Y191.086 E105.22537
G1 X69.086 Y191.211 E105.23808
G1 X69.512 Y191.258 E105.25233
G1 X127.03 Y191.26 E107.16539
G1 F2700 E102.16539
G0 F6000 X127.03 Y190.558
G0 X145.572 Y189.942
G0 X145.5 Y154.99
G0 X145.572 Y154.309
G1 F2700 E107.16539
G0 F6000 X145.572 Y154.005
;TYPE:WALL-INNER
G1 F900 X89.425 Y154.005 E109.03284
G1 X89.118 Y153.873 E109.04396
G1 X88.962 Y153.676 E109.05232
G1 X88.901 Y153.453 E109.06001
G1 X88.902 Y53.358 E112.38918
G1 X89.006 Y53.068 E112.39943
G1 X89.272 Y52.853 E112.4108
G1 X89.424 Y52.809 E112.41606
G1 X145.576 Y52.809 E114.28369
G1 X145.856 Y52.925 E114.29377
G1 X146.026 Y53.119 E114.30235
G1 X146.098 Y53.358 E114.31065
G1 X146.099 Y153.489 E117.64102
G1 X145.969 Y153.785 E117.65177
G1 X145.772 Y153.945 E117.66021
G1 X145.572 Y154.005 E117.66716
G1 F2700 E112.66716
G0 F6000 X145.572 Y154.309
G0 X89.372 Y154.309
G1 F2700 E117.66716
G0 F6000 X89.372 Y153.564
;TYPE:WALL-OUTER
G1 F900 X89.302 Y153.444 E117.67178
G1 X89.3 Y53.392 E120.99952
G1 X89.335 Y53.295 E121.00295
G1 X89.465 Y53.211 E121.0081
G1 X145.535 Y53.211 E122.873
G1 X145.7 Y53.329 E122.87974
G1 X145.696 Y153.452 E126.20985
G1 X145.657 Y153.535 E126.2129
G1 X145.535 Y153.607 E126.21761
G1 X89.465 Y153.607 E128.0825
G1 X89.372 Y153.564 E128.08591
G0 F6000 X89.372 Y154.309
G0 X88.955 Y154.808
G0 X88.86 Y155.05
;TYPE:SKIN
G1 F900 X88.489 Y154.853 E128.09988
G1 X88.277 Y154.678 E128.10903
G1 X87.997 Y154.331 E128.12386
G1 X87.867 Y154.071 E128.13353
G1 X87.746 Y153.65 E128.14809
G1 X87.747 Y53.12 E131.49174
G1 X87.913 Y52.62 E131.50926
G1 X88.178 Y52.249 E131.52442
G1 X88.533 Y51.919 E131.54054
G1 X89.021 Y51.714 E131.55815
G1 X89.331 Y51.651 E131.56867
G1 X145.676 Y51.652 E133.44271
G1 X146.082 Y51.73 E133.45646
G1 X146.548 Y51.992 E133.47424
G1 X146.819 Y52.245 E133.48657
G1 X147.082 Y52.611 E133.50156
G1 X147.25 Y53.104 E133.51889
G1 X147.254 Y153.554 E136.85987
G1 X147.19 Y153.902 E136.87164
G1 X147.026 Y154.329 E136.88685
G1 X146.642 Y154.751 E136.90583
G1 X146.299 Y154.979 E136.91953
G1 X145.89 Y155.128 E136.934
G1 X145.519 Y155.168 E136.94642
G1 X89.317 Y155.167 E138.8157
G1 X88.86 Y155.05 E138.83139
G1 F2700 E133.83139
G0 F6000 X88.955 Y154.808
G0 X89.226 Y154.967
G0 X89.226 Y165.196
G0 X85.149 Y165.937
G0 X84.488 Y166.232
G0 X84.112 Y166.561
G0 X83.764 Y167.085
G0 X83.661 Y167.708
G0 X83.661 Y175.227
G0 X83.71 Y175.622
G0 X83.861 Y176.021
G0 X84.125 Y176.406
G0 X85.372 Y177.668
G1 F2700 E138.83139
G0 F6000 X85.357 Y177.934
G1 F900 X84.814 Y177.851 E138.84966
G1 X84.285 Y177.667 E138.86829
G1 X83.799 Y177.347 E138.88764
G1 X83.58 Y177.173 E138.89695
G1 X83.387 Y176.957 E138.90658
G1 X83.05 Y176.458 E138.92661
G1 X82.872 Y176.016 E138.94246
G1 X82.798 Y175.752 E138.95158
G1 X82.741 Y175.304 E138.9666
G1 X82.745 Y167.587 E139.22326
G1 X82.862 Y166.943 E139.24504
G1 X82.992 Y166.581 E139.25783
G1 X83.414 Y165.957 E139.28288
G1 X83.797 Y165.611 E139.30005
G1 X84.084 Y165.405 E139.3118
G1 X84.725 Y165.122 E139.33511
G1 X85.167 Y165.023 E139.35017
G1 X149.615 Y165.019 E141.49372
G1 X150.072 Y165.076 E141.50904
G1 X150.444 Y165.192 E141.522
G1 X151.023 Y165.464 E141.54327
G1 X151.416 Y165.797 E141.56041
G1 X151.626 Y166.018 E141.57055
G1 X151.973 Y166.53 E141.59112
G1 X152.19 Y167.117 E141.61193
G1 X152.259 Y167.641 E141.62951
G1 X152.259 Y175.296 E141.88412
G1 X152.195 Y175.81 E141.90135
G1 X151.973 Y176.424 E141.92306
G1 X151.56 Y177.038 E141.94767
G1 X151.28 Y177.291 E141.96022
G1 X150.752 Y177.645 E141.98137
G1 X150.288 Y177.834 E141.99803
G1 X149.653 Y177.929 E142.01939
G1 X85.357 Y177.934 E144.15788
G1 F2700 E139.15788
G0 F6000 X85.372 Y177.668
G0 X127.2 Y177.756
G0 X127 Y189.858
G1 F2700 E144.15788
G0 F6000 X127.237 Y189.7
G1 F900 X127.367 Y189.782 E144.16299
G1 X165.515 Y189.781 E145.4318
G1 X165.62 Y189.732 E145.43565
G1 X165.74 Y189.559 E145.44266
G1 X165.74 Y43.497 E150.3007
G1 X165.683 Y43.328 E150.30663
G1 X165.521 Y43.218 E150.31314
G1 X69.486 Y43.218 E153.50728
G1 X69.37 Y43.273 E153.51155
G1 X69.292 Y43.369 E153.51566
G1 X69.26 Y43.561 E153.52214
G1 X69.262 Y189.475 E158.37526
G1 X69.313 Y189.582 E158.3792
G1 X69.479 Y189.698 E158.38594
G1 X127.237 Y189.7 E160.30698
G1 F2700 E155.30698
G0 F6000 X127.217 Y189.974
G0 X69.351 Y189.862
G0 X69.147 Y189.659
G0 X69.005 Y189.413
G1 F2700 E160.30698
G0 F6000 X69.461 Y189.386
G1 F900 X69.572 Y189.497 E160.3122
G0 F6000 X70.137 Y189.497
G1 F900 X69.461 Y188.82 E160.34402
G0 F6000 X69.461 Y188.255
G1 F900 X70.703 Y189.497 E160.40244
G0 F6000 X71.269 Y189.497
G1 F900 X69.461 Y187.689 E160.48748
G0 F6000 X69.461 Y187.123
G1 F900 X71.834 Y189.497 E160.59912
G0 F6000 X72.4 Y189.497
G1 F900 X69.461 Y186.558 E160.73736
G0 F6000 X69.461 Y185.992
G1 F900 X72.966 Y189.497 E160.90223
G0 F6000 X73.532 Y189.497
G1 F900 X69.461 Y185.426 E161.09372
G0 F6000 X69.461 Y184.861
G1 F900 X74.097 Y189.497 E161.31178
G0 F6000 X74.663 Y189.497
G1 F900 X69.461 Y184.295 E161.55646
G0 F6000 X69.461 Y183.729
G1 F900 X75.229 Y189.497 E161.82777
G0 F6000 X75.794 Y189.497
G1 F900 X69.461 Y183.163 E162.12568
G0 F6000 X69.461 Y182.598
G1 F900 X76.36 Y189.497 E162.45019
G0 F6000 X76.926 Y189.497
G1 F900 X69.461 Y182.032 E162.80132
G0 F6000 X69.461 Y181.466
G1 F900 X77.491 Y189.497 E163.17905
G0 F6000 X78.058 Y189.498
G1 F900 X69.461 Y180.901 E163.58343
G0 F6000 X69.461 Y180.335
G1 F900 X78.623 Y189.498 E164.0144
G0 F6000 X79.189 Y189.498
G1 F900 X69.461 Y179.769 E164.472
G0 F6000 X69.461 Y179.204
G1 F900 X79.755 Y189.498 E164.9562
G0 F6000 X80.32 Y189.498
G1 F900 X69.461 Y178.638 E165.467
G0 F6000 X69.461 Y178.072
G1 F900 X80.886 Y189.498 E166.00442
G0 F6000 X81.452 Y189.498
G1 F900 X69.461 Y177.507 E166.56844
G0 F6000 X69.461 Y176.941
G1 F900 X82.018 Y189.498 E167.15908
